; G-Code generated by Simplify3D(R) Version 4.1.2
; Nov 21, 2019 at 12:48:39 AM
; Settings Summary
;   processName,Fusematic
;   applyToModels,c10
;   profileName,Fusematic (modified)
;   profileVersion,2019-09-22 18:49:16
;   baseProfile,Default
;   printMaterial,PLA
;   printQuality,Medium
;   printExtruders,
;   extruderName,Extruder 1
;   extruderToolheadNumber,0
;   extruderDiameter,0.4
;   extruderAutoWidth,0
;   extruderWidth,0.4
;   extrusionMultiplier,0.9
;   extruderUseRetract,1
;   extruderRetractionDistance,1
;   extruderExtraRestartDistance,0
;   extruderRetractionZLift,0
;   extruderRetractionSpeed,1800
;   extruderUseCoasting,0
;   extruderCoastingDistance,0.2
;   extruderUseWipe,0
;   extruderWipeDistance,5
;   primaryExtruder,0
;   layerHeight,0.2
;   topSolidLayers,3
;   bottomSolidLayers,3
;   perimeterOutlines,2
;   printPerimetersInsideOut,1
;   startPointOption,2
;   startPointOriginX,0
;   startPointOriginY,0
;   sequentialIslands,0
;   spiralVaseMode,0
;   firstLayerHeightPercentage,100
;   firstLayerWidthPercentage,100
;   firstLayerUnderspeed,0.5
;   useRaft,0
;   raftExtruder,0
;   raftTopLayers,3
;   raftBaseLayers,2
;   raftOffset,3
;   raftSeparationDistance,0.14
;   raftTopInfill,100
;   aboveRaftSpeedMultiplier,0.3
;   useSkirt,1
;   skirtExtruder,0
;   skirtLayers,1
;   skirtOutlines,2
;   skirtOffset,4
;   usePrimePillar,0
;   primePillarExtruder,999
;   primePillarWidth,12
;   primePillarLocation,7
;   primePillarSpeedMultiplier,1
;   useOozeShield,0
;   oozeShieldExtruder,999
;   oozeShieldOffset,2
;   oozeShieldOutlines,1
;   oozeShieldSidewallShape,1
;   oozeShieldSidewallAngle,30
;   oozeShieldSpeedMultiplier,1
;   infillExtruder,0
;   internalInfillPattern,Rectilinear
;   externalInfillPattern,Rectilinear
;   infillPercentage,20
;   outlineOverlapPercentage,15
;   infillExtrusionWidthPercentage,100
;   minInfillLength,5
;   infillLayerInterval,1
;   internalInfillAngles,45,-45
;   overlapInternalInfillAngles,0
;   externalInfillAngles,45,-45
;   generateSupport,1
;   supportExtruder,0
;   supportInfillPercentage,30
;   supportExtraInflation,0
;   supportBaseLayers,0
;   denseSupportExtruder,0
;   denseSupportLayers,0
;   denseSupportInfillPercentage,70
;   supportLayerInterval,1
;   supportHorizontalPartOffset,0.3
;   supportUpperSeparationLayers,1
;   supportLowerSeparationLayers,1
;   supportType,0
;   supportGridSpacing,4
;   maxOverhangAngle,45
;   supportAngles,0
;   temperatureName,Extruder 1,Heated Bed
;   temperatureNumber,0,0
;   temperatureSetpointCount,1,1
;   temperatureSetpointLayers,1,1
;   temperatureSetpointTemperatures,220,60
;   temperatureStabilizeAtStartup,1,1
;   temperatureHeatedBed,0,1
;   fanLayers,1,2
;   fanSpeeds,0,100
;   blipFanToFullPower,0
;   adjustSpeedForCooling,1
;   minSpeedLayerTime,15
;   minCoolingSpeedSlowdown,20
;   increaseFanForCooling,0
;   minFanLayerTime,45
;   maxCoolingFanSpeed,100
;   increaseFanForBridging,0
;   bridgingFanSpeed,100
;   use5D,1
;   relativeEdistances,0
;   allowEaxisZeroing,1
;   independentExtruderAxes,0
;   includeM10123,0
;   stickySupport,1
;   applyToolheadOffsets,0
;   gcodeXoffset,0
;   gcodeYoffset,0
;   gcodeZoffset,0
;   overrideMachineDefinition,1
;   machineTypeOverride,0
;   strokeXoverride,200
;   strokeYoverride,225
;   strokeZoverride,200
;   originOffsetXoverride,0
;   originOffsetYoverride,0
;   originOffsetZoverride,0
;   homeXdirOverride,-1
;   homeYdirOverride,-1
;   homeZdirOverride,-1
;   flipXoverride,1
;   flipYoverride,-1
;   flipZoverride,1
;   toolheadOffsets,0,0|0,0|0,0|0,0|0,0|0,0
;   overrideFirmwareConfiguration,1
;   firmwareTypeOverride,RepRap (Marlin/Repetier/Sprinter)
;   GPXconfigOverride,r2
;   baudRateOverride,250000
;   overridePrinterModels,0
;   printerModelsOverride
;   startingGcode,G28 ; home all axes
;   layerChangeGcode,
;   retractionGcode,
;   toolChangeGcode,
;   endingGcode,M104 S0 ; turn off extruder,M140 S0 ; turn off bed,M84 ; disable motors
;   exportFileFormat,gcode
;   celebration,0
;   celebrationSong,Take On Me
;   postProcessing,
;   defaultSpeed,3600
;   outlineUnderspeed,0.5
;   solidInfillUnderspeed,0.8
;   supportUnderspeed,0.8
;   rapidXYspeed,4800
;   rapidZspeed,1000
;   minBridgingArea,50
;   bridgingExtraInflation,0
;   bridgingExtrusionMultiplier,1
;   bridgingSpeedMultiplier,1
;   useFixedBridgingAngle,0
;   fixedBridgingAngle,0
;   applyBridgingToPerimeters,0
;   filamentDiameters,1.72|1.72|1.72|1.72|1.72|1.72
;   filamentPricesPerKg,46|46|46|46|46|46
;   filamentDensities,1.25|1.25|1.25|1.25|1.25|1.25
;   useMinPrintHeight,0
;   minPrintHeight,0
;   useMaxPrintHeight,0
;   maxPrintHeight,0
;   useDiaphragm,0
;   diaphragmLayerInterval,20
;   robustSlicing,1
;   mergeAllIntoSolid,0
;   onlyRetractWhenCrossingOutline,1
;   retractBetweenLayers,1
;   useRetractionMinTravel,0
;   retractionMinTravel,3
;   retractWhileWiping,0
;   onlyWipeOutlines,1
;   avoidCrossingOutline,0
;   maxMovementDetourFactor,3
;   toolChangeRetractionDistance,12
;   toolChangeExtraRestartDistance,-0.5
;   toolChangeRetractionSpeed,600
;   externalThinWallType,0
;   internalThinWallType,2
;   thinWallAllowedOverlapPercentage,10
;   singleExtrusionMinLength,1
;   singleExtrusionMinPrintingWidthPercentage,50
;   singleExtrusionMaxPrintingWidthPercentage,200
;   singleExtrusionEndpointExtension,0.2
;   horizontalSizeCompensation,0
G90
M82
M106 S0
M140 S60
M190 S60
M104 S220 T0
M109 S220 T0
G28 ; home all axes
; process Fusematic
; layer 1, Z = 0.200
T0
G92 E0.0000
G1 E-1.0000 F1800
; feature skirt
; tool H0.200 W0.400
G1 Z0.200 F1000
G1 X22.095 Y31.900 F4800
G1 E0.0000 F1800
G92 E0.0000
G1 X128.451 Y31.900 E3.2957 F1800
G1 X129.397 Y32.101 E3.3257
G1 X142.716 Y38.031 E3.7775
G1 X143.134 Y38.272 E3.7924
G1 X157.266 Y48.539 E4.3337
G1 X157.624 Y48.862 E4.3486
G1 X169.313 Y61.843 E4.8899
G1 X169.596 Y62.233 E4.9049
G1 X178.330 Y77.362 E5.4462
G1 X178.526 Y77.802 E5.4611
G1 X180.487 Y83.837 E5.6577
G1 X180.600 Y84.552 E5.6802
G1 X180.600 Y140.448 E7.4123
G1 X180.487 Y141.163 E7.4347
G1 X178.526 Y147.198 E7.6313
G1 X178.330 Y147.639 E7.6463
G1 X169.596 Y162.766 E8.1876
G1 X169.313 Y163.156 E8.2025
G1 X157.624 Y176.138 E8.7438
G1 X157.266 Y176.460 E8.7587
G1 X143.134 Y186.728 E9.3000
G1 X142.716 Y186.969 E9.3150
G1 X129.397 Y192.899 E9.7667
G1 X128.451 Y193.100 E9.7967
G1 X50.345 Y193.100 E12.2170
G1 X50.125 Y193.320 E12.2266
G1 X43.645 Y193.320 E12.4275
G1 X43.425 Y193.100 E12.4371
G1 X22.095 Y193.100 E13.0981
G1 X19.400 Y190.405 E13.2162
G1 X19.400 Y34.595 E18.0443
G1 X22.095 Y31.900 E18.1624
G92 E0.0000
G1 E-1.0000 F1800
G1 X22.260 Y32.300 F4800
G1 E0.0000 F1800
G92 E0.0000
G1 X128.409 Y32.300 E3.2893 F1800
G1 X129.273 Y32.484 E3.3166
G1 X142.534 Y38.388 E3.7665
G1 X142.916 Y38.608 E3.7801
G1 X157.014 Y48.850 E4.3201
G1 X157.341 Y49.145 E4.3337
G1 X169.001 Y62.095 E4.8737
G1 X169.260 Y62.451 E4.8874
G1 X177.973 Y77.544 E5.4274
G1 X178.152 Y77.946 E5.4410
G1 X180.097 Y83.931 E5.6360
G1 X180.200 Y84.584 E5.6565
G1 X180.200 Y140.417 E7.3866
G1 X180.097 Y141.069 E7.4071
G1 X178.152 Y147.054 E7.6021
G1 X177.973 Y147.457 E7.6158
G1 X169.260 Y162.548 E8.1558
G1 X169.001 Y162.904 E8.1694
G1 X157.341 Y175.854 E8.7094
G1 X157.014 Y176.149 E8.7230
G1 X142.916 Y186.392 E9.2630
G1 X142.534 Y186.612 E9.2767
G1 X129.273 Y192.516 E9.7265
G1 X128.409 Y192.700 E9.7539
G1 X50.180 Y192.700 E12.1780
G1 X49.960 Y192.920 E12.1876
G1 X43.810 Y192.920 E12.3782
G1 X43.590 Y192.700 E12.3878
G1 X22.260 Y192.700 E13.0488
G1 X19.800 Y190.240 E13.1566
G1 X19.800 Y34.760 E17.9745
G1 X22.260 Y32.300 E18.0823
G92 E0.0000
G1 E-1.0000 F1800
; feature inner perimeter
G1 X24.600 Y37.100 F4800
G1 E0.0000 F1800
G92 E0.0000
G1 X127.840 Y37.100 E3.1992 F1350
G1 X140.323 Y42.657 E3.6226
G1 X153.963 Y52.567 E4.1450
G1 X165.245 Y65.097 E4.6675
G1 X173.675 Y79.698 E5.1899
G1 X175.400 Y85.009 E5.3630
G1 X175.400 Y139.991 E7.0667
G1 X173.675 Y145.302 E7.2397
G1 X165.245 Y159.903 E7.7622
G1 X153.963 Y172.432 E8.2846
G1 X140.323 Y182.342 E8.8071
G1 X127.840 Y187.900 E9.2305
G1 X50.350 Y187.900 E11.6317
G1 X50.350 Y167.900 E12.2515
G1 X44.650 Y167.900 E12.4281
G1 X44.650 Y187.900 E13.0479
G1 X24.600 Y187.900 E13.6692
G1 X24.600 Y37.100 E18.3421
; feature outer perimeter
G1 X24.200 Y36.700 F4800
G92 E0.0000
G1 X127.925 Y36.700 E3.2142 F900
G1 X140.524 Y42.309 E3.6415
G1 X154.232 Y52.268 E4.1666
G1 X165.570 Y64.860 E4.6916
G1 X174.042 Y79.535 E5.2167
G1 X175.800 Y84.946 E5.3930
G1 X175.800 Y140.054 E7.1007
G1 X174.042 Y145.466 E7.2770
G1 X165.570 Y160.139 E7.8020
G1 X154.232 Y172.731 E8.3271
G1 X140.524 Y182.690 E8.8521
G1 X127.925 Y188.300 E9.2795
G1 X49.950 Y188.300 E11.6958
G1 X49.950 Y168.300 E12.3155
G1 X45.050 Y168.300 E12.4673
G1 X45.050 Y188.300 E13.0871
G1 X24.200 Y188.300 E13.7332
G1 X24.200 Y36.700 E18.4309
; feature inner perimeter
G1 X61.958 Y70.250 F4800
G92 E0.0000
G1 X54.005 Y79.082 E0.3683 F1350
G1 X48.062 Y89.376 E0.7366
G1 X44.389 Y100.680 E1.1049
G1 X43.147 Y112.500 E1.4732
G1 X44.389 Y124.320 E1.8415
G1 X48.062 Y135.624 E2.2098
G1 X54.005 Y145.917 E2.5781
G1 X61.958 Y154.750 E2.9464
G1 X71.573 Y161.736 E3.3147
G1 X82.431 Y166.571 E3.6830
G1 X94.057 Y169.042 E4.0513
G1 X105.943 Y169.042 E4.4196
G1 X117.569 Y166.571 E4.7880
G1 X128.427 Y161.736 E5.1563
G1 X138.043 Y154.750 E5.5246
G1 X145.995 Y145.917 E5.8929
G1 X151.938 Y135.624 E6.2612
G1 X155.611 Y124.320 E6.6295
G1 X156.853 Y112.500 E6.9978
G1 X155.611 Y100.680 E7.3661
G1 X151.938 Y89.376 E7.7344
G1 X145.995 Y79.082 E8.1027
G1 X138.043 Y70.250 E8.4710
G1 X128.427 Y63.264 E8.8393
G1 X117.569 Y58.429 E9.2076
G1 X105.943 Y55.958 E9.5759
G1 X94.057 Y55.958 E9.9442
G1 X82.431 Y58.429 E10.3125
G1 X71.573 Y63.264 E10.6808
G1 X61.958 Y70.250 E11.0491
; feature outer perimeter
G1 X62.227 Y70.549 F4800
G92 E0.0000
G1 X54.330 Y79.319 E0.3657 F900
G1 X48.429 Y89.539 E0.7314
G1 X44.782 Y100.763 E1.0971
G1 X43.549 Y112.500 E1.4628
G1 X44.782 Y124.237 E1.8285
G1 X48.429 Y135.461 E2.1942
G1 X54.330 Y145.681 E2.5599
G1 X62.227 Y154.451 E2.9256
G1 X71.774 Y161.388 E3.2913
G1 X82.556 Y166.188 E3.6570
G1 X94.099 Y168.642 E4.0227
G1 X105.901 Y168.642 E4.3884
G1 X117.444 Y166.188 E4.7541
G1 X128.226 Y161.388 E5.1198
G1 X137.774 Y154.451 E5.4855
G1 X145.670 Y145.681 E5.8512
G1 X151.571 Y135.461 E6.2169
G1 X155.218 Y124.237 E6.5826
G1 X156.451 Y112.500 E6.9483
G1 X155.218 Y100.763 E7.3140
G1 X151.571 Y89.539 E7.6797
G1 X145.670 Y79.319 E8.0454
G1 X137.774 Y70.549 E8.4111
G1 X128.226 Y63.612 E8.7768
G1 X117.444 Y58.812 E9.1425
G1 X105.901 Y56.358 E9.5082
G1 X94.099 Y56.358 E9.8739
G1 X82.556 Y58.812 E10.2396
G1 X71.774 Y63.612 E10.6053
G1 X62.227 Y70.549 E10.9710
G92 E0.0000
G1 E-1.0000 F1800
; feature solid layer
G1 X142.323 Y74.496 F4800
G1 E0.0000 F1800
G92 E0.0000
G1 X175.060 Y107.233 E1.4346 F1440
G1 X175.060 Y107.798 E1.4522
G1 X146.447 Y79.186 E2.7060
G1 X147.220 Y80.524 E2.7539
G1 X175.060 Y108.364 E3.9740
G1 X175.060 Y108.930 E3.9915
G1 X147.993 Y81.863 E5.1776
G1 X148.766 Y83.201 E5.2255
G1 X175.060 Y109.495 E6.3778
G1 X175.060 Y110.061 E6.3954
G1 X149.539 Y84.540 E7.5138
G1 X150.311 Y85.878 E7.5617
G1 X175.060 Y110.627 E8.6462
G1 X175.060 Y111.192 E8.6638
G1 X151.084 Y87.217 E9.7145
G1 X151.857 Y88.555 E9.7623
G1 X175.060 Y111.758 E10.7792
G1 X175.060 Y112.324 E10.7967
G1 X152.384 Y89.648 E11.7904
G1 X152.656 Y90.486 E11.8177
G1 X175.060 Y112.890 E12.7995
G1 X175.060 Y113.455 E12.8171
G1 X152.929 Y91.324 E13.7869
G1 X153.201 Y92.162 E13.8142
G1 X175.060 Y114.021 E14.7721
G1 X175.060 Y114.587 E14.7897
G1 X153.473 Y93.000 E15.7357
G1 X153.745 Y93.838 E15.7630
G1 X175.060 Y115.152 E16.6970
G1 X175.060 Y115.718 E16.7146
G1 X154.018 Y94.676 E17.6367
G1 X154.290 Y95.514 E17.6640
G1 X175.060 Y116.284 E18.5742
G1 X175.060 Y116.849 E18.5917
G1 X154.562 Y96.352 E19.4900
G1 X154.835 Y97.190 E19.5173
G1 X175.060 Y117.415 E20.4036
G1 X175.060 Y117.981 E20.4212
G1 X155.107 Y98.028 E21.2956
G1 X155.379 Y98.866 E21.3229
G1 X175.060 Y118.546 E22.1853
G1 X175.060 Y119.112 E22.2029
G1 X155.651 Y99.704 E23.0534
G1 X155.924 Y100.541 E23.0807
G1 X175.060 Y119.678 E23.9193
G1 X175.060 Y120.243 E23.9368
G1 X156.007 Y101.190 E24.7718
G1 X156.073 Y101.822 E24.7915
G1 X175.060 Y120.809 E25.6236
G1 X175.060 Y121.375 E25.6411
G1 X156.139 Y102.454 E26.4702
G1 X156.206 Y103.086 E26.4899
G1 X175.060 Y121.940 E27.3162
G1 X175.060 Y122.506 E27.3337
G1 X156.272 Y103.719 E28.1570
G1 X156.339 Y104.351 E28.1767
G1 X175.060 Y123.072 E28.9972
G1 X175.060 Y123.638 E29.0147
G1 X156.405 Y104.983 E29.8322
G1 X156.472 Y105.615 E29.8519
G1 X175.060 Y124.203 E30.6665
G1 X175.060 Y124.769 E30.6840
G1 X156.538 Y106.247 E31.4957
G1 X156.604 Y106.879 E31.5154
G1 X175.060 Y125.335 E32.3242
G1 X175.060 Y125.900 E32.3417
G1 X156.671 Y107.511 E33.1476
G1 X156.737 Y108.143 E33.1672
G1 X175.060 Y126.466 E33.9702
G1 X175.060 Y127.032 E33.9877
G1 X156.804 Y108.775 E34.7878
G1 X156.870 Y109.408 E34.8075
G1 X175.060 Y127.597 E35.6046
G1 X175.060 Y128.163 E35.6221
G1 X156.937 Y110.040 E36.4163
G1 X157.003 Y110.672 E36.4360
G1 X175.060 Y128.729 E37.2273
G1 X175.060 Y129.294 E37.2449
G1 X157.069 Y111.304 E38.0333
G1 X157.136 Y111.936 E38.0530
G1 X175.060 Y129.860 E38.8385
G1 X175.060 Y130.426 E38.8560
G1 X157.189 Y112.555 E39.6391
G1 X157.136 Y113.067 E39.6551
G1 X175.060 Y130.991 E40.4406
G1 X175.060 Y131.557 E40.4581
G1 X157.082 Y113.579 E41.2460
G1 X157.028 Y114.091 E41.2619
G1 X175.060 Y132.123 E42.0521
G1 X175.060 Y132.689 E42.0696
G1 X156.974 Y114.603 E42.8622
G1 X156.920 Y115.115 E42.8782
G1 X175.060 Y133.254 E43.6731
G1 X175.060 Y133.820 E43.6906
G1 X156.867 Y115.626 E44.4879
G1 X156.813 Y116.138 E44.5039
G1 X175.060 Y134.386 E45.3035
G1 X175.060 Y134.951 E45.3210
G1 X156.759 Y116.650 E46.1230
G1 X156.705 Y117.162 E46.1390
G1 X175.060 Y135.517 E46.9433
G1 X175.060 Y136.083 E46.9609
G1 X156.651 Y117.674 E47.7676
G1 X156.598 Y118.186 E47.7835
G1 X175.060 Y136.648 E48.5926
G1 X175.060 Y137.214 E48.6101
G1 X156.544 Y118.698 E49.4216
G1 X156.490 Y119.210 E49.4375
G1 X175.060 Y137.780 E50.2513
G1 X175.060 Y138.345 E50.2688
G1 X156.436 Y119.722 E51.0850
G1 X156.382 Y120.234 E51.1009
G1 X175.060 Y138.911 E51.9194
G1 X175.060 Y139.477 E51.9370
G1 X156.329 Y120.745 E52.7578
G1 X156.275 Y121.257 E52.7738
G1 X175.034 Y140.017 E53.5959
G1 X174.896 Y140.444 E53.6098
G1 X156.221 Y121.769 E54.4281
G1 X156.167 Y122.281 E54.4441
G1 X174.757 Y140.871 E55.2587
G1 X174.618 Y141.298 E55.2727
G1 X156.114 Y122.793 E56.0836
G1 X156.060 Y123.305 E56.0995
G1 X174.479 Y141.725 E56.9067
G1 X174.341 Y142.152 E56.9206
G1 X156.006 Y123.817 E57.7241
G1 X155.952 Y124.329 E57.7401
G1 X174.202 Y142.579 E58.5398
G1 X174.063 Y143.006 E58.5538
G1 X155.824 Y124.766 E59.3531
G1 X155.685 Y125.193 E59.3670
G1 X173.925 Y143.433 E60.1663
G1 X173.786 Y143.860 E60.1802
G1 X155.546 Y125.620 E60.9795
G1 X155.408 Y126.047 E60.9934
G1 X173.647 Y144.286 E61.7927
G1 X173.509 Y144.713 E61.8066
G1 X155.269 Y126.474 E62.6059
G1 X155.130 Y126.901 E62.6199
G1 X173.370 Y145.140 E63.4192
G1 X173.362 Y145.163 E63.4199
G1 X173.166 Y145.503 E63.4321
G1 X154.991 Y127.328 E64.2285
G1 X154.853 Y127.755 E64.2424
G1 X172.959 Y145.861 E65.0359
G1 X172.752 Y146.220 E65.0488
G1 X154.714 Y128.182 E65.8393
G1 X154.575 Y128.609 E65.8532
G1 X172.545 Y146.579 E66.6407
G1 X172.338 Y146.937 E66.6535
G1 X154.437 Y129.036 E67.4380
G1 X154.298 Y129.463 E67.4519
G1 X172.131 Y147.296 E68.2334
G1 X171.924 Y147.654 E68.2462
G1 X154.159 Y129.889 E69.0248
G1 X154.020 Y130.316 E69.0387
G1 X171.717 Y148.013 E69.8142
G1 X171.510 Y148.372 E69.8270
G1 X153.882 Y130.743 E70.5995
G1 X153.743 Y131.170 E70.6135
G1 X171.303 Y148.730 E71.3830
G1 X171.096 Y149.089 E71.3958
G1 X153.604 Y131.597 E72.1624
G1 X153.465 Y132.024 E72.1763
G1 X170.889 Y149.448 E72.9398
G1 X170.682 Y149.806 E72.9526
G1 X153.327 Y132.451 E73.7132
G1 X153.188 Y132.878 E73.7271
G1 X170.475 Y150.165 E74.4846
G1 X170.268 Y150.524 E74.4975
G1 X153.049 Y133.305 E75.2520
G1 X152.910 Y133.732 E75.2660
G1 X170.061 Y150.882 E76.0175
G1 X169.853 Y151.241 E76.0303
G1 X152.772 Y134.159 E76.7789
G1 X152.633 Y134.586 E76.7928
