; G-Code generated by Simplify3D(R) Version 4.1.2
; Nov 25, 2019 at 8:35:39 PM
; Settings Summary
;   processName,Fusematic
;   applyToModels,c13
;   profileName,Fusematic (modified)
;   profileVersion,2019-11-24 18:18:37
;   baseProfile,Default
;   printMaterial,PLA
;   printQuality,Medium
;   printExtruders,
;   extruderName,Extruder 1
;   extruderToolheadNumber,0
;   extruderDiameter,0.4
;   extruderAutoWidth,0
;   extruderWidth,0.4
;   extrusionMultiplier,0.9
;   extruderUseRetract,1
;   extruderRetractionDistance,1
;   extruderExtraRestartDistance,0
;   extruderRetractionZLift,0
;   extruderRetractionSpeed,1800
;   extruderUseCoasting,0
;   extruderCoastingDistance,0.2
;   extruderUseWipe,0
;   extruderWipeDistance,5
;   primaryExtruder,0
;   layerHeight,0.2
;   topSolidLayers,3
;   bottomSolidLayers,3
;   perimeterOutlines,2
;   printPerimetersInsideOut,1
;   startPointOption,2
;   startPointOriginX,0
;   startPointOriginY,0
;   sequentialIslands,0
;   spiralVaseMode,0
;   firstLayerHeightPercentage,100
;   firstLayerWidthPercentage,100
;   firstLayerUnderspeed,0.5
;   useRaft,0
;   raftExtruder,0
;   raftTopLayers,3
;   raftBaseLayers,2
;   raftOffset,3
;   raftSeparationDistance,0.14
;   raftTopInfill,100
;   aboveRaftSpeedMultiplier,0.3
;   useSkirt,1
;   skirtExtruder,0
;   skirtLayers,1
;   skirtOutlines,2
;   skirtOffset,4
;   usePrimePillar,0
;   primePillarExtruder,999
;   primePillarWidth,12
;   primePillarLocation,7
;   primePillarSpeedMultiplier,1
;   useOozeShield,0
;   oozeShieldExtruder,999
;   oozeShieldOffset,2
;   oozeShieldOutlines,1
;   oozeShieldSidewallShape,1
;   oozeShieldSidewallAngle,30
;   oozeShieldSpeedMultiplier,1
;   infillExtruder,0
;   internalInfillPattern,Rectilinear
;   externalInfillPattern,Rectilinear
;   infillPercentage,20
;   outlineOverlapPercentage,15
;   infillExtrusionWidthPercentage,100
;   minInfillLength,5
;   infillLayerInterval,1
;   internalInfillAngles,45,-45
;   overlapInternalInfillAngles,0
;   externalInfillAngles,45,-45
;   generateSupport,1
;   supportExtruder,0
;   supportInfillPercentage,30
;   supportExtraInflation,0
;   supportBaseLayers,0
;   denseSupportExtruder,0
;   denseSupportLayers,0
;   denseSupportInfillPercentage,70
;   supportLayerInterval,1
;   supportHorizontalPartOffset,0.3
;   supportUpperSeparationLayers,1
;   supportLowerSeparationLayers,1
;   supportType,0
;   supportGridSpacing,4
;   maxOverhangAngle,45
;   supportAngles,0
;   temperatureName,Extruder 1,Heated Bed
;   temperatureNumber,0,0
;   temperatureSetpointCount,1,1
;   temperatureSetpointLayers,1,1
;   temperatureSetpointTemperatures,220,60
;   temperatureStabilizeAtStartup,1,1
;   temperatureHeatedBed,0,1
;   fanLayers,1,2
;   fanSpeeds,0,100
;   blipFanToFullPower,0
;   adjustSpeedForCooling,1
;   minSpeedLayerTime,15
;   minCoolingSpeedSlowdown,20
;   increaseFanForCooling,0
;   minFanLayerTime,45
;   maxCoolingFanSpeed,100
;   increaseFanForBridging,0
;   bridgingFanSpeed,100
;   use5D,1
;   relativeEdistances,0
;   allowEaxisZeroing,1
;   independentExtruderAxes,0
;   includeM10123,0
;   stickySupport,1
;   applyToolheadOffsets,0
;   gcodeXoffset,0
;   gcodeYoffset,0
;   gcodeZoffset,0
;   overrideMachineDefinition,1
;   machineTypeOverride,0
;   strokeXoverride,200
;   strokeYoverride,225
;   strokeZoverride,200
;   originOffsetXoverride,0
;   originOffsetYoverride,0
;   originOffsetZoverride,0
;   homeXdirOverride,-1
;   homeYdirOverride,-1
;   homeZdirOverride,-1
;   flipXoverride,1
;   flipYoverride,-1
;   flipZoverride,1
;   toolheadOffsets,0,0|0,0|0,0|0,0|0,0|0,0
;   overrideFirmwareConfiguration,1
;   firmwareTypeOverride,RepRap (Marlin/Repetier/Sprinter)
;   GPXconfigOverride,r2
;   baudRateOverride,250000
;   overridePrinterModels,0
;   printerModelsOverride
;   startingGcode,G28 ; home all axes
;   layerChangeGcode,
;   retractionGcode,
;   toolChangeGcode,
;   endingGcode,M104 S0 ; turn off extruder,M140 S0 ; turn off bed,G91 ; set to relative ,G1 Z5 ; move up ,G90 ;  set to absolute,M84 ; disable motors
;   exportFileFormat,gcode
;   celebration,0
;   celebrationSong,Take On Me
;   postProcessing,
;   defaultSpeed,3600
;   outlineUnderspeed,0.5
;   solidInfillUnderspeed,0.8
;   supportUnderspeed,0.8
;   rapidXYspeed,4800
;   rapidZspeed,1000
;   minBridgingArea,50
;   bridgingExtraInflation,0
;   bridgingExtrusionMultiplier,1
;   bridgingSpeedMultiplier,1
;   useFixedBridgingAngle,0
;   fixedBridgingAngle,0
;   applyBridgingToPerimeters,0
;   filamentDiameters,1.72|1.72|1.72|1.72|1.72|1.72
;   filamentPricesPerKg,46|46|46|46|46|46
;   filamentDensities,1.25|1.25|1.25|1.25|1.25|1.25
;   useMinPrintHeight,0
;   minPrintHeight,0
;   useMaxPrintHeight,0
;   maxPrintHeight,0
;   useDiaphragm,0
;   diaphragmLayerInterval,20
;   robustSlicing,1
;   mergeAllIntoSolid,0
;   onlyRetractWhenCrossingOutline,1
;   retractBetweenLayers,1
;   useRetractionMinTravel,0
;   retractionMinTravel,3
;   retractWhileWiping,0
;   onlyWipeOutlines,1
;   avoidCrossingOutline,0
;   maxMovementDetourFactor,3
;   toolChangeRetractionDistance,12
;   toolChangeExtraRestartDistance,-0.5
;   toolChangeRetractionSpeed,600
;   externalThinWallType,0
;   internalThinWallType,2
;   thinWallAllowedOverlapPercentage,10
;   singleExtrusionMinLength,1
;   singleExtrusionMinPrintingWidthPercentage,50
;   singleExtrusionMaxPrintingWidthPercentage,200
;   singleExtrusionEndpointExtension,0.2
;   horizontalSizeCompensation,0
G90
M82
M106 S0
M140 S60
M190 S60
M104 S220 T0
M109 S220 T0
G28 ; home all axes
; process Fusematic
; layer 1, Z = 0.200
T0
G92 E0.0000
G1 E-1.0000 F1800
; feature skirt
; tool H0.200 W0.400
G1 Z0.200 F1000
G1 X22.095 Y31.900 F4800
G1 E0.0000 F1800
G92 E0.0000
G1 X131.507 Y31.900 E3.3904 F1800
G1 X132.453 Y32.101 E3.4204
G1 X143.341 Y36.949 E3.7897
G1 X143.759 Y37.190 E3.8047
G1 X158.102 Y47.611 E4.3540
G1 X158.460 Y47.934 E4.3690
G1 X170.324 Y61.109 E4.9184
G1 X170.607 Y61.499 E4.9333
G1 X179.471 Y76.853 E5.4827
G1 X179.667 Y77.293 E5.4976
G1 X180.487 Y79.813 E5.5797
G1 X180.600 Y80.529 E5.6022
G1 X180.600 Y144.471 E7.5836
G1 X180.487 Y145.187 E7.6060
G1 X179.667 Y147.707 E7.6882
G1 X179.471 Y148.147 E7.7031
G1 X170.607 Y163.501 E8.2525
G1 X170.324 Y163.891 E8.2674
G1 X158.460 Y177.067 E8.8168
G1 X158.102 Y177.389 E8.8317
G1 X143.759 Y187.810 E9.3811
G1 X143.341 Y188.051 E9.3961
G1 X132.453 Y192.899 E9.7654
G1 X131.507 Y193.100 E9.7953
G1 X22.095 Y193.100 E13.1858
G1 X19.400 Y190.405 E13.3038
G1 X19.400 Y34.595 E18.1320
G1 X22.095 Y31.900 E18.2501
G92 E0.0000
G1 E-1.0000 F1800
G1 X22.260 Y32.300 F4800
G1 E0.0000 F1800
G92 E0.0000
G1 X131.465 Y32.300 E3.3840 F1800
G1 X132.329 Y32.484 E3.4113
G1 X143.159 Y37.306 E3.7787
G1 X143.541 Y37.526 E3.7924
G1 X157.850 Y47.923 E4.3404
G1 X158.177 Y48.217 E4.3541
G1 X170.012 Y61.361 E4.9022
G1 X170.271 Y61.717 E4.9158
G1 X179.114 Y77.034 E5.4639
G1 X179.293 Y77.436 E5.4775
G1 X180.096 Y79.907 E5.5580
G1 X180.200 Y80.560 E5.5785
G1 X180.200 Y144.440 E7.5580
G1 X180.096 Y145.093 E7.5785
G1 X179.293 Y147.564 E7.6590
G1 X179.114 Y147.965 E7.6726
G1 X170.271 Y163.283 E8.2207
G1 X170.012 Y163.639 E8.2343
G1 X158.177 Y176.783 E8.7824
G1 X157.850 Y177.078 E8.7960
G1 X143.541 Y187.474 E9.3441
G1 X143.159 Y187.694 E9.3578
G1 X132.329 Y192.516 E9.7251
G1 X131.465 Y192.700 E9.7525
G1 X22.260 Y192.700 E13.1365
G1 X19.800 Y190.240 E13.2443
G1 X19.800 Y34.760 E18.0622
G1 X22.260 Y32.300 E18.1700
G92 E0.0000
G1 E-1.0000 F1800
; feature inner perimeter
G1 X24.600 Y37.100 F4800
G1 E0.0000 F1800
G92 E0.0000
G1 X130.896 Y37.100 E3.2939 F1350
G1 X140.948 Y41.575 E3.6348
G1 X154.799 Y51.639 E4.1654
G1 X166.256 Y64.363 E4.6959
G1 X174.816 Y79.189 E5.2264
G1 X175.400 Y80.986 E5.2850
G1 X175.400 Y144.014 E7.2380
G1 X174.816 Y145.810 E7.2966
G1 X166.256 Y160.638 E7.8271
G1 X154.799 Y173.361 E8.3576
G1 X140.948 Y183.425 E8.8882
G1 X130.896 Y187.900 E9.2291
G1 X24.600 Y187.900 E12.5230
G1 X24.600 Y37.100 E17.1959
; feature outer perimeter
G1 X24.200 Y36.700 F4800
G92 E0.0000
G1 X130.981 Y36.700 E3.3089 F900
G1 X141.149 Y41.227 E3.6538
G1 X155.068 Y51.340 E4.1869
G1 X166.581 Y64.126 E4.7201
G1 X175.183 Y79.026 E5.2532
G1 X175.800 Y80.923 E5.3150
G1 X175.800 Y144.077 E7.2720
G1 X175.183 Y145.974 E7.3338
G1 X166.581 Y160.874 E7.8669
G1 X155.068 Y173.660 E8.4001
G1 X141.149 Y183.773 E8.9332
G1 X130.981 Y188.300 E9.2781
G1 X24.200 Y188.300 E12.5870
G1 X24.200 Y36.700 E17.2847
; feature inner perimeter
G1 X61.121 Y69.321 F4800
G92 E0.0000
G1 X52.993 Y78.347 E0.3764 F1350
G1 X46.920 Y88.867 E0.7528
G1 X43.166 Y100.420 E1.1292
G1 X41.897 Y112.500 E1.5056
G1 X43.166 Y124.580 E1.8820
G1 X46.920 Y136.133 E2.2584
G1 X52.993 Y146.652 E2.6348
G1 X61.121 Y155.679 E3.0112
G1 X70.948 Y162.819 E3.3876
G1 X82.045 Y167.759 E3.7640
G1 X93.927 Y170.285 E4.1404
G1 X106.073 Y170.285 E4.5168
G1 X117.955 Y167.759 E4.8932
G1 X129.052 Y162.819 E5.2696
G1 X138.879 Y155.679 E5.6460
G1 X147.006 Y146.652 E6.0224
G1 X153.080 Y136.133 E6.3988
G1 X156.833 Y124.580 E6.7752
G1 X158.103 Y112.500 E7.1516
G1 X156.833 Y100.420 E7.5280
G1 X153.080 Y88.867 E7.9044
G1 X147.006 Y78.347 E8.2808
G1 X138.879 Y69.321 E8.6572
G1 X129.052 Y62.181 E9.0336
G1 X117.955 Y57.240 E9.4100
G1 X106.073 Y54.715 E9.7864
G1 X93.927 Y54.715 E10.1628
G1 X82.045 Y57.240 E10.5392
G1 X70.948 Y62.181 E10.9156
G1 X61.121 Y69.321 E11.2920
; feature outer perimeter
G1 X61.390 Y69.620 F4800
G92 E0.0000
G1 X53.319 Y78.584 E0.3738 F900
G1 X47.287 Y89.031 E0.7476
G1 X43.560 Y100.503 E1.1214
G1 X42.299 Y112.500 E1.4952
G1 X43.560 Y124.497 E1.8690
G1 X47.287 Y135.969 E2.2428
G1 X53.319 Y146.416 E2.6166
G1 X61.390 Y155.380 E2.9904
G1 X71.149 Y162.471 E3.3642
G1 X82.169 Y167.377 E3.7380
G1 X93.969 Y169.885 E4.1118
G1 X106.031 Y169.885 E4.4856
G1 X117.831 Y167.377 E4.8594
G1 X128.851 Y162.471 E5.2331
G1 X138.610 Y155.380 E5.6069
G1 X146.681 Y146.416 E5.9807
G1 X152.713 Y135.969 E6.3545
G1 X156.440 Y124.497 E6.7283
G1 X157.701 Y112.500 E7.1021
G1 X156.440 Y100.503 E7.4759
G1 X152.713 Y89.031 E7.8497
G1 X146.681 Y78.584 E8.2235
G1 X138.610 Y69.620 E8.5973
G1 X128.851 Y62.530 E8.9711
G1 X117.831 Y57.623 E9.3449
G1 X106.031 Y55.115 E9.7187
G1 X93.969 Y55.115 E10.0925
G1 X82.169 Y57.623 E10.4663
G1 X71.149 Y62.530 E10.8401
G1 X61.390 Y69.620 E11.2139
G92 E0.0000
G1 E-1.0000 F1800
; feature solid layer
G1 X143.775 Y74.250 F4800
G1 E0.0000 F1800
G92 E0.0000
G1 X175.060 Y105.536 E1.3710 F1440
G1 X175.060 Y106.101 E1.3885
G1 X147.525 Y78.566 E2.5952
G1 X148.298 Y79.905 E2.6431
G1 X175.060 Y106.667 E3.8159
G1 X175.060 Y107.233 E3.8334
G1 X149.071 Y81.244 E4.9723
G1 X149.844 Y82.582 E5.0202
G1 X175.060 Y107.798 E6.1253
G1 X175.060 Y108.364 E6.1428
G1 X150.617 Y83.921 E7.2140
G1 X151.390 Y85.259 E7.2619
G1 X175.060 Y108.930 E8.2992
G1 X175.060 Y109.495 E8.3167
G1 X152.162 Y86.598 E9.3201
G1 X152.935 Y87.936 E9.3680
G1 X175.060 Y110.061 E10.3376
G1 X175.060 Y110.627 E10.3551
G1 X153.504 Y89.070 E11.2998
G1 X153.776 Y89.908 E11.3271
G1 X175.060 Y111.192 E12.2598
G1 X175.060 Y111.758 E12.2773
G1 X154.048 Y90.746 E13.1982
G1 X154.320 Y91.584 E13.2255
G1 X175.060 Y112.324 E14.1343
G1 X175.060 Y112.890 E14.1519
G1 X154.592 Y92.422 E15.0488
G1 X154.865 Y93.260 E15.0761
G1 X175.060 Y113.455 E15.9611
G1 X175.060 Y114.021 E15.9786
G1 X155.137 Y94.098 E16.8517
G1 X155.409 Y94.936 E16.8790
G1 X175.060 Y114.587 E17.7402
G1 X175.060 Y115.152 E17.7577
G1 X155.681 Y95.773 E18.6070
G1 X155.953 Y96.611 E18.6343
G1 X175.060 Y115.718 E19.4716
G1 X175.060 Y116.284 E19.4891
G1 X156.226 Y97.449 E20.3145
G1 X156.498 Y98.287 E20.3418
G1 X175.060 Y116.849 E21.1552
G1 X175.060 Y117.415 E21.1727
G1 X156.770 Y99.125 E21.9743
G1 X157.042 Y99.963 E22.0016
G1 X175.060 Y117.981 E22.7912
G1 X175.060 Y118.546 E22.8087
G1 X157.203 Y100.690 E23.5912
G1 X157.270 Y101.322 E23.6109
G1 X175.060 Y119.112 E24.3905
G1 X175.060 Y119.678 E24.4081
G1 X157.336 Y101.954 E25.1848
G1 X157.403 Y102.586 E25.2045
G1 X175.060 Y120.243 E25.9782
G1 X175.060 Y120.809 E25.9958
G1 X157.469 Y103.218 E26.7667
G1 X157.536 Y103.851 E26.7863
G1 X175.060 Y121.375 E27.5543
G1 X175.060 Y121.940 E27.5718
G1 X157.602 Y104.483 E28.3369
G1 X157.669 Y105.115 E28.3566
G1 X175.060 Y122.506 E29.1187
G1 X175.060 Y123.072 E29.1363
G1 X157.735 Y105.747 E29.8955
G1 X157.802 Y106.379 E29.9152
G1 X175.060 Y123.638 E30.6715
G1 X175.060 Y124.203 E30.6890
G1 X157.868 Y107.011 E31.4424
G1 X157.935 Y107.643 E31.4621
G1 X175.060 Y124.769 E32.2126
G1 X175.060 Y125.335 E32.2301
G1 X158.001 Y108.276 E32.9777
G1 X158.067 Y108.908 E32.9974
G1 X175.060 Y125.900 E33.7421
G1 X175.060 Y126.466 E33.7596
G1 X158.134 Y109.540 E34.5013
G1 X158.200 Y110.172 E34.5210
G1 X175.060 Y127.032 E35.2599
G1 X175.060 Y127.597 E35.2774
G1 X158.267 Y110.804 E36.0133
G1 X158.333 Y111.436 E36.0330
G1 X175.060 Y128.163 E36.7660
G1 X175.060 Y128.729 E36.7836
G1 X158.400 Y112.069 E37.5137
G1 X158.445 Y112.500 E37.5271
G1 X158.428 Y112.662 E37.5322
G1 X175.060 Y129.294 E38.2610
G1 X175.060 Y129.860 E38.2786
G1 X158.374 Y113.174 E39.0098
G1 X158.320 Y113.686 E39.0257
G1 X175.060 Y130.426 E39.7593
G1 X175.060 Y130.991 E39.7768
G1 X158.267 Y114.198 E40.5128
G1 X158.213 Y114.710 E40.5287
G1 X175.060 Y131.557 E41.2670
G1 X175.060 Y132.123 E41.2845
G1 X158.159 Y115.222 E42.0252
G1 X158.105 Y115.734 E42.0411
G1 X175.060 Y132.689 E42.7841
G1 X175.060 Y133.254 E42.8017
G1 X158.051 Y116.246 E43.5470
G1 X157.998 Y116.757 E43.5630
G1 X175.060 Y133.820 E44.3107
G1 X175.060 Y134.386 E44.3282
G1 X157.944 Y117.269 E45.0783
G1 X157.890 Y117.781 E45.0943
G1 X175.060 Y134.951 E45.8467
G1 X175.060 Y135.517 E45.8642
G1 X157.836 Y118.293 E46.6190
G1 X157.782 Y118.805 E46.6350
G1 X175.060 Y136.083 E47.3922
G1 X175.060 Y136.648 E47.4097
G1 X157.728 Y119.317 E48.1692
G1 X157.675 Y119.829 E48.1852
G1 X175.060 Y137.214 E48.9470
G1 X175.060 Y137.780 E48.9646
G1 X157.621 Y120.340 E49.7288
G1 X157.567 Y120.852 E49.7447
G1 X175.060 Y138.345 E50.5113
G1 X175.060 Y138.911 E50.5289
G1 X157.513 Y121.364 E51.2978
G1 X157.459 Y121.876 E51.3138
G1 X175.060 Y139.477 E52.0851
G1 X175.060 Y140.042 E52.1026
G1 X157.406 Y122.388 E52.8763
G1 X157.352 Y122.900 E52.8922
G1 X175.060 Y140.608 E53.6683
G1 X175.060 Y141.174 E53.6858
G1 X157.298 Y123.412 E54.4642
G1 X157.244 Y123.924 E54.4801
G1 X175.060 Y141.739 E55.2609
G1 X175.060 Y142.305 E55.2784
G1 X157.190 Y124.435 E56.0615
G1 X157.168 Y124.651 E56.0682
G1 X157.087 Y124.898 E56.0763
G1 X175.060 Y142.871 E56.8639
G1 X175.060 Y143.437 E56.8814
G1 X156.949 Y125.325 E57.6751
G1 X156.810 Y125.752 E57.6890
G1 X175.050 Y143.992 E58.4883
G1 X174.911 Y144.419 E58.5022
G1 X156.671 Y126.179 E59.3016
G1 X156.533 Y126.606 E59.3155
G1 X174.772 Y144.846 E60.1148
G1 X174.633 Y145.273 E60.1287
G1 X156.394 Y127.033 E60.9280
G1 X156.255 Y127.460 E60.9419
G1 X174.490 Y145.695 E61.7410
G1 X174.283 Y146.054 E61.7538
G1 X156.116 Y127.887 E62.5500
G1 X155.978 Y128.314 E62.5639
G1 X174.076 Y146.412 E63.3570
G1 X173.869 Y146.771 E63.3698
G1 X155.839 Y128.741 E64.1599
G1 X155.700 Y129.168 E64.1738
G1 X173.662 Y147.129 E64.9610
G1 X173.455 Y147.488 E64.9738
G1 X155.562 Y129.595 E65.7579
G1 X155.423 Y130.022 E65.7718
G1 X173.248 Y147.847 E66.5530
G1 X173.041 Y148.205 E66.5658
G1 X155.284 Y130.449 E67.3439
G1 X155.145 Y130.876 E67.3579
G1 X172.834 Y148.564 E68.1330
G1 X172.627 Y148.923 E68.1458
G1 X155.007 Y131.303 E68.9180
G1 X154.868 Y131.730 E68.9319
G1 X172.419 Y149.281 E69.7011
G1 X172.212 Y149.640 E69.7139
G1 X154.729 Y132.157 E70.4800
G1 X154.591 Y132.584 E70.4940
G1 X172.005 Y149.999 E71.2571
G1 X171.798 Y150.357 E71.2700
G1 X154.452 Y133.011 E72.0301
G1 X154.313 Y133.438 E72.0440
G1 X171.591 Y150.716 E72.8012
G1 X171.384 Y151.074 E72.8141
G1 X154.174 Y133.865 E73.5682
G1 X154.036 Y134.292 E73.5821
G1 X171.177 Y151.433 E74.3333
G1 X170.970 Y151.792 E74.3462
G1 X153.897 Y134.719 E75.0944
G1 X153.758 Y135.146 E75.1083
G1 X170.763 Y152.150 E75.8535
G1 X170.556 Y152.509 E75.8663
G1 X153.620 Y135.573 E76.6085
G1 X153.481 Y136.000 E76.6224
G1 X170.349 Y152.868 E77.3616
G1 X170.142 Y153.226 E77.3745
G1 X153.317 Y136.402 E78.1118
G1 X153.110 Y136.760 E78.1246
