; G-Code generated by Simplify3D(R) Version 4.1.2
; Nov 26, 2019 at 10:32:08 PM
; Settings Summary
;   processName,Fusematic
;   applyToModels,c14
;   profileName,Fusematic (modified)
;   profileVersion,2019-11-24 18:18:37
;   baseProfile,Default
;   printMaterial,PLA
;   printQuality,Medium
;   printExtruders,
;   extruderName,Extruder 1
;   extruderToolheadNumber,0
;   extruderDiameter,0.4
;   extruderAutoWidth,0
;   extruderWidth,0.4
;   extrusionMultiplier,0.9
;   extruderUseRetract,1
;   extruderRetractionDistance,1
;   extruderExtraRestartDistance,0
;   extruderRetractionZLift,0
;   extruderRetractionSpeed,1800
;   extruderUseCoasting,0
;   extruderCoastingDistance,0.2
;   extruderUseWipe,0
;   extruderWipeDistance,5
;   primaryExtruder,0
;   layerHeight,0.2
;   topSolidLayers,3
;   bottomSolidLayers,3
;   perimeterOutlines,2
;   printPerimetersInsideOut,1
;   startPointOption,2
;   startPointOriginX,0
;   startPointOriginY,0
;   sequentialIslands,0
;   spiralVaseMode,0
;   firstLayerHeightPercentage,100
;   firstLayerWidthPercentage,100
;   firstLayerUnderspeed,0.5
;   useRaft,0
;   raftExtruder,0
;   raftTopLayers,3
;   raftBaseLayers,2
;   raftOffset,3
;   raftSeparationDistance,0.14
;   raftTopInfill,100
;   aboveRaftSpeedMultiplier,0.3
;   useSkirt,1
;   skirtExtruder,0
;   skirtLayers,1
;   skirtOutlines,2
;   skirtOffset,4
;   usePrimePillar,0
;   primePillarExtruder,999
;   primePillarWidth,12
;   primePillarLocation,7
;   primePillarSpeedMultiplier,1
;   useOozeShield,0
;   oozeShieldExtruder,999
;   oozeShieldOffset,2
;   oozeShieldOutlines,1
;   oozeShieldSidewallShape,1
;   oozeShieldSidewallAngle,30
;   oozeShieldSpeedMultiplier,1
;   infillExtruder,0
;   internalInfillPattern,Rectilinear
;   externalInfillPattern,Rectilinear
;   infillPercentage,20
;   outlineOverlapPercentage,15
;   infillExtrusionWidthPercentage,100
;   minInfillLength,5
;   infillLayerInterval,1
;   internalInfillAngles,45,-45
;   overlapInternalInfillAngles,0
;   externalInfillAngles,45,-45
;   generateSupport,1
;   supportExtruder,0
;   supportInfillPercentage,30
;   supportExtraInflation,0
;   supportBaseLayers,0
;   denseSupportExtruder,0
;   denseSupportLayers,0
;   denseSupportInfillPercentage,70
;   supportLayerInterval,1
;   supportHorizontalPartOffset,0.3
;   supportUpperSeparationLayers,1
;   supportLowerSeparationLayers,1
;   supportType,0
;   supportGridSpacing,4
;   maxOverhangAngle,45
;   supportAngles,0
;   temperatureName,Extruder 1,Heated Bed
;   temperatureNumber,0,0
;   temperatureSetpointCount,1,1
;   temperatureSetpointLayers,1,1
;   temperatureSetpointTemperatures,220,60
;   temperatureStabilizeAtStartup,1,1
;   temperatureHeatedBed,0,1
;   fanLayers,1,2
;   fanSpeeds,0,100
;   blipFanToFullPower,0
;   adjustSpeedForCooling,1
;   minSpeedLayerTime,15
;   minCoolingSpeedSlowdown,20
;   increaseFanForCooling,0
;   minFanLayerTime,45
;   maxCoolingFanSpeed,100
;   increaseFanForBridging,0
;   bridgingFanSpeed,100
;   use5D,1
;   relativeEdistances,0
;   allowEaxisZeroing,1
;   independentExtruderAxes,0
;   includeM10123,0
;   stickySupport,1
;   applyToolheadOffsets,0
;   gcodeXoffset,0
;   gcodeYoffset,0
;   gcodeZoffset,0
;   overrideMachineDefinition,1
;   machineTypeOverride,0
;   strokeXoverride,200
;   strokeYoverride,225
;   strokeZoverride,200
;   originOffsetXoverride,0
;   originOffsetYoverride,0
;   originOffsetZoverride,0
;   homeXdirOverride,-1
;   homeYdirOverride,-1
;   homeZdirOverride,-1
;   flipXoverride,1
;   flipYoverride,-1
;   flipZoverride,1
;   toolheadOffsets,0,0|0,0|0,0|0,0|0,0|0,0
;   overrideFirmwareConfiguration,1
;   firmwareTypeOverride,RepRap (Marlin/Repetier/Sprinter)
;   GPXconfigOverride,r2
;   baudRateOverride,250000
;   overridePrinterModels,0
;   printerModelsOverride
;   startingGcode,G28 ; home all axes
;   layerChangeGcode,
;   retractionGcode,
;   toolChangeGcode,
;   endingGcode,M104 S0 ; turn off extruder,M140 S0 ; turn off bed,G91 ; set to relative ,G1 Z5 ; move up ,G90 ;  set to absolute,M84 ; disable motors
;   exportFileFormat,gcode
;   celebration,0
;   celebrationSong,Take On Me
;   postProcessing,
;   defaultSpeed,3600
;   outlineUnderspeed,0.5
;   solidInfillUnderspeed,0.8
;   supportUnderspeed,0.8
;   rapidXYspeed,4800
;   rapidZspeed,1000
;   minBridgingArea,50
;   bridgingExtraInflation,0
;   bridgingExtrusionMultiplier,1
;   bridgingSpeedMultiplier,1
;   useFixedBridgingAngle,0
;   fixedBridgingAngle,0
;   applyBridgingToPerimeters,0
;   filamentDiameters,1.72|1.72|1.72|1.72|1.72|1.72
;   filamentPricesPerKg,46|46|46|46|46|46
;   filamentDensities,1.25|1.25|1.25|1.25|1.25|1.25
;   useMinPrintHeight,0
;   minPrintHeight,0
;   useMaxPrintHeight,0
;   maxPrintHeight,0
;   useDiaphragm,0
;   diaphragmLayerInterval,20
;   robustSlicing,1
;   mergeAllIntoSolid,0
;   onlyRetractWhenCrossingOutline,1
;   retractBetweenLayers,1
;   useRetractionMinTravel,0
;   retractionMinTravel,3
;   retractWhileWiping,0
;   onlyWipeOutlines,1
;   avoidCrossingOutline,0
;   maxMovementDetourFactor,3
;   toolChangeRetractionDistance,12
;   toolChangeExtraRestartDistance,-0.5
;   toolChangeRetractionSpeed,600
;   externalThinWallType,0
;   internalThinWallType,2
;   thinWallAllowedOverlapPercentage,10
;   singleExtrusionMinLength,1
;   singleExtrusionMinPrintingWidthPercentage,50
;   singleExtrusionMaxPrintingWidthPercentage,200
;   singleExtrusionEndpointExtension,0.2
;   horizontalSizeCompensation,0
G90
M82
M106 S0
M140 S60
M190 S60
M104 S220 T0
M109 S220 T0
G28 ; home all axes
; process Fusematic
; layer 1, Z = 0.200
T0
G92 E0.0000
G1 E-1.0000 F1800
; feature skirt
; tool H0.200 W0.400
G1 Z0.200 F1000
G1 X22.095 Y23.900 F4800
G1 E0.0000 F1800
G92 E0.0000
G1 X131.507 Y23.900 E3.3904 F1800
G1 X132.453 Y24.101 E3.4204
G1 X143.341 Y28.949 E3.7897
G1 X143.759 Y29.190 E3.8047
G1 X158.102 Y39.611 E4.3540
G1 X158.460 Y39.934 E4.3690
G1 X170.324 Y53.109 E4.9184
G1 X170.607 Y53.499 E4.9333
G1 X179.471 Y68.853 E5.4827
G1 X179.667 Y69.293 E5.4976
G1 X180.487 Y71.813 E5.5797
G1 X180.600 Y72.529 E5.6022
G1 X180.600 Y136.471 E7.5836
G1 X180.487 Y137.187 E7.6060
G1 X179.667 Y139.707 E7.6882
G1 X179.471 Y140.147 E7.7031
G1 X170.607 Y155.501 E8.2525
G1 X170.324 Y155.891 E8.2674
G1 X158.460 Y169.067 E8.8168
G1 X158.102 Y169.389 E8.8317
G1 X143.759 Y179.810 E9.3811
G1 X143.341 Y180.051 E9.3961
G1 X132.453 Y184.899 E9.7654
G1 X131.507 Y185.100 E9.7953
G1 X68.600 Y185.100 E11.7447
G1 X68.600 Y198.405 E12.1570
G1 X65.905 Y201.100 E12.2751
G1 X37.095 Y201.100 E13.1678
G1 X34.400 Y198.405 E13.2859
G1 X34.400 Y185.100 E13.6982
G1 X22.095 Y185.100 E14.0795
G1 X19.400 Y182.405 E14.1976
G1 X19.400 Y26.595 E19.0258
G1 X22.095 Y23.900 E19.1439
G92 E0.0000
G1 E-1.0000 F1800
G1 X22.260 Y24.300 F4800
G1 E0.0000 F1800
G92 E0.0000
G1 X131.465 Y24.300 E3.3840 F1800
G1 X132.329 Y24.484 E3.4113
G1 X143.159 Y29.306 E3.7787
G1 X143.541 Y29.526 E3.7924
G1 X157.850 Y39.923 E4.3404
G1 X158.177 Y40.217 E4.3541
G1 X170.012 Y53.361 E4.9022
G1 X170.271 Y53.717 E4.9158
G1 X179.114 Y69.034 E5.4639
G1 X179.293 Y69.436 E5.4775
G1 X180.096 Y71.907 E5.5580
G1 X180.200 Y72.560 E5.5785
G1 X180.200 Y136.440 E7.5580
G1 X180.096 Y137.093 E7.5785
G1 X179.293 Y139.564 E7.6590
G1 X179.114 Y139.965 E7.6726
G1 X170.271 Y155.283 E8.2207
G1 X170.012 Y155.639 E8.2343
G1 X158.177 Y168.783 E8.7824
G1 X157.850 Y169.078 E8.7960
G1 X143.541 Y179.474 E9.3441
G1 X143.159 Y179.694 E9.3578
G1 X132.329 Y184.516 E9.7251
G1 X131.465 Y184.700 E9.7525
G1 X68.200 Y184.700 E11.7129
G1 X68.200 Y198.240 E12.1325
G1 X65.740 Y200.700 E12.2403
G1 X37.260 Y200.700 E13.1228
G1 X34.800 Y198.240 E13.2306
G1 X34.800 Y184.700 E13.6502
G1 X22.260 Y184.700 E14.0388
G1 X19.800 Y182.240 E14.1466
G1 X19.800 Y26.760 E18.9645
G1 X22.260 Y24.300 E19.0723
G92 E0.0000
G1 E-1.0000 F1800
; feature inner perimeter
G1 X24.600 Y29.100 F4800
G1 E0.0000 F1800
G92 E0.0000
G1 X130.896 Y29.100 E3.2939 F1350
G1 X140.948 Y33.575 E3.6348
G1 X154.799 Y43.639 E4.1654
G1 X166.256 Y56.363 E4.6959
G1 X174.816 Y71.189 E5.2264
G1 X175.400 Y72.986 E5.2850
G1 X175.400 Y136.014 E7.2380
G1 X174.816 Y137.810 E7.2966
G1 X166.256 Y152.638 E7.8271
G1 X154.799 Y165.361 E8.3576
G1 X140.948 Y175.425 E8.8882
G1 X130.896 Y179.900 E9.2291
G1 X63.400 Y179.900 E11.3207
G1 X63.400 Y195.900 E11.8165
G1 X39.600 Y195.900 E12.5540
G1 X39.600 Y179.900 E13.0498
G1 X24.600 Y179.900 E13.5146
G1 X24.600 Y29.100 E18.1875
; feature outer perimeter
G1 X24.200 Y28.700 F4800
G92 E0.0000
G1 X130.981 Y28.700 E3.3089 F900
G1 X141.149 Y33.227 E3.6538
G1 X155.068 Y43.340 E4.1869
G1 X166.581 Y56.126 E4.7201
G1 X175.183 Y71.026 E5.2532
G1 X175.800 Y72.923 E5.3150
G1 X175.800 Y136.077 E7.2720
G1 X175.183 Y137.974 E7.3338
G1 X166.581 Y152.874 E7.8669
G1 X155.068 Y165.660 E8.4001
G1 X141.149 Y175.773 E8.9332
G1 X130.981 Y180.300 E9.2781
G1 X63.800 Y180.300 E11.3599
G1 X63.800 Y196.300 E11.8557
G1 X39.200 Y196.300 E12.6180
G1 X39.200 Y180.300 E13.1138
G1 X24.200 Y180.300 E13.5786
G1 X24.200 Y28.700 E18.2763
; feature inner perimeter
G1 X61.121 Y61.321 F4800
G92 E0.0000
G1 X52.993 Y70.347 E0.3764 F1350
G1 X46.920 Y80.867 E0.7528
G1 X43.166 Y92.420 E1.1292
G1 X41.897 Y104.500 E1.5056
G1 X43.166 Y116.580 E1.8820
G1 X46.920 Y128.133 E2.2584
G1 X52.993 Y138.652 E2.6348
G1 X61.121 Y147.679 E3.0112
G1 X70.948 Y154.819 E3.3876
G1 X82.045 Y159.759 E3.7640
G1 X93.927 Y162.285 E4.1404
G1 X106.073 Y162.285 E4.5168
G1 X117.955 Y159.759 E4.8932
G1 X129.052 Y154.819 E5.2696
G1 X138.879 Y147.679 E5.6460
G1 X147.006 Y138.652 E6.0224
G1 X153.080 Y128.133 E6.3988
G1 X156.833 Y116.580 E6.7752
G1 X158.103 Y104.500 E7.1516
G1 X156.833 Y92.420 E7.5280
G1 X153.080 Y80.867 E7.9044
G1 X147.006 Y70.347 E8.2808
G1 X138.879 Y61.321 E8.6572
G1 X129.052 Y54.181 E9.0336
G1 X117.955 Y49.240 E9.4100
G1 X106.073 Y46.715 E9.7864
G1 X93.927 Y46.715 E10.1628
G1 X82.045 Y49.240 E10.5392
G1 X70.948 Y54.181 E10.9156
G1 X61.121 Y61.321 E11.2920
; feature outer perimeter
G1 X61.390 Y61.620 F4800
G92 E0.0000
G1 X53.319 Y70.584 E0.3738 F900
G1 X47.287 Y81.031 E0.7476
G1 X43.560 Y92.503 E1.1214
G1 X42.299 Y104.500 E1.4952
G1 X43.560 Y116.497 E1.8690
G1 X47.287 Y127.969 E2.2428
G1 X53.319 Y138.416 E2.6166
G1 X61.390 Y147.380 E2.9904
G1 X71.149 Y154.471 E3.3642
G1 X82.169 Y159.377 E3.7380
G1 X93.969 Y161.885 E4.1118
G1 X106.031 Y161.885 E4.4856
G1 X117.831 Y159.377 E4.8594
G1 X128.851 Y154.471 E5.2331
G1 X138.610 Y147.380 E5.6069
G1 X146.681 Y138.416 E5.9807
G1 X152.713 Y127.969 E6.3545
G1 X156.440 Y116.497 E6.7283
G1 X157.701 Y104.500 E7.1021
G1 X156.440 Y92.503 E7.4759
G1 X152.713 Y81.031 E7.8497
G1 X146.681 Y70.584 E8.2235
G1 X138.610 Y61.620 E8.5973
G1 X128.851 Y54.530 E8.9711
G1 X117.831 Y49.623 E9.3449
G1 X106.031 Y47.115 E9.7187
G1 X93.969 Y47.115 E10.0925
G1 X82.169 Y49.623 E10.4663
G1 X71.149 Y54.530 E10.8401
G1 X61.390 Y61.620 E11.2139
G92 E0.0000
G1 E-1.0000 F1800
; feature solid layer
G1 X144.501 Y67.057 F4800
G1 E0.0000 F1800
G92 E0.0000
G1 X175.060 Y97.616 E1.3392 F1440
G1 X175.060 Y98.182 E1.3567
G1 X147.635 Y70.757 E2.5585
G1 X148.408 Y72.095 E2.6064
G1 X175.060 Y98.747 E3.7744
G1 X175.060 Y99.313 E3.7919
G1 X149.181 Y73.434 E4.9260
G1 X149.954 Y74.772 E4.9739
G1 X175.060 Y99.879 E6.0742
G1 X175.060 Y100.444 E6.0917
G1 X150.727 Y76.111 E7.1581
G1 X151.499 Y77.450 E7.2059
G1 X175.060 Y101.010 E8.2384
G1 X175.060 Y101.576 E8.2560
G1 X152.272 Y78.788 E9.2546
G1 X153.045 Y80.127 E9.3025
G1 X175.060 Y102.141 E10.2672
G1 X175.060 Y102.707 E10.2848
G1 X153.542 Y81.190 E11.2277
G1 X153.815 Y82.027 E11.2550
G1 X175.060 Y103.273 E12.1861
G1 X175.060 Y103.839 E12.2036
G1 X154.087 Y82.865 E13.1227
G1 X154.359 Y83.703 E13.1500
G1 X175.060 Y104.404 E14.0572
G1 X175.060 Y104.970 E14.0747
G1 X154.631 Y84.541 E14.9700
G1 X154.903 Y85.379 E14.9973
G1 X175.060 Y105.536 E15.8806
G1 X175.060 Y106.101 E15.8981
G1 X155.176 Y86.217 E16.7695
G1 X155.448 Y87.055 E16.7968
G1 X175.060 Y106.667 E17.6563
G1 X175.060 Y107.233 E17.6738
G1 X155.720 Y87.893 E18.5213
G1 X155.992 Y88.730 E18.5486
G1 X175.060 Y107.798 E19.3843
G1 X175.060 Y108.364 E19.4018
G1 X156.264 Y89.568 E20.2255
G1 X156.537 Y90.406 E20.2528
G1 X175.060 Y108.930 E21.0645
G1 X175.060 Y109.495 E21.0820
G1 X156.809 Y91.244 E21.8819
G1 X157.081 Y92.082 E21.9092
G1 X175.060 Y110.061 E22.6971
G1 X175.060 Y110.627 E22.7146
G1 X157.213 Y92.780 E23.4967
G1 X157.279 Y93.412 E23.5164
G1 X175.060 Y111.192 E24.2956
G1 X175.060 Y111.758 E24.3131
G1 X157.346 Y94.044 E25.0894
G1 X157.412 Y94.676 E25.1091
G1 X175.060 Y112.324 E25.8825
G1 X175.060 Y112.890 E25.9000
G1 X157.479 Y95.308 E26.6705
G1 X157.545 Y95.940 E26.6902
G1 X175.060 Y113.455 E27.4577
G1 X175.060 Y114.021 E27.4753
G1 X157.612 Y96.573 E28.2399
G1 X157.678 Y97.205 E28.2596
G1 X175.060 Y114.587 E29.0213
G1 X175.060 Y115.152 E29.0389
G1 X157.745 Y97.837 E29.7977
G1 X157.811 Y98.469 E29.8174
G1 X175.060 Y115.718 E30.5733
G1 X175.060 Y116.284 E30.5908
G1 X157.878 Y99.101 E31.3438
G1 X157.944 Y99.733 E31.3635
G1 X175.060 Y116.849 E32.1135
G1 X175.060 Y117.415 E32.1311
G1 X158.010 Y100.365 E32.8782
G1 X158.077 Y100.998 E32.8979
G1 X175.060 Y117.981 E33.6422
G1 X175.060 Y118.546 E33.6597
G1 X158.143 Y101.630 E34.4010
G1 X158.210 Y102.262 E34.4207
G1 X175.060 Y119.112 E35.1592
G1 X175.060 Y119.678 E35.1767
G1 X158.276 Y102.894 E35.9122
G1 X158.343 Y103.526 E35.9319
G1 X175.060 Y120.243 E36.6645
G1 X175.060 Y120.809 E36.6820
G1 X158.409 Y104.158 E37.4117
G1 X158.445 Y104.500 E37.4223
G1 X158.420 Y104.735 E37.4297
G1 X175.060 Y121.375 E38.1589
G1 X175.060 Y121.940 E38.1764
G1 X158.367 Y105.247 E38.9080
G1 X158.313 Y105.759 E38.9239
G1 X175.060 Y122.506 E39.6578
G1 X175.060 Y123.072 E39.6753
G1 X158.259 Y106.271 E40.4116
G1 X158.205 Y106.783 E40.4276
G1 X175.060 Y123.638 E41.1662
G1 X175.060 Y124.203 E41.1837
G1 X158.151 Y107.295 E41.9247
G1 X158.098 Y107.806 E41.9406
G1 X175.060 Y124.769 E42.6840
G1 X175.060 Y125.335 E42.7015
G1 X158.044 Y108.318 E43.4472
G1 X157.990 Y108.830 E43.4632
G1 X175.060 Y125.900 E44.2112
G1 X175.060 Y126.466 E44.2288
G1 X157.936 Y109.342 E44.9792
G1 X157.882 Y109.854 E44.9951
G1 X175.060 Y127.032 E45.7479
G1 X175.060 Y127.597 E45.7654
G1 X157.828 Y110.366 E46.5206
G1 X157.775 Y110.878 E46.5365
G1 X175.060 Y128.163 E47.2940
G1 X175.060 Y128.729 E47.3116
G1 X157.721 Y111.389 E48.0714
G1 X157.667 Y111.901 E48.0874
G1 X175.060 Y129.294 E48.8496
G1 X175.060 Y129.860 E48.8671
G1 X157.613 Y112.413 E49.6317
G1 X157.559 Y112.925 E49.6476
G1 X175.060 Y130.426 E50.4145
G1 X175.060 Y130.991 E50.4321
G1 X157.505 Y113.437 E51.2014
G1 X157.452 Y113.949 E51.2173
G1 X175.060 Y131.557 E51.9890
G1 X175.060 Y132.123 E52.0065
G1 X157.398 Y114.461 E52.7805
G1 X157.344 Y114.973 E52.7964
G1 X175.060 Y132.689 E53.5728
G1 X175.060 Y133.254 E53.5903
G1 X157.290 Y115.484 E54.3691
G1 X157.236 Y115.996 E54.3850
G1 X175.060 Y133.820 E55.1661
G1 X175.060 Y134.386 E55.1836
G1 X157.183 Y116.508 E55.9671
G1 X157.168 Y116.651 E55.9715
G1 X157.068 Y116.959 E55.9815
G1 X175.060 Y134.951 E56.7700
G1 X175.060 Y135.517 E56.7875
G1 X156.929 Y117.386 E57.5821
G1 X156.790 Y117.813 E57.5960
G1 X175.030 Y136.053 E58.3953
G1 X174.891 Y136.479 E58.4092
G1 X156.652 Y118.240 E59.2086
G1 X156.513 Y118.667 E59.2225
G1 X174.752 Y136.906 E60.0218
G1 X174.614 Y137.333 E60.0357
G1 X156.374 Y119.094 E60.8350
G1 X156.235 Y119.521 E60.8489
G1 X174.461 Y137.746 E61.6476
G1 X174.253 Y138.105 E61.6604
G1 X156.097 Y119.948 E62.4561
G1 X155.958 Y120.375 E62.4700
G1 X174.046 Y138.463 E63.2627
G1 X173.839 Y138.822 E63.2755
G1 X155.819 Y120.802 E64.0652
G1 X155.681 Y121.229 E64.0791
G1 X173.632 Y139.180 E64.8658
G1 X173.425 Y139.539 E64.8787
G1 X155.542 Y121.656 E65.6624
G1 X155.403 Y122.083 E65.6763
G1 X173.218 Y139.898 E66.4570
G1 X173.011 Y140.256 E66.4698
G1 X155.264 Y122.510 E67.2475
G1 X155.126 Y122.937 E67.2614
G1 X172.804 Y140.615 E68.0362
G1 X172.597 Y140.974 E68.0490
G1 X154.987 Y123.364 E68.8207
G1 X154.848 Y123.790 E68.8346
G1 X172.390 Y141.332 E69.6034
G1 X172.183 Y141.691 E69.6162
G1 X154.710 Y124.217 E70.3819
G1 X154.571 Y124.644 E70.3958
G1 X171.976 Y142.050 E71.1586
