; G-Code generated by Simplify3D(R) Version 4.1.2
; Nov 27, 2019 at 11:59:45 PM
; Settings Summary
;   processName,Fusematic
;   applyToModels,c16,sg1
;   profileName,Fusematic (modified)
;   profileVersion,2019-11-24 18:18:37
;   baseProfile,Default
;   printMaterial,PLA
;   printQuality,Fast
;   printExtruders,
;   extruderName,Extruder 1
;   extruderToolheadNumber,0
;   extruderDiameter,0.4
;   extruderAutoWidth,0
;   extruderWidth,0.4
;   extrusionMultiplier,0.9
;   extruderUseRetract,1
;   extruderRetractionDistance,1
;   extruderExtraRestartDistance,0
;   extruderRetractionZLift,0
;   extruderRetractionSpeed,1800
;   extruderUseCoasting,0
;   extruderCoastingDistance,0.2
;   extruderUseWipe,0
;   extruderWipeDistance,5
;   primaryExtruder,0
;   layerHeight,0.3
;   topSolidLayers,3
;   bottomSolidLayers,3
;   perimeterOutlines,2
;   printPerimetersInsideOut,1
;   startPointOption,2
;   startPointOriginX,0
;   startPointOriginY,0
;   sequentialIslands,0
;   spiralVaseMode,0
;   firstLayerHeightPercentage,100
;   firstLayerWidthPercentage,100
;   firstLayerUnderspeed,0.5
;   useRaft,0
;   raftExtruder,0
;   raftTopLayers,3
;   raftBaseLayers,2
;   raftOffset,3
;   raftSeparationDistance,0.14
;   raftTopInfill,100
;   aboveRaftSpeedMultiplier,0.3
;   useSkirt,1
;   skirtExtruder,0
;   skirtLayers,1
;   skirtOutlines,2
;   skirtOffset,4
;   usePrimePillar,0
;   primePillarExtruder,999
;   primePillarWidth,12
;   primePillarLocation,7
;   primePillarSpeedMultiplier,1
;   useOozeShield,0
;   oozeShieldExtruder,999
;   oozeShieldOffset,2
;   oozeShieldOutlines,1
;   oozeShieldSidewallShape,1
;   oozeShieldSidewallAngle,30
;   oozeShieldSpeedMultiplier,1
;   infillExtruder,0
;   internalInfillPattern,Rectilinear
;   externalInfillPattern,Rectilinear
;   infillPercentage,15
;   outlineOverlapPercentage,15
;   infillExtrusionWidthPercentage,100
;   minInfillLength,5
;   infillLayerInterval,1
;   internalInfillAngles,45,-45
;   overlapInternalInfillAngles,0
;   externalInfillAngles,45,-45
;   generateSupport,1
;   supportExtruder,0
;   supportInfillPercentage,25
;   supportExtraInflation,0
;   supportBaseLayers,0
;   denseSupportExtruder,0
;   denseSupportLayers,0
;   denseSupportInfillPercentage,70
;   supportLayerInterval,1
;   supportHorizontalPartOffset,0.3
;   supportUpperSeparationLayers,1
;   supportLowerSeparationLayers,1
;   supportType,0
;   supportGridSpacing,4
;   maxOverhangAngle,45
;   supportAngles,0
;   temperatureName,Extruder 1,Heated Bed
;   temperatureNumber,0,0
;   temperatureSetpointCount,1,1
;   temperatureSetpointLayers,1,1
;   temperatureSetpointTemperatures,220,60
;   temperatureStabilizeAtStartup,1,1
;   temperatureHeatedBed,0,1
;   fanLayers,1,2
;   fanSpeeds,0,100
;   blipFanToFullPower,0
;   adjustSpeedForCooling,1
;   minSpeedLayerTime,15
;   minCoolingSpeedSlowdown,20
;   increaseFanForCooling,0
;   minFanLayerTime,45
;   maxCoolingFanSpeed,100
;   increaseFanForBridging,0
;   bridgingFanSpeed,100
;   use5D,1
;   relativeEdistances,0
;   allowEaxisZeroing,1
;   independentExtruderAxes,0
;   includeM10123,0
;   stickySupport,1
;   applyToolheadOffsets,0
;   gcodeXoffset,0
;   gcodeYoffset,0
;   gcodeZoffset,0
;   overrideMachineDefinition,1
;   machineTypeOverride,0
;   strokeXoverride,200
;   strokeYoverride,225
;   strokeZoverride,200
;   originOffsetXoverride,0
;   originOffsetYoverride,0
;   originOffsetZoverride,0
;   homeXdirOverride,-1
;   homeYdirOverride,-1
;   homeZdirOverride,-1
;   flipXoverride,1
;   flipYoverride,-1
;   flipZoverride,1
;   toolheadOffsets,0,0|0,0|0,0|0,0|0,0|0,0
;   overrideFirmwareConfiguration,1
;   firmwareTypeOverride,RepRap (Marlin/Repetier/Sprinter)
;   GPXconfigOverride,r2
;   baudRateOverride,250000
;   overridePrinterModels,0
;   printerModelsOverride
;   startingGcode,G28 ; home all axes
;   layerChangeGcode,
;   retractionGcode,
;   toolChangeGcode,
;   endingGcode,M104 S0 ; turn off extruder,M140 S0 ; turn off bed,G91 ; set to relative ,G1 Z5 ; move up ,G90 ;  set to absolute,M84 ; disable motors
;   exportFileFormat,gcode
;   celebration,0
;   celebrationSong,Take On Me
;   postProcessing,
;   defaultSpeed,3600
;   outlineUnderspeed,0.5
;   solidInfillUnderspeed,0.8
;   supportUnderspeed,0.8
;   rapidXYspeed,4800
;   rapidZspeed,1000
;   minBridgingArea,50
;   bridgingExtraInflation,0
;   bridgingExtrusionMultiplier,1
;   bridgingSpeedMultiplier,1
;   useFixedBridgingAngle,0
;   fixedBridgingAngle,0
;   applyBridgingToPerimeters,0
;   filamentDiameters,1.72|1.72|1.72|1.72|1.72|1.72
;   filamentPricesPerKg,46|46|46|46|46|46
;   filamentDensities,1.25|1.25|1.25|1.25|1.25|1.25
;   useMinPrintHeight,0
;   minPrintHeight,0
;   useMaxPrintHeight,0
;   maxPrintHeight,0
;   useDiaphragm,0
;   diaphragmLayerInterval,20
;   robustSlicing,1
;   mergeAllIntoSolid,0
;   onlyRetractWhenCrossingOutline,1
;   retractBetweenLayers,1
;   useRetractionMinTravel,0
;   retractionMinTravel,3
;   retractWhileWiping,0
;   onlyWipeOutlines,1
;   avoidCrossingOutline,0
;   maxMovementDetourFactor,3
;   toolChangeRetractionDistance,12
;   toolChangeExtraRestartDistance,-0.5
;   toolChangeRetractionSpeed,600
;   externalThinWallType,0
;   internalThinWallType,2
;   thinWallAllowedOverlapPercentage,10
;   singleExtrusionMinLength,1
;   singleExtrusionMinPrintingWidthPercentage,50
;   singleExtrusionMaxPrintingWidthPercentage,200
;   singleExtrusionEndpointExtension,0.2
;   horizontalSizeCompensation,0
G90
M82
M106 S0
M140 S60
M190 S60
M104 S220 T0
M109 S220 T0
G28 ; home all axes
; process Fusematic
; layer 1, Z = 0.300
T0
G92 E0.0000
G1 E-1.0000 F1800
; feature skirt
; tool H0.300 W0.400
G1 Z0.300 F1000
G1 X22.095 Y23.900 F4800
G1 E0.0000 F1800
G92 E0.0000
G1 X131.507 Y23.900 E5.0856 F1800
G1 X132.453 Y24.101 E5.1306
G1 X143.341 Y28.949 E5.6846
G1 X143.759 Y29.190 E5.7070
G1 X158.102 Y39.611 E6.5311
G1 X158.460 Y39.934 E6.5535
G1 X170.324 Y53.109 E7.3775
G1 X170.607 Y53.499 E7.4000
G1 X179.471 Y68.853 E8.2240
G1 X179.667 Y69.293 E8.2464
G1 X180.487 Y71.813 E8.3696
G1 X180.600 Y72.529 E8.4033
G1 X180.600 Y136.471 E11.3754
G1 X180.487 Y137.187 E11.4091
G1 X179.667 Y139.707 E11.5322
G1 X179.471 Y140.147 E11.5546
G1 X170.607 Y155.501 E12.3787
G1 X170.324 Y155.891 E12.4011
G1 X158.460 Y169.067 E13.2252
G1 X158.102 Y169.389 E13.2476
G1 X143.759 Y179.810 E14.0717
G1 X143.341 Y180.051 E14.0941
G1 X132.453 Y184.899 E14.6481
G1 X131.507 Y185.100 E14.6930
G1 X68.600 Y185.100 E17.6170
G1 X68.600 Y198.405 E18.2355
G1 X65.905 Y201.100 E18.4126
G1 X35.095 Y201.100 E19.8447
G1 X32.400 Y198.405 E20.0218
G1 X32.400 Y185.100 E20.6403
G1 X22.095 Y185.100 E21.1193
G1 X19.400 Y182.405 E21.2964
G1 X19.400 Y26.595 E28.5387
G1 X22.095 Y23.900 E28.7158
G92 E0.0000
G1 E-1.0000 F1800
G1 X22.260 Y24.300 F4800
G1 E0.0000 F1800
G92 E0.0000
G1 X131.465 Y24.300 E5.0760 F1800
G1 X132.329 Y24.484 E5.1170
G1 X143.159 Y29.306 E5.6681
G1 X143.541 Y29.526 E5.6885
G1 X157.850 Y39.923 E6.5107
G1 X158.177 Y40.217 E6.5311
G1 X170.012 Y53.361 E7.3533
G1 X170.271 Y53.717 E7.3737
G1 X179.114 Y69.034 E8.1958
G1 X179.293 Y69.436 E8.2163
G1 X180.096 Y71.907 E8.3370
G1 X180.200 Y72.560 E8.3678
G1 X180.200 Y136.440 E11.3370
G1 X180.096 Y137.093 E11.3677
G1 X179.293 Y139.564 E11.4885
G1 X179.114 Y139.965 E11.5089
G1 X170.271 Y155.283 E12.3310
G1 X170.012 Y155.639 E12.3515
G1 X158.177 Y168.783 E13.1736
G1 X157.850 Y169.078 E13.1941
G1 X143.541 Y179.474 E14.0162
G1 X143.159 Y179.694 E14.0367
G1 X132.329 Y184.516 E14.5877
G1 X131.465 Y184.700 E14.6287
G1 X68.200 Y184.700 E17.5694
G1 X68.200 Y198.240 E18.1987
G1 X65.740 Y200.700 E18.3605
G1 X35.260 Y200.700 E19.7772
G1 X32.800 Y198.240 E19.9389
G1 X32.800 Y184.700 E20.5682
G1 X22.260 Y184.700 E21.0581
G1 X19.800 Y182.240 E21.2199
G1 X19.800 Y26.760 E28.4467
G1 X22.260 Y24.300 E28.6085
G92 E0.0000
G1 E-1.0000 F1800
; feature inner perimeter
G1 X24.600 Y29.100 F4800
G1 E0.0000 F1800
G92 E0.0000
G1 X130.896 Y29.100 E4.9408 F1350
G1 X140.948 Y33.575 E5.4522
G1 X154.799 Y43.639 E6.2480
G1 X166.256 Y56.363 E7.0438
G1 X174.816 Y71.189 E7.8396
G1 X175.400 Y72.986 E7.9274
G1 X175.400 Y136.014 E10.8570
G1 X174.816 Y137.810 E10.9448
G1 X166.256 Y152.638 E11.7406
G1 X154.799 Y165.361 E12.5365
G1 X140.948 Y175.425 E13.3323
G1 X130.896 Y179.900 E13.8437
G1 X63.400 Y179.900 E16.9810
G1 X63.400 Y195.900 E17.7247
G1 X37.600 Y195.900 E18.9239
G1 X37.600 Y179.900 E19.6676
G1 X24.600 Y179.900 E20.2719
G1 X24.600 Y29.100 E27.2812
; feature outer perimeter
G1 X24.200 Y28.700 F4800
G92 E0.0000
G1 X130.981 Y28.700 E4.9633 F900
G1 X141.149 Y33.227 E5.4807
G1 X155.068 Y43.340 E6.2804
G1 X166.581 Y56.126 E7.0801
G1 X175.183 Y71.026 E7.8798
G1 X175.800 Y72.923 E7.9725
G1 X175.800 Y136.077 E10.9080
G1 X175.183 Y137.974 E11.0007
G1 X166.581 Y152.874 E11.8004
G1 X155.068 Y165.660 E12.6001
G1 X141.149 Y175.773 E13.3998
G1 X130.981 Y180.300 E13.9172
G1 X63.800 Y180.300 E17.0399
G1 X63.800 Y196.300 E17.7836
G1 X37.200 Y196.300 E19.0200
G1 X37.200 Y180.300 E19.7637
G1 X24.200 Y180.300 E20.3679
G1 X24.200 Y28.700 E27.4145
; feature inner perimeter
G1 X61.121 Y61.321 F4800
G92 E0.0000
G1 X52.993 Y70.347 E0.5646 F1350
G1 X46.920 Y80.867 E1.1292
G1 X43.166 Y92.420 E1.6938
G1 X41.897 Y104.500 E2.2584
G1 X43.166 Y116.580 E2.8230
G1 X46.920 Y128.133 E3.3876
G1 X52.993 Y138.652 E3.9522
G1 X61.121 Y147.679 E4.5168
G1 X70.948 Y154.819 E5.0814
G1 X82.045 Y159.759 E5.6460
G1 X93.927 Y162.285 E6.2106
G1 X106.073 Y162.285 E6.7752
G1 X117.955 Y159.759 E7.3398
G1 X129.052 Y154.819 E7.9044
G1 X138.879 Y147.679 E8.4690
G1 X147.006 Y138.652 E9.0336
G1 X153.080 Y128.133 E9.5982
G1 X156.833 Y116.580 E10.1628
G1 X158.103 Y104.500 E10.7274
G1 X156.833 Y92.420 E11.2920
G1 X153.080 Y80.867 E11.8566
G1 X147.006 Y70.347 E12.4213
G1 X138.879 Y61.321 E12.9858
G1 X129.052 Y54.181 E13.5504
G1 X117.955 Y49.240 E14.1150
G1 X106.073 Y46.715 E14.6796
G1 X93.927 Y46.715 E15.2443
G1 X82.045 Y49.240 E15.8089
G1 X70.948 Y54.181 E16.3735
G1 X61.121 Y61.321 E16.9380
; feature outer perimeter
G1 X61.390 Y61.620 F4800
G92 E0.0000
G1 X53.319 Y70.584 E0.5607 F900
G1 X47.287 Y81.031 E1.1214
G1 X43.560 Y92.503 E1.6821
G1 X42.299 Y104.500 E2.2428
G1 X43.560 Y116.497 E2.8035
G1 X47.287 Y127.969 E3.3642
G1 X53.319 Y138.416 E3.9249
G1 X61.390 Y147.380 E4.4856
G1 X71.149 Y154.471 E5.0463
G1 X82.169 Y159.377 E5.6069
G1 X93.969 Y161.885 E6.1676
G1 X106.031 Y161.885 E6.7283
G1 X117.831 Y159.377 E7.2890
G1 X128.851 Y154.471 E7.8497
G1 X138.610 Y147.380 E8.4104
G1 X146.681 Y138.416 E8.9711
G1 X152.713 Y127.969 E9.5318
G1 X156.440 Y116.497 E10.0925
G1 X157.701 Y104.500 E10.6532
G1 X156.440 Y92.503 E11.2139
G1 X152.713 Y81.031 E11.7746
G1 X146.681 Y70.584 E12.3353
G1 X138.610 Y61.620 E12.8960
G1 X128.851 Y54.530 E13.4566
G1 X117.831 Y49.623 E14.0173
G1 X106.031 Y47.115 E14.5780
G1 X93.969 Y47.115 E15.1387
G1 X82.169 Y49.623 E15.6994
G1 X71.149 Y54.530 E16.2601
G1 X61.390 Y61.620 E16.8208
G92 E0.0000
G1 E-1.0000 F1800
; feature solid layer
G1 X144.501 Y67.057 F4800
G1 E0.0000 F1800
G92 E0.0000
G1 X175.060 Y97.616 E2.0088 F1440
G1 X175.060 Y98.182 E2.0350
G1 X147.635 Y70.757 E3.8378
G1 X148.408 Y72.095 E3.9096
G1 X175.060 Y98.747 E5.6616
G1 X175.060 Y99.313 E5.6879
G1 X149.181 Y73.434 E7.3890
G1 X149.954 Y74.772 E7.4609
G1 X175.060 Y99.879 E9.1112
G1 X175.060 Y100.444 E9.1375
G1 X150.727 Y76.111 E10.7371
G1 X151.499 Y77.450 E10.8089
G1 X175.060 Y101.010 E12.3577
G1 X175.060 Y101.576 E12.3840
G1 X152.272 Y78.788 E13.8819
G1 X153.045 Y80.127 E13.9537
G1 X175.060 Y102.141 E15.4009
G1 X175.060 Y102.707 E15.4272
G1 X153.542 Y81.190 E16.8416
G1 X153.815 Y82.027 E16.8826
G1 X175.060 Y103.273 E18.2791
G1 X175.060 Y103.839 E18.3054
G1 X154.087 Y82.865 E19.6841
G1 X154.359 Y83.703 E19.7250
G1 X175.060 Y104.404 E21.0858
G1 X175.060 Y104.970 E21.1121
G1 X154.631 Y84.541 E22.4550
G1 X154.903 Y85.379 E22.4959
G1 X175.060 Y105.536 E23.8209
G1 X175.060 Y106.101 E23.8472
G1 X155.176 Y86.217 E25.1543
G1 X155.448 Y87.055 E25.1952
G1 X175.060 Y106.667 E26.4844
G1 X175.060 Y107.233 E26.5107
G1 X155.720 Y87.893 E27.7820
G1 X155.992 Y88.730 E27.8230
G1 X175.060 Y107.798 E29.0764
G1 X175.060 Y108.364 E29.1027
G1 X156.264 Y89.568 E30.3382
G1 X156.537 Y90.406 E30.3792
G1 X175.060 Y108.930 E31.5968
G1 X175.060 Y109.495 E31.6231
G1 X156.809 Y91.244 E32.8228
G1 X157.081 Y92.082 E32.8638
G1 X175.060 Y110.061 E34.0456
G1 X175.060 Y110.627 E34.0719
G1 X157.213 Y92.780 E35.2451
G1 X157.279 Y93.412 E35.2746
G1 X175.060 Y111.192 E36.4434
G1 X175.060 Y111.758 E36.4697
G1 X157.346 Y94.044 E37.6341
G1 X157.412 Y94.676 E37.6637
G1 X175.060 Y112.324 E38.8237
G1 X175.060 Y112.890 E38.8500
G1 X157.479 Y95.308 E40.0057
G1 X157.545 Y95.940 E40.0353
G1 X175.060 Y113.455 E41.1866
G1 X175.060 Y114.021 E41.2129
G1 X157.612 Y96.573 E42.3599
G1 X157.678 Y97.205 E42.3894
G1 X175.060 Y114.587 E43.5320
G1 X175.060 Y115.152 E43.5583
G1 X157.745 Y97.837 E44.6965
G1 X157.811 Y98.469 E44.7260
G1 X175.060 Y115.718 E45.8599
G1 X175.060 Y116.284 E45.8862
G1 X157.878 Y99.101 E47.0157
G1 X157.944 Y99.733 E47.0452
G1 X175.060 Y116.849 E48.1703
G1 X175.060 Y117.415 E48.1966
G1 X158.010 Y100.365 E49.3174
G1 X158.077 Y100.998 E49.3469
G1 X175.060 Y117.981 E50.4633
G1 X175.060 Y118.546 E50.4896
G1 X158.143 Y101.630 E51.6016
G1 X158.210 Y102.262 E51.6311
G1 X175.060 Y119.112 E52.7387
G1 X175.060 Y119.678 E52.7650
G1 X158.276 Y102.894 E53.8683
G1 X158.343 Y103.526 E53.8978
G1 X175.060 Y120.243 E54.9967
G1 X175.060 Y120.809 E55.0230
G1 X158.409 Y104.158 E56.1176
G1 X158.445 Y104.500 E56.1335
G1 X158.420 Y104.735 E56.1445
G1 X175.060 Y121.375 E57.2383
G1 X175.060 Y121.940 E57.2646
G1 X158.367 Y105.247 E58.3619
G1 X158.313 Y105.759 E58.3859
G1 X175.060 Y122.506 E59.4867
G1 X175.060 Y123.072 E59.5130
G1 X158.259 Y106.271 E60.6174
G1 X158.205 Y106.783 E60.6413
G1 X175.060 Y123.638 E61.7493
G1 X175.060 Y124.203 E61.7756
G1 X158.151 Y107.295 E62.8870
G1 X158.098 Y107.806 E62.9110
G1 X175.060 Y124.769 E64.0260
G1 X175.060 Y125.335 E64.0523
G1 X158.044 Y108.318 E65.1708
G1 X157.990 Y108.830 E65.1948
G1 X175.060 Y125.900 E66.3169
G1 X175.060 Y126.466 E66.3431
G1 X157.936 Y109.342 E67.4688
G1 X157.882 Y109.854 E67.4927
G1 X175.060 Y127.032 E68.6219
G1 X175.060 Y127.597 E68.6482
G1 X157.828 Y110.366 E69.7809
G1 X157.775 Y110.878 E69.8048
G1 X175.060 Y128.163 E70.9410
G1 X175.060 Y128.729 E70.9673
G1 X157.721 Y111.389 E72.1071
G1 X157.667 Y111.901 E72.1310
G1 X175.060 Y129.294 E73.2744
G1 X175.060 Y129.860 E73.3006
G1 X157.613 Y112.413 E74.4475
G1 X157.559 Y112.925 E74.4714
G1 X175.060 Y130.426 E75.6218
G1 X175.060 Y130.991 E75.6481
G1 X157.505 Y113.437 E76.8020
G1 X157.452 Y113.949 E76.8260
G1 X175.060 Y131.557 E77.9834
G1 X175.060 Y132.123 E78.0097
G1 X157.398 Y114.461 E79.1707
G1 X157.344 Y114.973 E79.1947
G1 X175.060 Y132.689 E80.3592
G1 X175.060 Y133.254 E80.3855
G1 X157.290 Y115.484 E81.5536
G1 X157.236 Y115.996 E81.5775
G1 X175.060 Y133.820 E82.7491
G1 X175.060 Y134.386 E82.7754
G1 X157.183 Y116.508 E83.9506
G1 X157.168 Y116.651 E83.9573
G1 X157.068 Y116.959 E83.9723
G1 X175.060 Y134.951 E85.1550
G1 X175.060 Y135.517 E85.1813
G1 X156.929 Y117.386 E86.3732
G1 X156.790 Y117.813 E86.3940
G1 X175.030 Y136.053 E87.5930
G1 X174.891 Y136.479 E87.6139
G1 X156.652 Y118.240 E88.8128
G1 X156.513 Y118.667 E88.8337
G1 X174.752 Y136.906 E90.0327
G1 X174.614 Y137.333 E90.0535
G1 X156.374 Y119.094 E91.2525
G1 X156.235 Y119.521 E91.2733
G1 X174.461 Y137.746 E92.4714
G1 X174.253 Y138.105 E92.4906
G1 X156.097 Y119.948 E93.6841
G1 X155.958 Y120.375 E93.7050
G1 X174.046 Y138.463 E94.8940
G1 X173.839 Y138.822 E94.9133
G1 X155.819 Y120.802 E96.0978
G1 X155.681 Y121.229 E96.1187
G1 X173.632 Y139.180 E97.2987
G1 X173.425 Y139.539 E97.3180
G1 X155.542 Y121.656 E98.4935
G1 X155.403 Y122.083 E98.5144
G1 X173.218 Y139.898 E99.6855
G1 X173.011 Y140.256 E99.7047
G1 X155.264 Y122.510 E100.8713
G1 X155.126 Y122.937 E100.8922
G1 X172.804 Y140.615 E102.0542
G1 X172.597 Y140.974 E102.0735
G1 X154.987 Y123.364 E103.2311
G1 X154.848 Y123.790 E103.2520
G1 X172.390 Y141.332 E104.4050
G1 X172.183 Y141.691 E104.4243
G1 X154.710 Y124.217 E105.5729
