; G-Code generated by Simplify3D(R) Version 4.1.2
; Nov 30, 2019 at 2:16:48 PM
; Settings Summary
;   processName,Fusematic
;   applyToModels,c19
;   profileName,Fusematic (modified)
;   profileVersion,2019-11-24 18:18:37
;   baseProfile,Default
;   printMaterial,PLA
;   printQuality,Fast
;   printExtruders,
;   extruderName,Extruder 1
;   extruderToolheadNumber,0
;   extruderDiameter,0.4
;   extruderAutoWidth,0
;   extruderWidth,0.4
;   extrusionMultiplier,0.9
;   extruderUseRetract,1
;   extruderRetractionDistance,1
;   extruderExtraRestartDistance,0
;   extruderRetractionZLift,0
;   extruderRetractionSpeed,1800
;   extruderUseCoasting,0
;   extruderCoastingDistance,0.2
;   extruderUseWipe,0
;   extruderWipeDistance,5
;   primaryExtruder,0
;   layerHeight,0.3
;   topSolidLayers,3
;   bottomSolidLayers,3
;   perimeterOutlines,2
;   printPerimetersInsideOut,1
;   startPointOption,2
;   startPointOriginX,0
;   startPointOriginY,0
;   sequentialIslands,0
;   spiralVaseMode,0
;   firstLayerHeightPercentage,100
;   firstLayerWidthPercentage,100
;   firstLayerUnderspeed,0.5
;   useRaft,0
;   raftExtruder,0
;   raftTopLayers,3
;   raftBaseLayers,2
;   raftOffset,3
;   raftSeparationDistance,0.14
;   raftTopInfill,100
;   aboveRaftSpeedMultiplier,0.3
;   useSkirt,1
;   skirtExtruder,0
;   skirtLayers,1
;   skirtOutlines,3
;   skirtOffset,0
;   usePrimePillar,0
;   primePillarExtruder,999
;   primePillarWidth,12
;   primePillarLocation,7
;   primePillarSpeedMultiplier,1
;   useOozeShield,0
;   oozeShieldExtruder,999
;   oozeShieldOffset,2
;   oozeShieldOutlines,1
;   oozeShieldSidewallShape,1
;   oozeShieldSidewallAngle,30
;   oozeShieldSpeedMultiplier,1
;   infillExtruder,0
;   internalInfillPattern,Rectilinear
;   externalInfillPattern,Rectilinear
;   infillPercentage,15
;   outlineOverlapPercentage,15
;   infillExtrusionWidthPercentage,100
;   minInfillLength,5
;   infillLayerInterval,1
;   internalInfillAngles,45,-45
;   overlapInternalInfillAngles,0
;   externalInfillAngles,45,-45
;   generateSupport,1
;   supportExtruder,0
;   supportInfillPercentage,25
;   supportExtraInflation,0
;   supportBaseLayers,0
;   denseSupportExtruder,0
;   denseSupportLayers,0
;   denseSupportInfillPercentage,70
;   supportLayerInterval,1
;   supportHorizontalPartOffset,0.3
;   supportUpperSeparationLayers,1
;   supportLowerSeparationLayers,1
;   supportType,0
;   supportGridSpacing,4
;   maxOverhangAngle,45
;   supportAngles,0
;   temperatureName,Extruder 1,Heated Bed
;   temperatureNumber,0,0
;   temperatureSetpointCount,1,1
;   temperatureSetpointLayers,1,1
;   temperatureSetpointTemperatures,220,60
;   temperatureStabilizeAtStartup,1,1
;   temperatureHeatedBed,0,1
;   fanLayers,1,2
;   fanSpeeds,0,100
;   blipFanToFullPower,0
;   adjustSpeedForCooling,1
;   minSpeedLayerTime,15
;   minCoolingSpeedSlowdown,20
;   increaseFanForCooling,0
;   minFanLayerTime,45
;   maxCoolingFanSpeed,100
;   increaseFanForBridging,0
;   bridgingFanSpeed,100
;   use5D,1
;   relativeEdistances,0
;   allowEaxisZeroing,1
;   independentExtruderAxes,0
;   includeM10123,0
;   stickySupport,1
;   applyToolheadOffsets,0
;   gcodeXoffset,0
;   gcodeYoffset,0
;   gcodeZoffset,0
;   overrideMachineDefinition,1
;   machineTypeOverride,0
;   strokeXoverride,200
;   strokeYoverride,225
;   strokeZoverride,200
;   originOffsetXoverride,0
;   originOffsetYoverride,0
;   originOffsetZoverride,0
;   homeXdirOverride,-1
;   homeYdirOverride,-1
;   homeZdirOverride,-1
;   flipXoverride,1
;   flipYoverride,-1
;   flipZoverride,1
;   toolheadOffsets,0,0|0,0|0,0|0,0|0,0|0,0
;   overrideFirmwareConfiguration,1
;   firmwareTypeOverride,RepRap (Marlin/Repetier/Sprinter)
;   GPXconfigOverride,r2
;   baudRateOverride,250000
;   overridePrinterModels,0
;   printerModelsOverride
;   startingGcode,G28 ; home all axes
;   layerChangeGcode,
;   retractionGcode,
;   toolChangeGcode,
;   endingGcode,M104 S0 ; turn off extruder,M140 S0 ; turn off bed,G91 ; set to relative ,G1 Z5 ; move up ,G90 ;  set to absolute,M84 ; disable motors
;   exportFileFormat,gcode
;   celebration,0
;   celebrationSong,Take On Me
;   postProcessing,
;   defaultSpeed,3600
;   outlineUnderspeed,0.5
;   solidInfillUnderspeed,0.8
;   supportUnderspeed,0.8
;   rapidXYspeed,4800
;   rapidZspeed,1000
;   minBridgingArea,50
;   bridgingExtraInflation,0
;   bridgingExtrusionMultiplier,1
;   bridgingSpeedMultiplier,1
;   useFixedBridgingAngle,0
;   fixedBridgingAngle,0
;   applyBridgingToPerimeters,0
;   filamentDiameters,1.72|1.72|1.72|1.72|1.72|1.72
;   filamentPricesPerKg,46|46|46|46|46|46
;   filamentDensities,1.25|1.25|1.25|1.25|1.25|1.25
;   useMinPrintHeight,0
;   minPrintHeight,0
;   useMaxPrintHeight,0
;   maxPrintHeight,0
;   useDiaphragm,0
;   diaphragmLayerInterval,20
;   robustSlicing,1
;   mergeAllIntoSolid,0
;   onlyRetractWhenCrossingOutline,1
;   retractBetweenLayers,1
;   useRetractionMinTravel,0
;   retractionMinTravel,3
;   retractWhileWiping,0
;   onlyWipeOutlines,1
;   avoidCrossingOutline,0
;   maxMovementDetourFactor,3
;   toolChangeRetractionDistance,12
;   toolChangeExtraRestartDistance,-0.5
;   toolChangeRetractionSpeed,600
;   externalThinWallType,0
;   internalThinWallType,2
;   thinWallAllowedOverlapPercentage,10
;   singleExtrusionMinLength,1
;   singleExtrusionMinPrintingWidthPercentage,50
;   singleExtrusionMaxPrintingWidthPercentage,200
;   singleExtrusionEndpointExtension,0.2
;   horizontalSizeCompensation,0
G90
M82
M106 S0
M140 S60
M190 S60
M104 S220 T0
M109 S220 T0
G28 ; home all axes
; process Fusematic
; layer 1, Z = 0.300
T0
G92 E0.0000
G1 E-1.0000 F1800
; feature skirt
; tool H0.300 W0.400
G1 Z0.300 F1000
G1 X28.478 Y11.093 F4800
G1 E0.0000 F1800
G92 E0.0000
G1 X29.064 Y10.508 E0.0385 F1800
G1 X135.984 Y10.508 E5.0083
G1 X136.190 Y10.551 E5.0181
G1 X147.683 Y15.668 E5.6028
G1 X147.774 Y15.721 E5.6077
G1 X161.812 Y25.920 E6.4142
G1 X161.889 Y25.991 E6.4191
G1 X173.500 Y38.885 E7.2256
G1 X173.562 Y38.970 E7.2305
G1 X182.237 Y53.997 E8.0370
G1 X182.280 Y54.093 E8.0419
G1 X183.454 Y57.703 E8.2184
G1 X183.478 Y57.859 E8.2257
G1 X183.478 Y118.157 E11.0284
G1 X183.454 Y118.312 E11.0357
G1 X182.280 Y121.923 E11.2122
G1 X182.237 Y122.018 E11.2170
G1 X173.562 Y137.045 E12.0236
G1 X173.500 Y137.130 E12.0284
G1 X161.889 Y150.025 E12.8350
G1 X161.811 Y150.095 E12.8399
G1 X147.774 Y160.294 E13.6464
G1 X147.683 Y160.347 E13.6513
G1 X136.190 Y165.464 E14.2360
G1 X135.984 Y165.508 E14.2458
G1 X72.228 Y165.508 E17.2092
G1 X72.228 Y181.172 E17.9373
G1 X71.642 Y181.758 E17.9758
G1 X46.314 Y181.756 E19.1531
G1 X46.066 Y181.508 E19.1695
G1 X44.564 Y181.508 E19.2393
G1 X43.978 Y180.922 E19.2778
G1 X43.978 Y165.508 E19.9942
G1 X29.064 Y165.508 E20.6875
G1 X28.478 Y164.922 E20.7260
G1 X28.478 Y11.093 E27.8761
G92 E0.0000
G1 E-1.0000 F1800
G1 X28.878 Y11.259 F4800
G1 E0.0000 F1800
G92 E0.0000
G1 X29.230 Y10.908 E0.0231 F1800
G1 X135.942 Y10.908 E4.9832
G1 X136.066 Y10.934 E4.9891
G1 X147.501 Y16.025 E5.5709
G1 X147.555 Y16.057 E5.5738
G1 X161.559 Y26.232 E6.3784
G1 X161.606 Y26.274 E6.3814
G1 X173.189 Y39.137 E7.1860
G1 X173.226 Y39.188 E7.1889
G1 X181.881 Y54.179 E7.9934
G1 X181.906 Y54.236 E7.9964
G1 X183.063 Y57.797 E8.1704
G1 X183.078 Y57.890 E8.1748
G1 X183.078 Y118.125 E10.9746
G1 X183.063 Y118.218 E10.9790
G1 X181.906 Y121.779 E11.1530
G1 X181.881 Y121.836 E11.1559
G1 X173.226 Y136.827 E11.9605
G1 X173.189 Y136.878 E11.9634
G1 X161.606 Y149.742 E12.7680
G1 X161.559 Y149.784 E12.7709
G1 X147.556 Y159.959 E13.5755
G1 X147.501 Y159.990 E13.5784
G1 X136.066 Y165.081 E14.1603
G1 X135.942 Y165.108 E14.1661
G1 X71.828 Y165.108 E17.1462
G1 X71.828 Y181.006 E17.8852
G1 X71.477 Y181.358 E17.9083
G1 X46.480 Y181.356 E19.0702
G1 X46.231 Y181.108 E19.0865
G1 X44.730 Y181.108 E19.1563
G1 X44.378 Y180.756 E19.1794
G1 X44.378 Y165.108 E19.9068
G1 X29.230 Y165.108 E20.6109
G1 X28.878 Y164.756 E20.6340
G1 X28.878 Y11.259 E27.7687
G92 E0.0000
G1 E-1.0000 F1800
G1 X29.278 Y11.425 F4800
G1 E0.0000 F1800
G92 E0.0000
G1 X29.395 Y11.308 E0.0077 F1800
G1 X135.900 Y11.308 E4.9582
G1 X135.941 Y11.316 E4.9601
G1 X147.319 Y16.382 E5.5390
G1 X147.337 Y16.393 E5.5400
G1 X161.307 Y26.543 E6.3426
G1 X161.323 Y26.557 E6.3436
G1 X172.878 Y39.390 E7.1463
G1 X172.890 Y39.407 E7.1472
G1 X181.524 Y54.361 E7.9499
G1 X181.532 Y54.380 E7.9508
G1 X182.673 Y57.891 E8.1224
G1 X182.678 Y57.922 E8.1239
G1 X182.678 Y118.094 E10.9207
G1 X182.673 Y118.125 E10.9222
G1 X181.532 Y121.635 E11.0938
G1 X181.524 Y121.654 E11.0948
G1 X172.890 Y136.609 E11.8974
G1 X172.878 Y136.626 E11.8984
G1 X161.323 Y149.459 E12.7010
G1 X161.307 Y149.473 E12.7020
G1 X147.337 Y159.623 E13.5046
G1 X147.319 Y159.633 E13.5056
G1 X135.941 Y164.699 E14.0845
G1 X135.900 Y164.708 E14.0865
G1 X71.428 Y164.708 E17.0832
G1 X71.428 Y180.840 E17.8331
G1 X71.311 Y180.958 E17.8408
G1 X46.645 Y180.956 E18.9872
G1 X46.528 Y180.839 E18.9950
G1 X46.528 Y180.708 E19.0010
G1 X44.895 Y180.708 E19.0769
G1 X44.778 Y180.590 E19.0846
G1 X44.778 Y164.708 E19.8229
G1 X29.395 Y164.708 E20.5379
G1 X29.278 Y164.590 E20.5456
G1 X29.278 Y11.425 E27.6649
G92 E0.0000
G1 E-1.0000 F1800
; feature inner perimeter
G1 X30.078 Y12.108 F4800
G1 E0.0000 F1800
G92 E0.0000
G1 X135.752 Y12.108 E4.9118 F1350
G1 X146.927 Y17.083 E5.4804
G1 X160.778 Y27.147 E6.2762
G1 X172.234 Y39.870 E7.0720
G1 X180.794 Y54.697 E7.8678
G1 X181.878 Y58.033 E8.0308
G1 X181.878 Y117.983 E10.8174
G1 X180.794 Y121.318 E10.9804
G1 X172.234 Y136.145 E11.7762
G1 X160.778 Y148.869 E12.5720
G1 X146.927 Y158.932 E13.3678
G1 X135.752 Y163.908 E13.9364
G1 X70.628 Y163.908 E16.9634
G1 X70.628 Y180.158 E17.7187
G1 X47.328 Y180.156 E18.8017
G1 X47.328 Y179.908 E18.8133
G1 X45.578 Y179.908 E18.8946
G1 X45.578 Y163.908 E19.6383
G1 X30.078 Y163.908 E20.3588
G1 X30.078 Y12.108 E27.4146
; feature outer perimeter
G1 X29.678 Y11.708 F4800
G92 E0.0000
G1 X135.837 Y11.708 E4.9344 F900
G1 X147.128 Y16.735 E5.5089
G1 X161.047 Y26.848 E6.3086
G1 X172.560 Y39.634 E7.1083
G1 X181.162 Y54.533 E7.9080
G1 X182.278 Y57.969 E8.0759
G1 X182.278 Y118.046 E10.8683
G1 X181.162 Y121.482 E11.0363
G1 X172.560 Y136.382 E11.8360
G1 X161.047 Y149.168 E12.6357
G1 X147.128 Y159.281 E13.4354
G1 X135.837 Y164.308 E14.0099
G1 X71.028 Y164.308 E17.0222
G1 X71.028 Y180.558 E17.7776
G1 X46.928 Y180.556 E18.8978
G1 X46.928 Y180.308 E18.9093
G1 X45.178 Y180.308 E18.9906
G1 X45.178 Y164.308 E19.7343
G1 X29.678 Y164.308 E20.4548
G1 X29.678 Y11.708 E27.5478
; feature inner perimeter
G1 X67.100 Y44.828 F4800
G92 E0.0000
G1 X58.972 Y53.855 E0.5646 F1350
G1 X52.898 Y64.375 E1.1292
G1 X49.145 Y75.927 E1.6938
G1 X47.875 Y88.008 E2.2584
G1 X49.145 Y100.088 E2.8230
G1 X52.898 Y111.640 E3.3876
G1 X58.972 Y122.160 E3.9522
G1 X67.100 Y131.187 E4.5168
G1 X76.927 Y138.327 E5.0814
G1 X88.023 Y143.267 E5.6460
G1 X99.905 Y145.793 E6.2106
G1 X112.052 Y145.793 E6.7752
G1 X123.933 Y143.267 E7.3398
G1 X135.030 Y138.327 E7.9044
G1 X144.857 Y131.187 E8.4690
G1 X152.984 Y122.160 E9.0336
G1 X159.058 Y111.640 E9.5982
G1 X162.811 Y100.088 E10.1628
G1 X164.082 Y88.008 E10.7274
G1 X162.811 Y75.927 E11.2920
G1 X159.058 Y64.375 E11.8566
G1 X152.984 Y53.855 E12.4213
G1 X144.857 Y44.828 E12.9858
G1 X135.030 Y37.689 E13.5504
G1 X123.933 Y32.748 E14.1150
G1 X112.052 Y30.223 E14.6796
G1 X99.905 Y30.223 E15.2443
G1 X88.023 Y32.748 E15.8089
G1 X76.927 Y37.689 E16.3735
G1 X67.100 Y44.828 E16.9380
; feature outer perimeter
G1 X67.369 Y45.127 F4800
G92 E0.0000
G1 X59.297 Y54.091 E0.5607 F900
G1 X53.266 Y64.538 E1.1214
G1 X49.538 Y76.011 E1.6821
G1 X48.277 Y88.008 E2.2428
G1 X49.538 Y100.004 E2.8035
G1 X53.266 Y111.477 E3.3642
G1 X59.297 Y121.924 E3.9249
G1 X67.369 Y130.888 E4.4856
G1 X77.128 Y137.978 E5.0463
G1 X88.148 Y142.885 E5.6069
G1 X99.947 Y145.393 E6.1676
G1 X112.010 Y145.393 E6.7283
G1 X123.809 Y142.885 E7.2890
G1 X134.829 Y137.978 E7.8497
G1 X144.588 Y130.888 E8.4104
G1 X152.659 Y121.924 E8.9711
G1 X158.691 Y111.477 E9.5318
G1 X162.418 Y100.004 E10.0925
G1 X163.679 Y88.008 E10.6532
G1 X162.418 Y76.011 E11.2139
G1 X158.691 Y64.538 E11.7746
G1 X152.659 Y54.091 E12.3353
G1 X144.588 Y45.127 E12.8960
G1 X134.829 Y38.037 E13.4566
G1 X123.809 Y33.130 E14.0173
G1 X112.010 Y30.623 E14.5780
G1 X99.947 Y30.623 E15.1387
G1 X88.148 Y33.130 E15.6994
G1 X77.128 Y38.037 E16.2601
G1 X67.369 Y45.127 E16.8208
G92 E0.0000
G1 E-1.0000 F1800
; feature solid layer
G1 X151.609 Y51.820 F4800
G1 E0.0000 F1800
G92 E0.0000
G1 X181.538 Y81.749 E1.9674 F1440
G1 X181.538 Y82.314 E1.9937
G1 X153.784 Y54.560 E3.8181
G1 X154.557 Y55.899 E3.8899
G1 X181.538 Y82.880 E5.6635
G1 X181.538 Y83.446 E5.6898
G1 X155.330 Y57.237 E7.4126
G1 X156.103 Y58.576 E7.4844
G1 X181.538 Y84.011 E9.1564
G1 X181.538 Y84.577 E9.1827
G1 X156.876 Y59.914 E10.8039
G1 X157.648 Y61.253 E10.8757
G1 X181.538 Y85.143 E12.4461
G1 X181.538 Y85.708 E12.4724
G1 X158.421 Y62.591 E13.9920
G1 X159.194 Y63.930 E14.0638
G1 X181.538 Y86.274 E15.5326
G1 X181.538 Y86.840 E15.5589
G1 X159.581 Y64.882 E17.0023
G1 X159.853 Y65.720 E17.0432
G1 X181.538 Y87.405 E18.4687
G1 X181.538 Y87.971 E18.4950
G1 X160.125 Y66.558 E19.9025
G1 X160.397 Y67.396 E19.9435
G1 X181.538 Y88.537 E21.3332
G1 X181.538 Y89.103 E21.3595
G1 X160.670 Y68.234 E22.7313
G1 X160.942 Y69.072 E22.7722
G1 X181.538 Y89.668 E24.1261
G1 X181.538 Y90.234 E24.1524
G1 X161.214 Y69.910 E25.4884
G1 X161.486 Y70.747 E25.5294
G1 X181.538 Y90.800 E26.8475
G1 X181.538 Y91.365 E26.8738
G1 X161.758 Y71.585 E28.1740
G1 X162.031 Y72.423 E28.2149
G1 X181.538 Y91.931 E29.4973
G1 X181.538 Y92.497 E29.5236
G1 X162.303 Y73.261 E30.7880
G1 X162.575 Y74.099 E30.8289
G1 X181.538 Y93.062 E32.0755
G1 X181.538 Y93.628 E32.1018
G1 X162.847 Y74.937 E33.3304
G1 X163.119 Y75.775 E33.3714
G1 X181.538 Y94.194 E34.5821
G1 X181.538 Y94.759 E34.6084
G1 X163.206 Y76.427 E35.8135
G1 X163.272 Y77.059 E35.8430
G1 X181.538 Y95.325 E37.0437
G1 X181.538 Y95.891 E37.0700
G1 X163.339 Y77.691 E38.2664
G1 X163.405 Y78.323 E38.2959
G1 X181.538 Y96.456 E39.4879
G1 X181.538 Y97.022 E39.5142
G1 X163.472 Y78.956 E40.7018
G1 X163.538 Y79.588 E40.7313
G1 X181.538 Y97.588 E41.9145
G1 X181.538 Y98.153 E41.9408
G1 X163.605 Y80.220 E43.1197
G1 X163.671 Y80.852 E43.1492
G1 X181.538 Y98.719 E44.3237
G1 X181.538 Y99.285 E44.3500
G1 X163.738 Y81.484 E45.5201
G1 X163.804 Y82.116 E45.5497
G1 X181.538 Y99.851 E46.7154
G1 X181.538 Y100.416 E46.7417
G1 X163.870 Y82.748 E47.9031
G1 X163.937 Y83.381 E47.9327
G1 X181.538 Y100.982 E49.0897
G1 X181.538 Y101.548 E49.1160
G1 X164.003 Y84.013 E50.2686
G1 X164.070 Y84.645 E50.2981
G1 X181.538 Y102.113 E51.4464
G1 X181.538 Y102.679 E51.4727
G1 X164.136 Y85.277 E52.6166
G1 X164.203 Y85.909 E52.6462
G1 X181.538 Y103.245 E53.7857
G1 X181.538 Y103.810 E53.8120
G1 X164.269 Y86.541 E54.9472
G1 X164.336 Y87.174 E54.9767
G1 X181.538 Y104.376 E56.1075
G1 X181.538 Y104.942 E56.1338
G1 X164.402 Y87.806 E57.2602
G1 X164.423 Y88.008 E57.2697
G1 X164.387 Y88.356 E57.2859
G1 X181.538 Y105.507 E58.4134
G1 X181.538 Y106.073 E58.4397
G1 X164.333 Y88.868 E59.5706
G1 X164.279 Y89.380 E59.5946
G1 X181.538 Y106.639 E60.7291
G1 X181.538 Y107.204 E60.7554
G1 X164.225 Y89.892 E61.8934
G1 X164.172 Y90.403 E61.9173
G1 X181.538 Y107.770 E63.0589
G1 X181.538 Y108.336 E63.0852
G1 X164.118 Y90.915 E64.2304
G1 X164.064 Y91.427 E64.2543
G1 X181.538 Y108.902 E65.4029
G1 X181.538 Y109.467 E65.4292
G1 X164.010 Y91.939 E66.5814
G1 X163.956 Y92.451 E66.6054
G1 X181.538 Y110.033 E67.7611
G1 X181.538 Y110.599 E67.7874
G1 X163.902 Y92.963 E68.9467
G1 X163.849 Y93.475 E68.9706
G1 X181.538 Y111.164 E70.1334
G1 X181.538 Y111.730 E70.1597
G1 X163.795 Y93.986 E71.3261
G1 X163.741 Y94.498 E71.3500
G1 X181.538 Y112.296 E72.5199
G1 X181.538 Y112.861 E72.5462
G1 X163.687 Y95.010 E73.7196
G1 X163.633 Y95.522 E73.7435
G1 X181.538 Y113.427 E74.9205
G1 X181.538 Y113.993 E74.9468
G1 X163.579 Y96.034 E76.1273
G1 X163.526 Y96.546 E76.1512
G1 X181.538 Y114.558 E77.3353
G1 X181.538 Y115.124 E77.3616
G1 X163.472 Y97.058 E78.5491
G1 X163.418 Y97.570 E78.5731
G1 X181.538 Y115.690 E79.7642
G1 X181.538 Y116.255 E79.7905
G1 X163.364 Y98.081 E80.9851
G1 X163.310 Y98.593 E81.0091
