; G-Code generated by Simplify3D(R) Version 4.1.2
; Nov 21, 2019 at 3:49:36 PM
; Settings Summary
;   processName,Fusematic
;   applyToModels,g10
;   profileName,Fusematic (modified)
;   profileVersion,2019-09-22 18:49:16
;   baseProfile,Default
;   printMaterial,PLA
;   printQuality,Medium
;   printExtruders,
;   extruderName,Extruder 1
;   extruderToolheadNumber,0
;   extruderDiameter,0.4
;   extruderAutoWidth,0
;   extruderWidth,0.4
;   extrusionMultiplier,0.9
;   extruderUseRetract,1
;   extruderRetractionDistance,1
;   extruderExtraRestartDistance,0
;   extruderRetractionZLift,0
;   extruderRetractionSpeed,1800
;   extruderUseCoasting,0
;   extruderCoastingDistance,0.2
;   extruderUseWipe,0
;   extruderWipeDistance,5
;   primaryExtruder,0
;   layerHeight,0.2
;   topSolidLayers,3
;   bottomSolidLayers,3
;   perimeterOutlines,2
;   printPerimetersInsideOut,1
;   startPointOption,2
;   startPointOriginX,0
;   startPointOriginY,0
;   sequentialIslands,0
;   spiralVaseMode,0
;   firstLayerHeightPercentage,100
;   firstLayerWidthPercentage,100
;   firstLayerUnderspeed,0.5
;   useRaft,0
;   raftExtruder,0
;   raftTopLayers,3
;   raftBaseLayers,2
;   raftOffset,3
;   raftSeparationDistance,0.14
;   raftTopInfill,100
;   aboveRaftSpeedMultiplier,0.3
;   useSkirt,1
;   skirtExtruder,0
;   skirtLayers,1
;   skirtOutlines,2
;   skirtOffset,4
;   usePrimePillar,0
;   primePillarExtruder,999
;   primePillarWidth,12
;   primePillarLocation,7
;   primePillarSpeedMultiplier,1
;   useOozeShield,0
;   oozeShieldExtruder,999
;   oozeShieldOffset,2
;   oozeShieldOutlines,1
;   oozeShieldSidewallShape,1
;   oozeShieldSidewallAngle,30
;   oozeShieldSpeedMultiplier,1
;   infillExtruder,0
;   internalInfillPattern,Rectilinear
;   externalInfillPattern,Rectilinear
;   infillPercentage,20
;   outlineOverlapPercentage,15
;   infillExtrusionWidthPercentage,100
;   minInfillLength,5
;   infillLayerInterval,1
;   internalInfillAngles,45,-45
;   overlapInternalInfillAngles,0
;   externalInfillAngles,45,-45
;   generateSupport,1
;   supportExtruder,0
;   supportInfillPercentage,30
;   supportExtraInflation,0
;   supportBaseLayers,0
;   denseSupportExtruder,0
;   denseSupportLayers,0
;   denseSupportInfillPercentage,70
;   supportLayerInterval,1
;   supportHorizontalPartOffset,0.3
;   supportUpperSeparationLayers,1
;   supportLowerSeparationLayers,1
;   supportType,0
;   supportGridSpacing,4
;   maxOverhangAngle,45
;   supportAngles,0
;   temperatureName,Extruder 1,Heated Bed
;   temperatureNumber,0,0
;   temperatureSetpointCount,1,1
;   temperatureSetpointLayers,1,1
;   temperatureSetpointTemperatures,220,60
;   temperatureStabilizeAtStartup,1,1
;   temperatureHeatedBed,0,1
;   fanLayers,1,2
;   fanSpeeds,0,100
;   blipFanToFullPower,0
;   adjustSpeedForCooling,1
;   minSpeedLayerTime,15
;   minCoolingSpeedSlowdown,20
;   increaseFanForCooling,0
;   minFanLayerTime,45
;   maxCoolingFanSpeed,100
;   increaseFanForBridging,0
;   bridgingFanSpeed,100
;   use5D,1
;   relativeEdistances,0
;   allowEaxisZeroing,1
;   independentExtruderAxes,0
;   includeM10123,0
;   stickySupport,1
;   applyToolheadOffsets,0
;   gcodeXoffset,0
;   gcodeYoffset,0
;   gcodeZoffset,0
;   overrideMachineDefinition,1
;   machineTypeOverride,0
;   strokeXoverride,200
;   strokeYoverride,225
;   strokeZoverride,200
;   originOffsetXoverride,0
;   originOffsetYoverride,0
;   originOffsetZoverride,0
;   homeXdirOverride,-1
;   homeYdirOverride,-1
;   homeZdirOverride,-1
;   flipXoverride,1
;   flipYoverride,-1
;   flipZoverride,1
;   toolheadOffsets,0,0|0,0|0,0|0,0|0,0|0,0
;   overrideFirmwareConfiguration,1
;   firmwareTypeOverride,RepRap (Marlin/Repetier/Sprinter)
;   GPXconfigOverride,r2
;   baudRateOverride,250000
;   overridePrinterModels,0
;   printerModelsOverride
;   startingGcode,G28 ; home all axes
;   layerChangeGcode,
;   retractionGcode,
;   toolChangeGcode,
;   endingGcode,M104 S0 ; turn off extruder,M140 S0 ; turn off bed,M84 ; disable motors
;   exportFileFormat,gcode
;   celebration,0
;   celebrationSong,Take On Me
;   postProcessing,
;   defaultSpeed,3600
;   outlineUnderspeed,0.5
;   solidInfillUnderspeed,0.8
;   supportUnderspeed,0.8
;   rapidXYspeed,4800
;   rapidZspeed,1000
;   minBridgingArea,50
;   bridgingExtraInflation,0
;   bridgingExtrusionMultiplier,1
;   bridgingSpeedMultiplier,1
;   useFixedBridgingAngle,0
;   fixedBridgingAngle,0
;   applyBridgingToPerimeters,0
;   filamentDiameters,1.72|1.72|1.72|1.72|1.72|1.72
;   filamentPricesPerKg,46|46|46|46|46|46
;   filamentDensities,1.25|1.25|1.25|1.25|1.25|1.25
;   useMinPrintHeight,0
;   minPrintHeight,0
;   useMaxPrintHeight,0
;   maxPrintHeight,0
;   useDiaphragm,0
;   diaphragmLayerInterval,20
;   robustSlicing,1
;   mergeAllIntoSolid,0
;   onlyRetractWhenCrossingOutline,1
;   retractBetweenLayers,1
;   useRetractionMinTravel,0
;   retractionMinTravel,3
;   retractWhileWiping,0
;   onlyWipeOutlines,1
;   avoidCrossingOutline,0
;   maxMovementDetourFactor,3
;   toolChangeRetractionDistance,12
;   toolChangeExtraRestartDistance,-0.5
;   toolChangeRetractionSpeed,600
;   externalThinWallType,0
;   internalThinWallType,2
;   thinWallAllowedOverlapPercentage,10
;   singleExtrusionMinLength,1
;   singleExtrusionMinPrintingWidthPercentage,50
;   singleExtrusionMaxPrintingWidthPercentage,200
;   singleExtrusionEndpointExtension,0.2
;   horizontalSizeCompensation,0
G90
M82
M106 S0
M140 S60
M190 S60
M104 S220 T0
M109 S220 T0
G28 ; home all axes
; process Fusematic
; layer 1, Z = 0.200
T0
G92 E0.0000
G1 E-1.0000 F1800
; feature skirt
; tool H0.200 W0.400
G1 Z0.200 F1000
G1 X79.745 Y89.491 F4800
G1 E0.0000 F1800
G92 E0.0000
G1 X81.939 Y88.982 E0.0698 F1800
G1 X83.039 Y86.967 E0.1409
G1 X86.369 Y85.045 E0.2601
G1 X88.650 Y85.100 E0.3308
G1 X90.225 Y83.448 E0.4015
G1 X93.939 Y82.453 E0.5207
G1 X96.129 Y83.096 E0.5914
G1 X98.078 Y81.908 E0.6621
G1 X101.922 Y81.908 E0.7813
G1 X103.871 Y83.096 E0.8520
G1 X106.061 Y82.453 E0.9227
G1 X109.775 Y83.448 E1.0419
G1 X111.350 Y85.100 E1.1126
G1 X113.631 Y85.045 E1.1833
G1 X116.961 Y86.967 E1.3025
G1 X118.054 Y88.971 E1.3732
G1 X120.273 Y89.509 E1.4439
G1 X122.991 Y92.227 E1.5630
G1 X123.532 Y94.458 E1.6342
G1 X125.520 Y95.518 E1.7040
G1 X127.455 Y98.869 E1.8239
G1 X127.400 Y101.163 E1.8950
G1 X129.046 Y102.702 E1.9648
G1 X130.047 Y106.439 E2.0847
G1 X129.404 Y108.629 E2.1555
G1 X130.592 Y110.578 E2.2262
G1 X130.592 Y114.447 E2.3461
G1 X129.394 Y116.370 E2.4163
G1 X130.054 Y118.537 E2.4865
G1 X129.052 Y122.275 E2.6064
G1 X127.400 Y123.850 E2.6771
G1 X127.455 Y126.131 E2.7479
G1 X125.533 Y129.461 E2.8670
G1 X123.529 Y130.554 E2.9377
G1 X122.991 Y132.773 E3.0085
G1 X120.255 Y135.509 E3.1284
G1 X118.061 Y136.018 E3.1982
G1 X116.961 Y138.033 E3.2693
G1 X113.631 Y139.955 E3.3884
G1 X111.350 Y139.900 E3.4592
G1 X109.775 Y141.552 E3.5299
G1 X106.061 Y142.547 E3.6490
G1 X103.871 Y141.904 E3.7198
G1 X101.922 Y143.092 E3.7905
G1 X98.053 Y143.092 E3.9104
G1 X96.141 Y141.900 E3.9802
G1 X93.939 Y142.547 E4.0513
G1 X90.225 Y141.552 E4.1705
G1 X88.650 Y139.900 E4.2412
G1 X86.369 Y139.955 E4.3119
G1 X83.039 Y138.033 E4.4311
G1 X81.946 Y136.029 E4.5018
G1 X79.727 Y135.491 E4.5725
G1 X77.009 Y132.773 E4.6917
G1 X76.468 Y130.542 E4.7628
G1 X74.480 Y129.482 E4.8326
G1 X72.545 Y126.131 E4.9525
G1 X72.600 Y123.837 E5.0236
G1 X70.954 Y122.298 E5.0934
G1 X69.953 Y118.561 E5.2133
G1 X70.596 Y116.371 E5.2841
G1 X69.408 Y114.422 E5.3548
G1 X69.408 Y110.553 E5.4747
G1 X70.606 Y108.630 E5.5449
G1 X69.946 Y106.463 E5.6151
G1 X70.948 Y102.725 E5.7350
G1 X72.600 Y101.150 E5.8057
G1 X72.545 Y98.869 E5.8765
G1 X74.467 Y95.539 E5.9956
G1 X76.471 Y94.446 E6.0663
G1 X77.009 Y92.227 E6.1371
G1 X79.745 Y89.491 E6.2570
G92 E0.0000
G1 E-1.0000 F1800
G1 X79.946 Y89.855 F4800
G1 E0.0000 F1800
G92 E0.0000
G1 X82.206 Y89.328 E0.0720 F1800
G1 X83.336 Y87.258 E0.1451
G1 X86.471 Y85.448 E0.2572
G1 X88.818 Y85.504 E0.3300
G1 X90.437 Y83.805 E0.4027
G1 X93.934 Y82.868 E0.5149
G1 X96.186 Y83.530 E0.5876
G1 X98.190 Y82.308 E0.6604
G1 X101.810 Y82.308 E0.7725
G1 X103.814 Y83.530 E0.8453
G1 X106.066 Y82.868 E0.9180
G1 X109.563 Y83.805 E1.0302
G1 X111.182 Y85.504 E1.1029
G1 X113.529 Y85.448 E1.1756
G1 X116.664 Y87.258 E1.2878
G1 X117.788 Y89.318 E1.3605
G1 X120.069 Y89.871 E1.4333
G1 X122.629 Y92.431 E1.5454
G1 X123.184 Y94.726 E1.6186
G1 X125.231 Y95.817 E1.6905
G1 X127.052 Y98.971 E1.8034
G1 X126.994 Y101.332 E1.8766
G1 X128.689 Y102.916 E1.9484
G1 X129.632 Y106.434 E2.0613
G1 X128.970 Y108.686 E2.1340
G1 X130.192 Y110.690 E2.2068
G1 X130.192 Y114.332 E2.3196
G1 X128.958 Y116.312 E2.3919
G1 X129.638 Y118.544 E2.4643
G1 X128.695 Y122.063 E2.5771
G1 X126.996 Y123.682 E2.6499
G1 X127.052 Y126.029 E2.7226
G1 X125.242 Y129.164 E2.8348
G1 X123.182 Y130.288 E2.9075
G1 X122.629 Y132.569 E2.9802
G1 X120.054 Y135.145 E3.0931
G1 X117.794 Y135.672 E3.1651
G1 X116.664 Y137.742 E3.2382
G1 X113.529 Y139.552 E3.3503
G1 X111.182 Y139.496 E3.4231
G1 X109.563 Y141.195 E3.4958
G1 X106.066 Y142.132 E3.6080
G1 X103.814 Y141.470 E3.6807
G1 X101.810 Y142.692 E3.7534
G1 X98.168 Y142.692 E3.8663
G1 X96.197 Y141.467 E3.9383
G1 X93.934 Y142.132 E4.0114
G1 X90.437 Y141.195 E4.1235
G1 X88.818 Y139.496 E4.1963
G1 X86.471 Y139.552 E4.2690
G1 X83.336 Y137.742 E4.3812
G1 X82.212 Y135.682 E4.4539
G1 X79.931 Y135.129 E4.5267
G1 X77.371 Y132.569 E4.6388
G1 X76.816 Y130.274 E4.7120
G1 X74.769 Y129.183 E4.7839
G1 X72.948 Y126.029 E4.8968
G1 X73.006 Y123.668 E4.9699
G1 X71.311 Y122.084 E5.0418
G1 X70.368 Y118.566 E5.1547
G1 X71.030 Y116.314 E5.2274
G1 X69.808 Y114.310 E5.3002
G1 X69.808 Y110.668 E5.4130
G1 X71.042 Y108.688 E5.4853
G1 X70.362 Y106.456 E5.5576
G1 X71.305 Y102.937 E5.6705
G1 X73.004 Y101.318 E5.7432
G1 X72.948 Y98.971 E5.8160
G1 X74.758 Y95.836 E5.9281
G1 X76.818 Y94.712 E6.0009
G1 X77.371 Y92.431 E6.0736
G1 X79.946 Y89.855 E6.1865
G92 E0.0000
G1 E-1.0000 F1800
; feature inner perimeter
G1 X82.232 Y94.358 F4800
G1 E0.0000 F1800
G92 E0.0000
G1 X82.376 Y94.404 E0.0047 F1350
G1 X82.791 Y94.556 E0.0184
G1 X83.484 Y94.858 E0.0418
G1 X83.999 Y95.130 E0.0599
G1 X84.373 Y95.364 E0.0735
G1 X84.625 Y95.547 E0.0832
G1 X84.868 Y95.760 E0.0932
G1 X85.309 Y96.274 E0.1142
G1 X84.065 Y97.334 E0.1648
G1 X83.729 Y97.769 E0.1819
G1 X83.226 Y97.333 E0.2025
G1 X82.960 Y97.009 E0.2155
G1 X82.753 Y96.702 E0.2270
G1 X82.498 Y96.261 E0.2427
G1 X82.211 Y95.665 E0.2633
G1 X81.902 Y94.870 E0.2897
G1 X81.858 Y94.732 E0.2942
G1 X82.232 Y94.358 E0.3106
G92 E0.0000
G1 E-1.0000 F1800
G1 X86.681 Y96.328 F4800
G1 E0.0000 F1800
G92 E0.0000
G1 X86.819 Y96.503 E0.0069 F1350
G1 X89.370 Y94.650 E0.1046
G1 X88.772 Y93.700 E0.1394
G1 X88.098 Y94.064 E0.1632
G1 X87.723 Y93.508 E0.1839
G1 X87.550 Y93.126 E0.1969
G1 X87.429 Y92.777 E0.2084
G1 X87.298 Y92.285 E0.2242
G1 X87.174 Y91.634 E0.2447
G1 X87.082 Y90.787 E0.2711
G1 X87.075 Y90.642 E0.2756
G1 X87.533 Y90.377 E0.2920
G1 X87.660 Y90.459 E0.2967
G1 X88.022 Y90.714 E0.3104
G1 X88.613 Y91.184 E0.3338
G1 X89.040 Y91.581 E0.3519
G1 X89.341 Y91.904 E0.3655
G1 X89.536 Y92.145 E0.3752
G1 X89.716 Y92.415 E0.3852
G1 X90.012 Y93.029 E0.4063
G1 X89.923 Y93.077 E0.4094
G1 X90.433 Y94.113 E0.4452
G1 X93.308 Y92.831 E0.5428
G1 X93.243 Y92.653 E0.5487
G1 X93.602 Y92.547 E0.5603
G1 X93.069 Y91.026 E0.6102
G1 X93.006 Y90.708 E0.6202
G1 X92.973 Y90.399 E0.6299
G1 X92.958 Y89.958 E0.6436
G1 X92.979 Y89.376 E0.6616
G1 X93.065 Y88.625 E0.6850
G1 X93.140 Y88.189 E0.6987
G1 X93.172 Y88.041 E0.7034
G1 X93.684 Y87.904 E0.7198
G1 X93.781 Y88.012 E0.7243
G1 X94.315 Y88.676 E0.7507
G1 X94.688 Y89.224 E0.7712
G1 X94.942 Y89.665 E0.7870
G1 X95.104 Y89.997 E0.7985
G1 X95.252 Y90.390 E0.8115
G1 X95.380 Y91.053 E0.8324
G1 X94.181 Y91.406 E0.8711
G1 X94.465 Y92.525 E0.9069
G1 X97.544 Y91.870 E1.0045
G1 X97.517 Y91.681 E1.0104
G1 X98.730 Y91.588 E1.0481
G1 X98.739 Y91.811 E1.0550
G1 X101.892 Y91.811 E1.1527
G1 X101.905 Y91.621 E1.1586
G1 X103.106 Y91.781 E1.1962
G1 X103.068 Y92.001 E1.2031
G1 X106.153 Y92.657 E1.3008
G1 X106.204 Y92.473 E1.3067
G1 X107.346 Y92.879 E1.3443
G1 X107.263 Y93.087 E1.3512
G1 X110.139 Y94.366 E1.4487
G1 X110.662 Y93.373 E1.4835
G1 X110.015 Y92.975 E1.5071
G1 X110.309 Y92.372 E1.5278
G1 X110.553 Y92.031 E1.5408
G1 X110.795 Y91.752 E1.5523
G1 X111.156 Y91.392 E1.5681
G1 X111.658 Y90.960 E1.5886
G1 X112.345 Y90.456 E1.6150
G1 X112.467 Y90.377 E1.6195
G1 X112.925 Y90.642 E1.6359
G1 X112.918 Y90.787 E1.6404
G1 X112.826 Y91.634 E1.6668
G1 X112.702 Y92.285 E1.6873
G1 X112.571 Y92.777 E1.7031
G1 X112.450 Y93.126 E1.7146
G1 X112.277 Y93.508 E1.7276
G1 X111.868 Y94.114 E1.7502
G1 X111.783 Y94.061 E1.7533
G1 X111.141 Y95.021 E1.7891
G1 X113.692 Y96.874 E1.8868
G1 X113.814 Y96.728 E1.8927
G1 X114.079 Y96.981 E1.9040
G1 X115.167 Y95.726 E1.9555
G1 X115.491 Y95.460 E1.9685
G1 X115.798 Y95.253 E1.9799
G1 X116.239 Y94.998 E1.9957
G1 X116.835 Y94.711 E2.0163
G1 X117.630 Y94.402 E2.0427
G1 X117.768 Y94.358 E2.0472
G1 X118.142 Y94.732 E2.0636
G1 X118.098 Y94.870 E2.0680
G1 X117.789 Y95.665 E2.0945
G1 X117.502 Y96.261 E2.1150
G1 X117.247 Y96.702 E2.1308
G1 X117.040 Y97.009 E2.1422
G1 X116.774 Y97.333 E2.1552
G1 X116.264 Y97.776 E2.1761
G1 X115.359 Y96.914 E2.2149
G1 X114.531 Y97.719 E2.2506
G1 X116.641 Y100.063 E2.3483
G1 X116.791 Y99.945 E2.3542
G1 X117.476 Y100.944 E2.3918
G1 X117.287 Y101.063 E2.3987
G1 X118.863 Y103.794 E2.4964
G1 X119.034 Y103.710 E2.5023
G1 X119.496 Y104.830 E2.5399
G1 X119.287 Y104.907 E2.5468
G1 X120.261 Y107.907 E2.6445
G1 X120.446 Y107.860 E2.6504
G1 X120.665 Y109.051 E2.6880
G1 X120.444 Y109.083 E2.6949
G1 X120.774 Y112.219 E2.7926
G1 X121.896 Y112.176 E2.8274
G1 X121.917 Y111.411 E2.8511
G1 X122.586 Y111.364 E2.8719
G1 X123.003 Y111.405 E2.8849
G1 X123.366 Y111.475 E2.8964
G1 X123.858 Y111.607 E2.9122
G1 X124.483 Y111.826 E2.9327
G1 X125.263 Y112.169 E2.9591
G1 X125.392 Y112.235 E2.9636
G1 X125.392 Y112.764 E2.9800
G1 X125.258 Y112.834 E2.9846
G1 X124.857 Y113.020 E2.9984
G1 X124.153 Y113.296 E3.0218
G1 X123.596 Y113.468 E3.0398
G1 X123.167 Y113.567 E3.0535
G1 X122.859 Y113.616 E3.0632
G1 X122.536 Y113.637 E3.0732
G1 X121.857 Y113.586 E3.0943
G1 X121.860 Y113.485 E3.0974
G1 X120.708 Y113.408 E3.1332
G1 X120.378 Y116.545 E3.2309
G1 X120.566 Y116.577 E3.2368
G1 X120.479 Y116.936 E3.2483
G1 X122.063 Y117.235 E3.2982
G1 X122.369 Y117.339 E3.3082
G1 X122.653 Y117.465 E3.3179
G1 X123.043 Y117.672 E3.3315
G1 X123.536 Y117.982 E3.3496
G1 X124.144 Y118.432 E3.3730
G1 X124.484 Y118.715 E3.3867
G1 X124.596 Y118.816 E3.3914
G1 X124.459 Y119.328 E3.4078
G1 X124.317 Y119.358 E3.4123
G1 X123.475 Y119.488 E3.4387
G1 X122.814 Y119.538 E3.4592
G1 X122.305 Y119.538 E3.4750
G1 X121.936 Y119.512 E3.4865
G1 X121.522 Y119.443 E3.4995
G1 X120.884 Y119.223 E3.5204
G1 X121.177 Y118.008 E3.5591
G1 X120.066 Y117.694 E3.5949
G1 X119.092 Y120.693 E3.6926
G1 X119.269 Y120.764 E3.6985
G1 X118.745 Y121.857 E3.7360
G1 X118.548 Y121.753 E3.7430
G1 X116.971 Y124.483 E3.8407
G1 X117.129 Y124.589 E3.8466
G1 X116.390 Y125.550 E3.8841
G1 X116.219 Y125.407 E3.8911
G1 X114.109 Y127.750 E3.9888
G1 X114.242 Y127.887 E3.9947
G1 X113.319 Y128.672 E4.0322
G1 X113.181 Y128.497 E4.0391
G1 X110.630 Y130.350 E4.1369
G1 X111.228 Y131.300 E4.1717
G1 X111.902 Y130.936 E4.1954
G1 X112.277 Y131.492 E4.2162
G1 X112.450 Y131.874 E4.2291
G1 X112.571 Y132.223 E4.2406
G1 X112.702 Y132.715 E4.2564
G1 X112.826 Y133.366 E4.2769
G1 X112.918 Y134.213 E4.3033
G1 X112.925 Y134.358 E4.3078
G1 X112.467 Y134.623 E4.3242
G1 X112.340 Y134.541 E4.3289
G1 X111.978 Y134.286 E4.3426
G1 X111.387 Y133.816 E4.3660
G1 X110.960 Y133.419 E4.3841
G1 X110.659 Y133.096 E4.3977
G1 X110.464 Y132.855 E4.4074
G1 X110.284 Y132.585 E4.4174
G1 X109.988 Y131.971 E4.4385
G1 X110.077 Y131.923 E4.4417
G1 X109.567 Y130.887 E4.4774
G1 X106.692 Y132.169 E4.5750
G1 X106.757 Y132.347 E4.5809
G1 X106.398 Y132.453 E4.5925
G1 X106.931 Y133.974 E4.6424
G1 X106.994 Y134.292 E4.6525
G1 X107.027 Y134.601 E4.6621
G1 X107.042 Y135.042 E4.6758
G1 X107.021 Y135.624 E4.6938
G1 X106.935 Y136.375 E4.7173
G1 X106.860 Y136.811 E4.7310
G1 X106.828 Y136.959 E4.7356
G1 X106.316 Y137.096 E4.7520
G1 X106.219 Y136.988 E4.7565
