; G-Code generated by Simplify3D(R) Version 4.1.2
; Nov 28, 2019 at 11:06:57 AM
; Settings Summary
;   processName,Fusematic
;   applyToModels,sg3
;   profileName,Fusematic (modified)
;   profileVersion,2019-11-24 18:18:37
;   baseProfile,Default
;   printMaterial,PLA
;   printQuality,Fast
;   printExtruders,
;   extruderName,Extruder 1
;   extruderToolheadNumber,0
;   extruderDiameter,0.4
;   extruderAutoWidth,0
;   extruderWidth,0.4
;   extrusionMultiplier,0.9
;   extruderUseRetract,1
;   extruderRetractionDistance,1
;   extruderExtraRestartDistance,0
;   extruderRetractionZLift,0
;   extruderRetractionSpeed,1800
;   extruderUseCoasting,0
;   extruderCoastingDistance,0.2
;   extruderUseWipe,0
;   extruderWipeDistance,5
;   primaryExtruder,0
;   layerHeight,0.3
;   topSolidLayers,3
;   bottomSolidLayers,3
;   perimeterOutlines,2
;   printPerimetersInsideOut,1
;   startPointOption,2
;   startPointOriginX,0
;   startPointOriginY,0
;   sequentialIslands,0
;   spiralVaseMode,0
;   firstLayerHeightPercentage,100
;   firstLayerWidthPercentage,100
;   firstLayerUnderspeed,0.5
;   useRaft,0
;   raftExtruder,0
;   raftTopLayers,3
;   raftBaseLayers,2
;   raftOffset,3
;   raftSeparationDistance,0.14
;   raftTopInfill,100
;   aboveRaftSpeedMultiplier,0.3
;   useSkirt,1
;   skirtExtruder,0
;   skirtLayers,1
;   skirtOutlines,2
;   skirtOffset,4
;   usePrimePillar,0
;   primePillarExtruder,999
;   primePillarWidth,12
;   primePillarLocation,7
;   primePillarSpeedMultiplier,1
;   useOozeShield,0
;   oozeShieldExtruder,999
;   oozeShieldOffset,2
;   oozeShieldOutlines,1
;   oozeShieldSidewallShape,1
;   oozeShieldSidewallAngle,30
;   oozeShieldSpeedMultiplier,1
;   infillExtruder,0
;   internalInfillPattern,Rectilinear
;   externalInfillPattern,Rectilinear
;   infillPercentage,15
;   outlineOverlapPercentage,15
;   infillExtrusionWidthPercentage,100
;   minInfillLength,5
;   infillLayerInterval,1
;   internalInfillAngles,45,-45
;   overlapInternalInfillAngles,0
;   externalInfillAngles,45,-45
;   generateSupport,1
;   supportExtruder,0
;   supportInfillPercentage,25
;   supportExtraInflation,0
;   supportBaseLayers,0
;   denseSupportExtruder,0
;   denseSupportLayers,0
;   denseSupportInfillPercentage,70
;   supportLayerInterval,1
;   supportHorizontalPartOffset,0.3
;   supportUpperSeparationLayers,1
;   supportLowerSeparationLayers,1
;   supportType,0
;   supportGridSpacing,4
;   maxOverhangAngle,45
;   supportAngles,0
;   temperatureName,Extruder 1,Heated Bed
;   temperatureNumber,0,0
;   temperatureSetpointCount,1,1
;   temperatureSetpointLayers,1,1
;   temperatureSetpointTemperatures,220,60
;   temperatureStabilizeAtStartup,1,1
;   temperatureHeatedBed,0,1
;   fanLayers,1,2
;   fanSpeeds,0,100
;   blipFanToFullPower,0
;   adjustSpeedForCooling,1
;   minSpeedLayerTime,15
;   minCoolingSpeedSlowdown,20
;   increaseFanForCooling,0
;   minFanLayerTime,45
;   maxCoolingFanSpeed,100
;   increaseFanForBridging,0
;   bridgingFanSpeed,100
;   use5D,1
;   relativeEdistances,0
;   allowEaxisZeroing,1
;   independentExtruderAxes,0
;   includeM10123,0
;   stickySupport,1
;   applyToolheadOffsets,0
;   gcodeXoffset,0
;   gcodeYoffset,0
;   gcodeZoffset,0
;   overrideMachineDefinition,1
;   machineTypeOverride,0
;   strokeXoverride,200
;   strokeYoverride,225
;   strokeZoverride,200
;   originOffsetXoverride,0
;   originOffsetYoverride,0
;   originOffsetZoverride,0
;   homeXdirOverride,-1
;   homeYdirOverride,-1
;   homeZdirOverride,-1
;   flipXoverride,1
;   flipYoverride,-1
;   flipZoverride,1
;   toolheadOffsets,0,0|0,0|0,0|0,0|0,0|0,0
;   overrideFirmwareConfiguration,1
;   firmwareTypeOverride,RepRap (Marlin/Repetier/Sprinter)
;   GPXconfigOverride,r2
;   baudRateOverride,250000
;   overridePrinterModels,0
;   printerModelsOverride
;   startingGcode,G28 ; home all axes
;   layerChangeGcode,
;   retractionGcode,
;   toolChangeGcode,
;   endingGcode,M104 S0 ; turn off extruder,M140 S0 ; turn off bed,G91 ; set to relative ,G1 Z5 ; move up ,G90 ;  set to absolute,M84 ; disable motors
;   exportFileFormat,gcode
;   celebration,0
;   celebrationSong,Take On Me
;   postProcessing,
;   defaultSpeed,3600
;   outlineUnderspeed,0.5
;   solidInfillUnderspeed,0.8
;   supportUnderspeed,0.8
;   rapidXYspeed,4800
;   rapidZspeed,1000
;   minBridgingArea,50
;   bridgingExtraInflation,0
;   bridgingExtrusionMultiplier,1
;   bridgingSpeedMultiplier,1
;   useFixedBridgingAngle,0
;   fixedBridgingAngle,0
;   applyBridgingToPerimeters,0
;   filamentDiameters,1.72|1.72|1.72|1.72|1.72|1.72
;   filamentPricesPerKg,46|46|46|46|46|46
;   filamentDensities,1.25|1.25|1.25|1.25|1.25|1.25
;   useMinPrintHeight,0
;   minPrintHeight,0
;   useMaxPrintHeight,0
;   maxPrintHeight,0
;   useDiaphragm,0
;   diaphragmLayerInterval,20
;   robustSlicing,1
;   mergeAllIntoSolid,0
;   onlyRetractWhenCrossingOutline,1
;   retractBetweenLayers,1
;   useRetractionMinTravel,0
;   retractionMinTravel,3
;   retractWhileWiping,0
;   onlyWipeOutlines,1
;   avoidCrossingOutline,0
;   maxMovementDetourFactor,3
;   toolChangeRetractionDistance,12
;   toolChangeExtraRestartDistance,-0.5
;   toolChangeRetractionSpeed,600
;   externalThinWallType,0
;   internalThinWallType,2
;   thinWallAllowedOverlapPercentage,10
;   singleExtrusionMinLength,1
;   singleExtrusionMinPrintingWidthPercentage,50
;   singleExtrusionMaxPrintingWidthPercentage,200
;   singleExtrusionEndpointExtension,0.2
;   horizontalSizeCompensation,0
G90
M82
M106 S0
M140 S60
M190 S60
M104 S220 T0
M109 S220 T0
G28 ; home all axes
; process Fusematic
; layer 1, Z = 0.300
T0
G92 E0.0000
G1 E-1.0000 F1800
; feature skirt
; tool H0.300 W0.400
G1 Z0.300 F1000
G1 X82.338 Y95.286 F4800
G1 E0.0000 F1800
G92 E0.0000
G1 X84.699 Y94.441 E0.1166 F1800
G1 X84.875 Y94.475 E0.1249
G1 X84.872 Y94.300 E0.1330
G1 X86.107 Y92.126 E0.2492
G1 X89.302 Y90.281 E0.4207
G1 X91.802 Y90.299 E0.5369
G1 X91.952 Y90.389 E0.5451
G1 X92.010 Y90.223 E0.5532
G1 X93.913 Y88.603 E0.6694
G1 X97.546 Y87.962 E0.8408
G1 X99.889 Y88.834 E0.9571
G1 X100.000 Y88.970 E0.9652
G1 X100.111 Y88.834 E0.9734
G1 X102.454 Y87.962 E1.0896
G1 X106.087 Y88.603 E1.2610
G1 X107.990 Y90.223 E1.3772
G1 X108.048 Y90.389 E1.3854
G1 X108.198 Y90.299 E1.3935
G1 X110.698 Y90.281 E1.5097
G1 X113.893 Y92.126 E1.6812
G1 X115.128 Y94.300 E1.7974
G1 X115.125 Y94.475 E1.8055
G1 X115.297 Y94.442 E1.8137
G1 X117.652 Y95.280 E1.9299
G1 X120.023 Y98.106 E2.1013
G1 X120.440 Y100.571 E2.2175
G1 X120.378 Y100.735 E2.2257
G1 X120.551 Y100.763 E2.2338
G1 X122.477 Y102.356 E2.3500
G1 X123.739 Y105.822 E2.5215
G1 X123.287 Y108.282 E2.6377
G1 X123.173 Y108.414 E2.6458
G1 X123.326 Y108.499 E2.6540
G1 X124.591 Y110.656 E2.7702
G1 X124.591 Y114.344 E2.9416
G1 X123.326 Y116.501 E3.0578
G1 X123.173 Y116.586 E3.0660
G1 X123.287 Y116.719 E3.0741
G1 X123.739 Y119.177 E3.1903
G1 X122.477 Y122.644 E3.3618
G1 X120.551 Y124.237 E3.4780
G1 X120.378 Y124.265 E3.4861
G1 X120.440 Y124.429 E3.4943
G1 X120.023 Y126.894 E3.6105
G1 X117.652 Y129.720 E3.7819
G1 X115.297 Y130.558 E3.8981
G1 X115.125 Y130.525 E3.9063
G1 X115.128 Y130.700 E3.9144
G1 X113.893 Y132.874 E4.0306
G1 X110.698 Y134.719 E4.2021
G1 X108.198 Y134.701 E4.3183
G1 X108.070 Y134.624 E4.3252
G1 X108.041 Y134.715 E4.3297
G1 X106.114 Y136.392 E4.4484
G1 X102.454 Y137.038 E4.6211
G1 X100.111 Y136.166 E4.7373
G1 X100.000 Y136.030 E4.7455
G1 X99.889 Y136.166 E4.7536
G1 X97.546 Y137.038 E4.8698
G1 X93.886 Y136.392 E5.0426
G1 X91.959 Y134.715 E5.1613
G1 X91.938 Y134.649 E5.1645
G1 X91.880 Y134.686 E5.1677
G1 X89.325 Y134.732 E5.2865
G1 X86.107 Y132.874 E5.4592
G1 X84.873 Y130.700 E5.5754
G1 X84.875 Y130.525 E5.5836
G1 X84.703 Y130.558 E5.5917
G1 X82.348 Y129.720 E5.7079
G1 X79.959 Y126.873 E5.8806
G1 X79.561 Y124.350 E5.9994
G1 X79.597 Y124.261 E6.0038
G1 X79.449 Y124.237 E6.0108
G1 X77.523 Y122.644 E6.1270
G1 X76.261 Y119.178 E6.2984
G1 X76.713 Y116.719 E6.4146
G1 X76.827 Y116.586 E6.4228
G1 X76.674 Y116.501 E6.4309
G1 X75.409 Y114.345 E6.5471
G1 X75.409 Y110.656 E6.7186
G1 X76.674 Y108.499 E6.8348
G1 X76.827 Y108.414 E6.8429
G1 X76.713 Y108.281 E6.8511
G1 X76.261 Y105.823 E6.9673
G1 X77.523 Y102.356 E7.1387
G1 X79.449 Y100.763 E7.2550
G1 X79.597 Y100.739 E7.2619
G1 X79.564 Y100.659 E7.2659
G1 X79.957 Y98.142 E7.3843
G1 X82.338 Y95.286 E7.5571
G92 E0.0000
G1 E-1.0000 F1800
G1 X82.575 Y95.626 F4800
G1 E0.0000 F1800
G92 E0.0000
G1 X84.731 Y94.854 E0.1064 F1800
G1 X85.282 Y94.960 E0.1325
G1 X85.274 Y94.403 E0.1584
G1 X86.401 Y92.418 E0.2645
G1 X89.408 Y90.682 E0.4258
G1 X91.690 Y90.698 E0.5319
G1 X92.169 Y90.984 E0.5578
G1 X92.352 Y90.457 E0.5837
G1 X94.090 Y88.978 E0.6898
G1 X97.508 Y88.375 E0.8512
G1 X99.648 Y89.171 E0.9573
G1 X100.000 Y89.603 E0.9832
G1 X100.352 Y89.171 E1.0091
G1 X102.491 Y88.375 E1.1152
G1 X105.910 Y88.978 E1.2765
G1 X107.648 Y90.457 E1.3826
G1 X107.831 Y90.984 E1.4085
G1 X108.310 Y90.698 E1.4344
G1 X110.593 Y90.682 E1.5405
G1 X113.599 Y92.418 E1.7019
G1 X114.726 Y94.403 E1.8080
G1 X114.718 Y94.960 E1.8339
G1 X115.265 Y94.855 E1.8598
G1 X117.416 Y95.621 E1.9659
G1 X119.647 Y98.280 E2.1272
G1 X120.028 Y100.531 E2.2333
G1 X119.830 Y101.051 E2.2592
G1 X120.380 Y101.140 E2.2851
G1 X122.139 Y102.595 E2.3912
G1 X123.326 Y105.857 E2.5526
G1 X122.914 Y108.102 E2.6587
G1 X122.549 Y108.524 E2.6846
G1 X123.036 Y108.796 E2.7105
G1 X124.191 Y110.764 E2.8166
G1 X124.191 Y114.236 E2.9779
G1 X123.036 Y116.204 E3.0840
G1 X122.549 Y116.476 E3.1099
G1 X122.914 Y116.898 E3.1358
G1 X123.326 Y119.143 E3.2419
G1 X122.139 Y122.405 E3.4033
G1 X120.379 Y123.860 E3.5094
G1 X119.830 Y123.949 E3.5353
G1 X120.028 Y124.470 E3.5612
G1 X119.647 Y126.720 E3.6673
G1 X117.416 Y129.379 E3.8286
G1 X115.265 Y130.145 E3.9347
G1 X114.718 Y130.040 E3.9606
G1 X114.726 Y130.597 E3.9865
G1 X113.599 Y132.582 E4.0926
G1 X110.592 Y134.318 E4.2539
G1 X108.310 Y134.302 E4.3600
G1 X107.844 Y134.024 E4.3853
G1 X107.694 Y134.486 E4.4079
G1 X105.935 Y136.018 E4.5163
G1 X102.492 Y136.625 E4.6788
G1 X100.352 Y135.829 E4.7849
G1 X100.000 Y135.397 E4.8108
G1 X99.648 Y135.829 E4.8367
G1 X97.509 Y136.625 E4.9428
G1 X94.065 Y136.018 E5.1053
G1 X92.306 Y134.486 E5.2137
G1 X92.161 Y134.038 E5.2357
G1 X91.762 Y134.288 E5.2576
G1 X89.429 Y134.330 E5.3660
G1 X86.401 Y132.582 E5.5285
G1 X85.274 Y130.597 E5.6346
G1 X85.282 Y130.040 E5.6605
G1 X84.735 Y130.145 E5.6864
G1 X82.584 Y129.379 E5.7925
G1 X80.337 Y126.701 E5.9550
G1 X79.974 Y124.397 E6.0634
G1 X80.156 Y123.946 E6.0860
G1 X79.620 Y123.860 E6.1113
G1 X77.861 Y122.405 E6.2174
G1 X76.674 Y119.143 E6.3787
G1 X77.086 Y116.898 E6.4848
G1 X77.451 Y116.476 E6.5107
G1 X76.964 Y116.204 E6.5366
G1 X75.809 Y114.236 E6.6427
G1 X75.809 Y110.765 E6.8040
G1 X76.964 Y108.796 E6.9102
G1 X77.451 Y108.524 E6.9361
G1 X77.086 Y108.102 E6.9620
G1 X76.674 Y105.857 E7.0681
G1 X77.861 Y102.595 E7.2294
G1 X79.621 Y101.140 E7.3355
G1 X80.156 Y101.054 E7.3607
G1 X79.976 Y100.611 E7.3829
G1 X80.335 Y98.313 E7.4910
G1 X82.575 Y95.626 E7.6536
G92 E0.0000
G1 E-1.0000 F1800
; feature inner perimeter
G1 X85.302 Y99.850 F4800
G1 E0.0000 F1800
G92 E0.0000
G1 X85.427 Y99.874 E0.0059 F1350
G1 X85.825 Y99.970 E0.0249
G1 X86.165 Y100.068 E0.0414
G1 X86.730 Y100.271 E0.0693
G1 X87.134 Y100.455 E0.0899
G1 X87.526 Y100.680 E0.1109
G1 X87.761 Y100.858 E0.1246
G1 X88.394 Y101.505 E0.1667
G1 X88.173 Y101.702 E0.1805
G1 X87.206 Y103.014 E0.2562
G1 X86.404 Y102.464 E0.3014
G1 X86.260 Y102.338 E0.3103
G1 X86.116 Y102.185 E0.3201
G1 X85.782 Y101.752 E0.3455
G1 X85.510 Y101.318 E0.3693
G1 X85.196 Y100.711 E0.4011
G1 X85.037 Y100.344 E0.4197
G1 X84.991 Y100.224 E0.4256
G1 X85.302 Y99.850 E0.4482
G1 X87.748 Y103.873 F4800
G92 E0.0000
G1 X88.080 Y103.422 E0.0260 F1350
G1 X88.231 Y103.546 E0.0351
G1 X89.941 Y101.647 E0.1538
G1 X89.810 Y101.514 E0.1625
G1 X90.228 Y101.142 E0.1885
G1 X90.350 Y101.294 E0.1976
G1 X92.418 Y99.792 E0.3164
G1 X91.803 Y98.838 E0.3691
G1 X91.201 Y99.181 E0.4013
G1 X90.656 Y98.420 E0.4448
G1 X90.564 Y98.251 E0.4537
G1 X90.479 Y98.052 E0.4638
G1 X90.373 Y97.742 E0.4790
G1 X90.261 Y97.308 E0.4998
G1 X90.159 Y96.717 E0.5277
G1 X90.122 Y96.364 E0.5442
G1 X90.096 Y95.956 E0.5632
G1 X90.095 Y95.828 E0.5692
G1 X90.514 Y95.586 E0.5917
G1 X90.619 Y95.648 E0.5973
G1 X91.257 Y96.091 E0.6335
G1 X91.709 Y96.467 E0.6608
G1 X92.156 Y96.921 E0.6904
G1 X92.319 Y97.123 E0.7025
G1 X92.467 Y97.349 E0.7150
G1 X92.870 Y98.232 E0.7602
G1 X92.376 Y98.513 E0.7866
G1 X92.891 Y99.533 E0.8397
G1 X95.226 Y98.493 E0.9585
G1 X95.159 Y98.319 E0.9672
G1 X95.693 Y98.150 E0.9932
G1 X95.743 Y98.338 E1.0022
G1 X98.236 Y97.807 E1.1207
G1 X98.208 Y97.623 E1.1294
G1 X98.770 Y97.568 E1.1557
G1 X98.780 Y97.762 E1.1647
G1 X101.335 Y97.762 E1.2835
G1 X101.346 Y97.576 E1.2922
G1 X101.902 Y97.638 E1.3182
G1 X101.870 Y97.831 E1.3273
G1 X104.365 Y98.360 E1.4458
G1 X104.414 Y98.180 E1.4544
G1 X104.950 Y98.359 E1.4807
G1 X104.880 Y98.540 E1.4898
G1 X107.214 Y99.580 E1.6086
G1 X107.733 Y98.570 E1.6613
G1 X107.135 Y98.220 E1.6935
G1 X107.522 Y97.368 E1.7370
G1 X107.622 Y97.204 E1.7459
G1 X107.751 Y97.031 E1.7559
G1 X107.967 Y96.784 E1.7712
G1 X108.287 Y96.470 E1.7920
G1 X108.748 Y96.086 E1.8199
G1 X109.035 Y95.877 E1.8364
G1 X109.376 Y95.651 E1.8554
G1 X109.486 Y95.586 E1.8614
G1 X109.905 Y95.828 E1.8839
G1 X109.904 Y95.949 E1.8895
G1 X109.839 Y96.724 E1.9256
G1 X109.740 Y97.303 E1.9530
G1 X109.570 Y97.918 E1.9826
G1 X109.477 Y98.160 E1.9947
G1 X109.355 Y98.401 E2.0072
G1 X108.791 Y99.191 E2.0523
G1 X108.301 Y98.904 E2.0788
G1 X107.675 Y99.860 E2.1319
G1 X109.739 Y101.358 E2.2504
G1 X109.856 Y101.213 E2.2591
G1 X110.274 Y101.595 E2.2853
G1 X110.136 Y101.732 E2.2944
G1 X111.846 Y103.631 E2.4132
G1 X111.991 Y103.514 E2.4218
G1 X112.317 Y103.969 E2.4478
G1 X112.153 Y104.074 E2.4569
G1 X113.431 Y106.288 E2.5757
G1 X113.597 Y106.203 E2.5844
G1 X113.821 Y106.716 E2.6104
G1 X113.639 Y106.785 E2.6194
G1 X114.429 Y109.216 E2.7382
G1 X114.609 Y109.168 E2.7469
G1 X114.722 Y109.716 E2.7729
G1 X114.529 Y109.746 E2.7819
G1 X114.796 Y112.287 E2.9007
G1 X115.930 Y112.232 E2.9535
G1 X115.935 Y111.540 E2.9856
G1 X116.887 Y111.448 E3.0301
G1 X117.157 Y111.463 E3.0427
G1 X117.413 Y111.503 E3.0548
G1 X118.031 Y111.664 E3.0844
G1 X118.582 Y111.867 E3.1117
G1 X119.285 Y112.199 E3.1478
G1 X119.391 Y112.258 E3.1535
G1 X119.391 Y112.742 E3.1760
G1 X119.280 Y112.805 E3.1819
G1 X118.913 Y112.987 E3.2010
G1 X118.589 Y113.131 E3.2175
G1 X118.026 Y113.338 E3.2453
G1 X117.594 Y113.458 E3.2662
G1 X117.272 Y113.521 E3.2814
G1 X117.058 Y113.547 E3.2915
G1 X116.866 Y113.552 E3.3004
G1 X115.921 Y113.459 E3.3445
G1 X115.925 Y112.891 E3.3709
G1 X114.784 Y112.827 E3.4240
G1 X114.517 Y115.368 E3.5428
G1 X114.701 Y115.398 E3.5515
G1 X114.581 Y115.945 E3.5775
G1 X114.393 Y115.894 E3.5866
G1 X113.604 Y118.324 E3.7053
G1 X113.778 Y118.391 E3.7140
G1 X113.547 Y118.901 E3.7400
G1 X113.373 Y118.812 E3.7491
G1 X112.095 Y121.025 E3.8679
G1 X112.252 Y121.127 E3.8765
G1 X111.920 Y121.578 E3.9025
G1 X111.769 Y121.454 E3.9116
G1 X110.059 Y123.353 E4.0304
G1 X110.190 Y123.486 E4.0391
G1 X109.772 Y123.857 E4.0651
G1 X109.650 Y123.706 E4.0741
G1 X107.582 Y125.208 E4.1929
G1 X108.197 Y126.162 E4.2457
G1 X108.799 Y125.819 E4.2778
G1 X109.344 Y126.580 E4.3213
G1 X109.436 Y126.749 E4.3303
G1 X109.521 Y126.948 E4.3403
G1 X109.627 Y127.258 E4.3555
G1 X109.739 Y127.692 E4.3764
G1 X109.841 Y128.283 E4.4043
G1 X109.878 Y128.635 E4.4207
G1 X109.904 Y129.044 E4.4398
G1 X109.905 Y129.172 E4.4457
G1 X109.486 Y129.414 E4.4682
G1 X109.382 Y129.352 E4.4739
G1 X108.743 Y128.909 E4.5100
G1 X108.291 Y128.533 E4.5373
G1 X107.844 Y128.079 E4.5670
G1 X107.681 Y127.877 E4.5790
G1 X107.533 Y127.651 E4.5916
G1 X107.130 Y126.768 E4.6367
G1 X107.624 Y126.487 E4.6631
G1 X107.109 Y125.467 E4.7162
G1 X104.774 Y126.506 E4.8350
G1 X104.841 Y126.681 E4.8437
G1 X104.308 Y126.850 E4.8697
G1 X104.258 Y126.662 E4.8788
G1 X101.758 Y127.193 E4.9975
G1 X101.787 Y127.377 E5.0062
G1 X101.230 Y127.432 E5.0322
G1 X101.220 Y127.237 E5.0413
G1 X98.665 Y127.237 E5.1600
G1 X98.654 Y127.424 E5.1687
G1 X98.098 Y127.362 E5.1947
G1 X98.130 Y127.169 E5.2038
G1 X95.630 Y126.638 E5.3226
G1 X95.581 Y126.818 E5.3312
