; G-Code generated by Simplify3D(R) Version 4.1.2
; Nov 28, 2019 at 11:14:48 AM
; Settings Summary
;   processName,Fusematic
;   applyToModels,sg4
;   profileName,Fusematic (modified)
;   profileVersion,2019-11-24 18:18:37
;   baseProfile,Default
;   printMaterial,PLA
;   printQuality,Fast
;   printExtruders,
;   extruderName,Extruder 1
;   extruderToolheadNumber,0
;   extruderDiameter,0.4
;   extruderAutoWidth,0
;   extruderWidth,0.4
;   extrusionMultiplier,0.9
;   extruderUseRetract,1
;   extruderRetractionDistance,1
;   extruderExtraRestartDistance,0
;   extruderRetractionZLift,0
;   extruderRetractionSpeed,1800
;   extruderUseCoasting,0
;   extruderCoastingDistance,0.2
;   extruderUseWipe,0
;   extruderWipeDistance,5
;   primaryExtruder,0
;   layerHeight,0.3
;   topSolidLayers,3
;   bottomSolidLayers,3
;   perimeterOutlines,2
;   printPerimetersInsideOut,1
;   startPointOption,2
;   startPointOriginX,0
;   startPointOriginY,0
;   sequentialIslands,0
;   spiralVaseMode,0
;   firstLayerHeightPercentage,100
;   firstLayerWidthPercentage,100
;   firstLayerUnderspeed,0.5
;   useRaft,0
;   raftExtruder,0
;   raftTopLayers,3
;   raftBaseLayers,2
;   raftOffset,3
;   raftSeparationDistance,0.14
;   raftTopInfill,100
;   aboveRaftSpeedMultiplier,0.3
;   useSkirt,1
;   skirtExtruder,0
;   skirtLayers,1
;   skirtOutlines,2
;   skirtOffset,4
;   usePrimePillar,0
;   primePillarExtruder,999
;   primePillarWidth,12
;   primePillarLocation,7
;   primePillarSpeedMultiplier,1
;   useOozeShield,0
;   oozeShieldExtruder,999
;   oozeShieldOffset,2
;   oozeShieldOutlines,1
;   oozeShieldSidewallShape,1
;   oozeShieldSidewallAngle,30
;   oozeShieldSpeedMultiplier,1
;   infillExtruder,0
;   internalInfillPattern,Rectilinear
;   externalInfillPattern,Rectilinear
;   infillPercentage,15
;   outlineOverlapPercentage,15
;   infillExtrusionWidthPercentage,100
;   minInfillLength,5
;   infillLayerInterval,1
;   internalInfillAngles,45,-45
;   overlapInternalInfillAngles,0
;   externalInfillAngles,45,-45
;   generateSupport,1
;   supportExtruder,0
;   supportInfillPercentage,25
;   supportExtraInflation,0
;   supportBaseLayers,0
;   denseSupportExtruder,0
;   denseSupportLayers,0
;   denseSupportInfillPercentage,70
;   supportLayerInterval,1
;   supportHorizontalPartOffset,0.3
;   supportUpperSeparationLayers,1
;   supportLowerSeparationLayers,1
;   supportType,0
;   supportGridSpacing,4
;   maxOverhangAngle,45
;   supportAngles,0
;   temperatureName,Extruder 1,Heated Bed
;   temperatureNumber,0,0
;   temperatureSetpointCount,1,1
;   temperatureSetpointLayers,1,1
;   temperatureSetpointTemperatures,220,60
;   temperatureStabilizeAtStartup,1,1
;   temperatureHeatedBed,0,1
;   fanLayers,1,2
;   fanSpeeds,0,100
;   blipFanToFullPower,0
;   adjustSpeedForCooling,1
;   minSpeedLayerTime,15
;   minCoolingSpeedSlowdown,20
;   increaseFanForCooling,0
;   minFanLayerTime,45
;   maxCoolingFanSpeed,100
;   increaseFanForBridging,0
;   bridgingFanSpeed,100
;   use5D,1
;   relativeEdistances,0
;   allowEaxisZeroing,1
;   independentExtruderAxes,0
;   includeM10123,0
;   stickySupport,1
;   applyToolheadOffsets,0
;   gcodeXoffset,0
;   gcodeYoffset,0
;   gcodeZoffset,0
;   overrideMachineDefinition,1
;   machineTypeOverride,0
;   strokeXoverride,200
;   strokeYoverride,225
;   strokeZoverride,200
;   originOffsetXoverride,0
;   originOffsetYoverride,0
;   originOffsetZoverride,0
;   homeXdirOverride,-1
;   homeYdirOverride,-1
;   homeZdirOverride,-1
;   flipXoverride,1
;   flipYoverride,-1
;   flipZoverride,1
;   toolheadOffsets,0,0|0,0|0,0|0,0|0,0|0,0
;   overrideFirmwareConfiguration,1
;   firmwareTypeOverride,RepRap (Marlin/Repetier/Sprinter)
;   GPXconfigOverride,r2
;   baudRateOverride,250000
;   overridePrinterModels,0
;   printerModelsOverride
;   startingGcode,G28 ; home all axes
;   layerChangeGcode,
;   retractionGcode,
;   toolChangeGcode,
;   endingGcode,M104 S0 ; turn off extruder,M140 S0 ; turn off bed,G91 ; set to relative ,G1 Z5 ; move up ,G90 ;  set to absolute,M84 ; disable motors
;   exportFileFormat,gcode
;   celebration,0
;   celebrationSong,Take On Me
;   postProcessing,
;   defaultSpeed,3600
;   outlineUnderspeed,0.5
;   solidInfillUnderspeed,0.8
;   supportUnderspeed,0.8
;   rapidXYspeed,4800
;   rapidZspeed,1000
;   minBridgingArea,50
;   bridgingExtraInflation,0
;   bridgingExtrusionMultiplier,1
;   bridgingSpeedMultiplier,1
;   useFixedBridgingAngle,0
;   fixedBridgingAngle,0
;   applyBridgingToPerimeters,0
;   filamentDiameters,1.72|1.72|1.72|1.72|1.72|1.72
;   filamentPricesPerKg,46|46|46|46|46|46
;   filamentDensities,1.25|1.25|1.25|1.25|1.25|1.25
;   useMinPrintHeight,0
;   minPrintHeight,0
;   useMaxPrintHeight,0
;   maxPrintHeight,0
;   useDiaphragm,0
;   diaphragmLayerInterval,20
;   robustSlicing,1
;   mergeAllIntoSolid,0
;   onlyRetractWhenCrossingOutline,1
;   retractBetweenLayers,1
;   useRetractionMinTravel,0
;   retractionMinTravel,3
;   retractWhileWiping,0
;   onlyWipeOutlines,1
;   avoidCrossingOutline,0
;   maxMovementDetourFactor,3
;   toolChangeRetractionDistance,12
;   toolChangeExtraRestartDistance,-0.5
;   toolChangeRetractionSpeed,600
;   externalThinWallType,0
;   internalThinWallType,2
;   thinWallAllowedOverlapPercentage,10
;   singleExtrusionMinLength,1
;   singleExtrusionMinPrintingWidthPercentage,50
;   singleExtrusionMaxPrintingWidthPercentage,200
;   singleExtrusionEndpointExtension,0.2
;   horizontalSizeCompensation,0
G90
M82
M106 S0
M140 S60
M190 S60
M104 S220 T0
M109 S220 T0
G28 ; home all axes
; process Fusematic
; layer 1, Z = 0.300
T0
G92 E0.0000
G1 E-1.0000 F1800
; feature skirt
; tool H0.300 W0.400
G1 Z0.300 F1000
G1 X84.217 Y94.775 F4800
G1 E0.0000 F1800
G92 E0.0000
G1 X87.134 Y92.573 E0.1699 F1800
G1 X89.598 Y92.276 E0.2852
G1 X89.863 Y92.390 E0.2986
G1 X89.912 Y92.165 E0.3094
G1 X91.652 Y90.317 E0.4273
G1 X95.194 Y89.310 E0.5985
G1 X97.598 Y89.923 E0.7138
G1 X97.820 Y90.141 E0.7283
G1 X97.998 Y89.886 E0.7427
G1 X100.249 Y88.841 E0.8581
G1 X103.888 Y89.178 E1.0280
G1 X105.909 Y90.619 E1.1433
G1 X106.037 Y90.903 E1.1578
G1 X106.295 Y90.729 E1.1722
G1 X108.772 Y90.568 E1.2876
G1 X112.043 Y92.197 E1.4575
G1 X113.407 Y94.270 E1.5728
G1 X113.424 Y94.581 E1.5873
G1 X113.727 Y94.512 E1.6018
G1 X116.095 Y95.257 E1.7171
G1 X118.557 Y97.957 E1.8870
G1 X119.080 Y100.383 E2.0023
G1 X118.983 Y100.679 E2.0168
G1 X119.291 Y100.725 E2.0313
G1 X121.230 Y102.274 E2.1466
G1 X122.560 Y105.708 E2.3178
G1 X122.134 Y108.210 E2.4358
G1 X121.999 Y108.367 E2.4454
G1 X122.182 Y108.466 E2.4550
G1 X123.483 Y110.645 E2.5730
G1 X123.483 Y114.327 E2.7442
G1 X122.235 Y116.472 E2.8595
G1 X121.964 Y116.626 E2.8740
G1 X122.161 Y116.867 E2.8884
G1 X122.550 Y119.318 E3.0038
G1 X121.220 Y122.752 E3.1750
G1 X119.219 Y124.314 E3.2929
G1 X119.014 Y124.339 E3.3026
G1 X119.082 Y124.535 E3.3122
G1 X118.576 Y127.022 E3.4302
G1 X116.095 Y129.743 E3.6013
G1 X113.727 Y130.488 E3.7167
G1 X113.424 Y130.419 E3.7312
G1 X113.407 Y130.730 E3.7456
G1 X112.043 Y132.803 E3.8610
G1 X108.747 Y134.445 E4.0321
G1 X106.216 Y134.251 E4.1501
G1 X106.047 Y134.132 E4.1597
G1 X105.966 Y134.322 E4.1694
G1 X103.916 Y135.819 E4.2873
G1 X100.250 Y136.159 E4.4585
G1 X97.999 Y135.114 E4.5738
G1 X97.820 Y134.859 E4.5883
G1 X97.598 Y135.077 E4.6028
G1 X95.193 Y135.690 E4.7182
G1 X91.652 Y134.683 E4.8893
G1 X89.912 Y132.835 E5.0073
G1 X89.868 Y132.632 E5.0169
G1 X89.679 Y132.719 E5.0266
G1 X87.156 Y132.444 E5.1445
G1 X84.217 Y130.225 E5.3157
G1 X83.258 Y127.936 E5.4311
G1 X83.298 Y127.627 E5.4455
G1 X82.987 Y127.639 E5.4600
G1 X80.797 Y126.472 E5.5753
G1 X78.858 Y123.342 E5.7465
G1 X78.817 Y120.804 E5.8645
G1 X78.921 Y120.624 E5.8741
G1 X78.723 Y120.561 E5.8837
G1 X77.044 Y118.658 E6.0017
G1 X76.367 Y115.039 E6.1729
G1 X77.200 Y112.701 E6.2882
G1 X77.438 Y112.500 E6.3027
G1 X77.200 Y112.299 E6.3172
G1 X76.367 Y109.961 E6.4325
G1 X77.044 Y106.342 E6.6037
G1 X78.723 Y104.439 E6.7216
G1 X78.943 Y104.369 E6.7324
G1 X78.805 Y104.115 E6.7458
G1 X78.873 Y101.634 E6.8611
G1 X80.797 Y98.528 E7.0310
G1 X82.987 Y97.361 E7.1463
G1 X83.298 Y97.373 E7.1608
G1 X83.258 Y97.064 E7.1753
G1 X84.217 Y94.775 E7.2906
G92 E0.0000
G1 E-1.0000 F1800
G1 X84.544 Y95.029 F4800
G1 E0.0000 F1800
G92 E0.0000
G1 X87.288 Y92.957 E0.1598 F1800
G1 X89.539 Y92.686 E0.2652
G1 X90.149 Y92.950 E0.2961
G1 X90.279 Y92.359 E0.3242
G1 X91.868 Y90.672 E0.4319
G1 X95.199 Y89.724 E0.5929
G1 X97.395 Y90.284 E0.6982
G1 X97.877 Y90.758 E0.7297
G1 X98.264 Y90.204 E0.7611
G1 X100.320 Y89.249 E0.8665
G1 X103.744 Y89.567 E1.0263
G1 X105.588 Y90.882 E1.1316
G1 X105.867 Y91.499 E1.1630
G1 X106.429 Y91.121 E1.1945
G1 X108.690 Y90.974 E1.2998
G1 X111.768 Y92.507 E1.4597
G1 X113.013 Y94.400 E1.5650
G1 X113.051 Y95.075 E1.5964
G1 X113.710 Y94.926 E1.6279
G1 X115.872 Y95.606 E1.7332
G1 X118.189 Y98.147 E1.8930
G1 X118.666 Y100.362 E1.9984
G1 X118.457 Y101.005 E2.0298
G1 X119.126 Y101.105 E2.0613
G1 X120.896 Y102.519 E2.1666
G1 X122.147 Y105.750 E2.3276
G1 X121.758 Y108.034 E2.4353
G1 X121.373 Y108.485 E2.4629
G1 X121.895 Y108.766 E2.4904
G1 X123.083 Y110.755 E2.5981
G1 X123.083 Y114.219 E2.7591
G1 X121.943 Y116.178 E2.8645
G1 X121.355 Y116.512 E2.8959
G1 X121.783 Y117.036 E2.9274
G1 X122.138 Y119.274 E3.0327
G1 X120.887 Y122.505 E3.1937
G1 X119.060 Y123.931 E3.3014
G1 X118.472 Y124.004 E3.3290
G1 X118.668 Y124.564 E3.3565
G1 X118.206 Y126.834 E3.4642
G1 X115.872 Y129.394 E3.6253
G1 X113.710 Y130.074 E3.7306
G1 X113.051 Y129.925 E3.7620
G1 X113.013 Y130.600 E3.7935
G1 X111.768 Y132.493 E3.8988
G1 X108.667 Y134.037 E4.0598
G1 X106.357 Y133.861 E4.1675
G1 X105.873 Y133.519 E4.1951
G1 X105.641 Y134.064 E4.2226
G1 X103.769 Y135.431 E4.3303
G1 X100.320 Y135.751 E4.4913
G1 X98.265 Y134.797 E4.5967
G1 X97.878 Y134.242 E4.6281
G1 X97.395 Y134.716 E4.6596
G1 X95.199 Y135.276 E4.7649
G1 X91.867 Y134.328 E4.9259
G1 X90.279 Y132.641 E5.0336
G1 X90.152 Y132.062 E5.0612
G1 X89.613 Y132.309 E5.0887
G1 X87.309 Y132.058 E5.1965
G1 X84.544 Y129.971 E5.3575
G1 X83.668 Y127.881 E5.4628
G1 X83.756 Y127.210 E5.4942
G1 X83.079 Y127.235 E5.5257
G1 X81.080 Y126.170 E5.6310
G1 X79.256 Y123.225 E5.7920
G1 X79.219 Y120.908 E5.8997
G1 X79.515 Y120.394 E5.9273
G1 X78.950 Y120.214 E5.9549
G1 X77.417 Y118.476 E6.0626
G1 X76.780 Y115.071 E6.2236
G1 X77.540 Y112.937 E6.3289
G1 X78.057 Y112.500 E6.3604
G1 X77.540 Y112.063 E6.3918
G1 X76.780 Y109.929 E6.4971
G1 X77.417 Y106.524 E6.6581
G1 X78.950 Y104.786 E6.7659
G1 X79.526 Y104.602 E6.7940
G1 X79.208 Y104.018 E6.8249
G1 X79.270 Y101.753 E6.9302
G1 X81.080 Y98.830 E7.0900
G1 X83.079 Y97.765 E7.1953
G1 X83.756 Y97.790 E7.2268
G1 X83.668 Y97.119 E7.2582
G1 X84.544 Y95.029 E7.3636
G92 E0.0000
G1 E-1.0000 F1800
; feature inner perimeter
G1 X88.620 Y97.967 F4800
G1 E0.0000 F1800
G92 E0.0000
G1 X88.998 Y97.681 E0.0220 F1350
G1 X89.108 Y97.728 E0.0276
G1 X89.788 Y98.080 E0.0632
G1 X90.273 Y98.389 E0.0899
G1 X90.762 Y98.775 E0.1189
G1 X90.943 Y98.950 E0.1306
G1 X91.111 Y99.150 E0.1427
G1 X91.631 Y100.006 E0.1892
G1 X91.082 Y100.321 E0.2187
G1 X90.154 Y101.153 E0.2766
G1 X89.430 Y100.368 E0.3262
G1 X89.253 Y100.084 E0.3418
G1 X89.032 Y99.603 E0.3664
G1 X88.956 Y99.399 E0.3765
G1 X88.786 Y98.828 E0.4042
G1 X88.708 Y98.488 E0.4204
G1 X88.636 Y98.091 E0.4392
G1 X88.620 Y97.967 E0.4450
G1 X90.381 Y102.243 F4800
G92 E0.0000
G1 X90.710 Y101.948 E0.0206 F1350
G1 X90.820 Y102.084 E0.0287
G1 X92.815 Y100.635 E0.1433
G1 X92.721 Y100.490 E0.1514
G1 X93.105 Y100.269 E0.1720
G1 X93.184 Y100.426 E0.1801
G1 X95.437 Y99.423 E0.2947
G1 X95.030 Y98.361 E0.3476
G1 X94.908 Y98.400 E0.3536
G1 X94.539 Y97.474 E0.3999
G1 X94.474 Y97.197 E0.4131
G1 X94.430 Y96.759 E0.4336
G1 X94.428 Y96.325 E0.4537
G1 X94.475 Y95.739 E0.4811
G1 X94.525 Y95.394 E0.4973
G1 X94.601 Y94.998 E0.5160
G1 X94.631 Y94.876 E0.5219
G1 X95.087 Y94.746 E0.5439
G1 X95.172 Y94.830 E0.5494
G1 X95.679 Y95.403 E0.5850
G1 X96.020 Y95.867 E0.6118
G1 X96.337 Y96.404 E0.6408
G1 X96.442 Y96.632 E0.6524
G1 X96.527 Y96.879 E0.6646
G1 X96.695 Y97.824 E0.7092
G1 X95.547 Y98.194 E0.7652
G1 X95.841 Y99.295 E0.8182
G1 X98.247 Y98.783 E0.9326
G1 X98.220 Y98.612 E0.9406
G1 X98.666 Y98.566 E0.9614
G1 X98.675 Y98.742 E0.9696
G1 X101.141 Y98.742 E1.0842
G1 X101.202 Y97.606 E1.1371
G1 X100.338 Y97.513 E1.1774
G1 X100.330 Y96.527 E1.2233
G1 X100.368 Y96.269 E1.2354
G1 X100.430 Y96.025 E1.2471
G1 X100.642 Y95.439 E1.2761
G1 X100.892 Y94.920 E1.3028
G1 X101.285 Y94.263 E1.3384
G1 X101.353 Y94.166 E1.3439
G1 X101.825 Y94.209 E1.3660
G1 X101.877 Y94.324 E1.3718
G1 X102.025 Y94.699 E1.3906
G1 X102.138 Y95.029 E1.4068
G1 X102.292 Y95.597 E1.4341
G1 X102.369 Y96.023 E1.4543
G1 X102.406 Y96.461 E1.4747
G1 X102.393 Y96.746 E1.4879
G1 X102.202 Y97.713 E1.5338
G1 X101.742 Y97.663 E1.5553
G1 X101.562 Y98.789 E1.6083
G1 X103.974 Y99.302 E1.7229
G1 X104.019 Y99.134 E1.7309
G1 X104.440 Y99.272 E1.7515
G1 X104.376 Y99.436 E1.7597
G1 X106.629 Y100.439 E1.8743
G1 X106.708 Y100.285 E1.8823
G1 X107.090 Y100.507 E1.9029
G1 X106.995 Y100.654 E1.9111
G1 X108.989 Y102.103 E2.0257
G1 X109.099 Y101.968 E2.0337
G1 X109.427 Y102.265 E2.0543
G1 X109.302 Y102.389 E2.0625
G1 X110.952 Y104.222 E2.1771
G1 X111.087 Y104.113 E2.1851
G1 X111.346 Y104.471 E2.2057
G1 X111.199 Y104.567 E2.2139
G1 X112.432 Y106.702 E2.3285
G1 X112.586 Y106.624 E2.3365
G1 X112.610 Y106.676 E2.3392
G1 X114.386 Y105.772 E2.4319
G1 X114.634 Y105.691 E2.4440
G1 X114.880 Y105.637 E2.4557
G1 X115.499 Y105.566 E2.4846
G1 X116.075 Y105.559 E2.5114
G1 X116.838 Y105.618 E2.5470
G1 X116.956 Y105.635 E2.5525
G1 X117.127 Y106.078 E2.5746
G1 X117.047 Y106.175 E2.5804
G1 X116.777 Y106.475 E2.5991
G1 X116.533 Y106.722 E2.6153
G1 X116.093 Y107.113 E2.6427
G1 X115.746 Y107.373 E2.6628
G1 X115.370 Y107.602 E2.6833
G1 X115.110 Y107.717 E2.6965
G1 X114.230 Y107.957 E2.7389
G1 X113.666 Y106.683 E2.8037
G1 X112.601 Y107.091 E2.8566
G1 X113.363 Y109.436 E2.9713
G1 X113.531 Y109.391 E2.9793
G1 X113.622 Y109.824 E2.9999
G1 X113.448 Y109.851 E3.0080
G1 X113.706 Y112.304 E3.1227
G1 X114.842 Y112.245 E3.1755
G1 X114.843 Y111.563 E3.2073
G1 X115.810 Y111.463 E3.2524
G1 X116.094 Y111.476 E3.2657
G1 X116.528 Y111.554 E3.2861
G1 X116.945 Y111.670 E3.3063
G1 X117.496 Y111.876 E3.3336
G1 X117.814 Y112.019 E3.3498
G1 X118.174 Y112.201 E3.3686
G1 X118.283 Y112.263 E3.3744
G1 X118.283 Y112.737 E3.3964
G1 X118.180 Y112.796 E3.4020
G1 X117.489 Y113.126 E3.4375
G1 X116.950 Y113.328 E3.4643
G1 X116.347 Y113.485 E3.4933
G1 X116.098 Y113.524 E3.5050
G1 X115.838 Y113.538 E3.5171
G1 X114.839 Y113.436 E3.5637
G1 X114.841 Y112.789 E3.5938
G1 X113.703 Y112.728 E3.6468
G1 X113.445 Y115.180 E3.7614
G1 X113.616 Y115.207 E3.7695
G1 X113.523 Y115.640 E3.7901
G1 X113.353 Y115.594 E3.7982
G1 X112.591 Y117.939 E3.9128
G1 X112.662 Y117.966 E3.9164
G1 X113.653 Y118.348 E3.9657
G1 X114.236 Y117.045 E4.0321
G1 X115.136 Y117.292 E4.0754
G1 X115.374 Y117.400 E4.0876
G1 X115.591 Y117.526 E4.0993
G1 X116.097 Y117.890 E4.1282
G1 X116.527 Y118.273 E4.1550
G1 X117.052 Y118.830 E4.1906
G1 X117.127 Y118.922 E4.1961
G1 X116.956 Y119.365 E4.2181
G1 X116.831 Y119.383 E4.2240
G1 X116.430 Y119.423 E4.2427
G1 X116.082 Y119.441 E4.2589
G1 X115.493 Y119.434 E4.2863
G1 X115.062 Y119.392 E4.3064
G1 X114.630 Y119.308 E4.3269
G1 X114.361 Y119.217 E4.3401
G1 X112.609 Y118.323 E4.4315
G1 X112.572 Y118.405 E4.4357
G1 X112.416 Y118.325 E4.4439
G1 X111.183 Y120.461 E4.5585
G1 X111.328 Y120.555 E4.5665
G1 X111.068 Y120.913 E4.5871
G1 X110.931 Y120.802 E4.5953
G1 X109.281 Y122.634 E4.7099
G1 X109.404 Y122.757 E4.7179
G1 X109.074 Y123.052 E4.7385
G1 X108.964 Y122.916 E4.7467
G1 X106.969 Y124.365 E4.8613
G1 X107.063 Y124.510 E4.8693
G1 X106.680 Y124.731 E4.8899
G1 X106.600 Y124.574 E4.8981
G1 X104.348 Y125.577 E5.0127
G1 X104.410 Y125.739 E5.0207
G1 X103.989 Y125.875 E5.0413
G1 X103.943 Y125.705 E5.0495
G1 X101.531 Y126.217 E5.1641
G1 X101.708 Y127.341 E5.2170
G1 X102.203 Y127.290 E5.2401
G1 X102.393 Y128.254 E5.2858
G1 X102.406 Y128.538 E5.2990
G1 X102.369 Y128.977 E5.3194
G1 X102.292 Y129.403 E5.3396
G1 X102.138 Y129.971 E5.3669
G1 X102.025 Y130.301 E5.3831
G1 X101.877 Y130.676 E5.4019
