; G-Code generated by Simplify3D(R) Version 4.1.2
; Nov 28, 2019 at 1:34:37 PM
; Settings Summary
;   processName,Fusematic
;   applyToModels,sg7,c18
;   profileName,Fusematic (modified)
;   profileVersion,2019-11-24 18:18:37
;   baseProfile,Default
;   printMaterial,PLA
;   printQuality,Fast
;   printExtruders,
;   extruderName,Extruder 1
;   extruderToolheadNumber,0
;   extruderDiameter,0.4
;   extruderAutoWidth,0
;   extruderWidth,0.4
;   extrusionMultiplier,0.9
;   extruderUseRetract,1
;   extruderRetractionDistance,1
;   extruderExtraRestartDistance,0
;   extruderRetractionZLift,0
;   extruderRetractionSpeed,1800
;   extruderUseCoasting,0
;   extruderCoastingDistance,0.2
;   extruderUseWipe,0
;   extruderWipeDistance,5
;   primaryExtruder,0
;   layerHeight,0.3
;   topSolidLayers,3
;   bottomSolidLayers,3
;   perimeterOutlines,2
;   printPerimetersInsideOut,1
;   startPointOption,2
;   startPointOriginX,0
;   startPointOriginY,0
;   sequentialIslands,0
;   spiralVaseMode,0
;   firstLayerHeightPercentage,100
;   firstLayerWidthPercentage,100
;   firstLayerUnderspeed,0.5
;   useRaft,0
;   raftExtruder,0
;   raftTopLayers,3
;   raftBaseLayers,2
;   raftOffset,3
;   raftSeparationDistance,0.14
;   raftTopInfill,100
;   aboveRaftSpeedMultiplier,0.3
;   useSkirt,1
;   skirtExtruder,0
;   skirtLayers,1
;   skirtOutlines,2
;   skirtOffset,4
;   usePrimePillar,0
;   primePillarExtruder,999
;   primePillarWidth,12
;   primePillarLocation,7
;   primePillarSpeedMultiplier,1
;   useOozeShield,0
;   oozeShieldExtruder,999
;   oozeShieldOffset,2
;   oozeShieldOutlines,1
;   oozeShieldSidewallShape,1
;   oozeShieldSidewallAngle,30
;   oozeShieldSpeedMultiplier,1
;   infillExtruder,0
;   internalInfillPattern,Rectilinear
;   externalInfillPattern,Rectilinear
;   infillPercentage,15
;   outlineOverlapPercentage,15
;   infillExtrusionWidthPercentage,100
;   minInfillLength,5
;   infillLayerInterval,1
;   internalInfillAngles,45,-45
;   overlapInternalInfillAngles,0
;   externalInfillAngles,45,-45
;   generateSupport,1
;   supportExtruder,0
;   supportInfillPercentage,25
;   supportExtraInflation,0
;   supportBaseLayers,0
;   denseSupportExtruder,0
;   denseSupportLayers,0
;   denseSupportInfillPercentage,70
;   supportLayerInterval,1
;   supportHorizontalPartOffset,0.3
;   supportUpperSeparationLayers,1
;   supportLowerSeparationLayers,1
;   supportType,0
;   supportGridSpacing,4
;   maxOverhangAngle,45
;   supportAngles,0
;   temperatureName,Extruder 1,Heated Bed
;   temperatureNumber,0,0
;   temperatureSetpointCount,1,1
;   temperatureSetpointLayers,1,1
;   temperatureSetpointTemperatures,220,60
;   temperatureStabilizeAtStartup,1,1
;   temperatureHeatedBed,0,1
;   fanLayers,1,2
;   fanSpeeds,0,100
;   blipFanToFullPower,0
;   adjustSpeedForCooling,1
;   minSpeedLayerTime,15
;   minCoolingSpeedSlowdown,20
;   increaseFanForCooling,0
;   minFanLayerTime,45
;   maxCoolingFanSpeed,100
;   increaseFanForBridging,0
;   bridgingFanSpeed,100
;   use5D,1
;   relativeEdistances,0
;   allowEaxisZeroing,1
;   independentExtruderAxes,0
;   includeM10123,0
;   stickySupport,1
;   applyToolheadOffsets,0
;   gcodeXoffset,0
;   gcodeYoffset,0
;   gcodeZoffset,0
;   overrideMachineDefinition,1
;   machineTypeOverride,0
;   strokeXoverride,200
;   strokeYoverride,225
;   strokeZoverride,200
;   originOffsetXoverride,0
;   originOffsetYoverride,0
;   originOffsetZoverride,0
;   homeXdirOverride,-1
;   homeYdirOverride,-1
;   homeZdirOverride,-1
;   flipXoverride,1
;   flipYoverride,-1
;   flipZoverride,1
;   toolheadOffsets,0,0|0,0|0,0|0,0|0,0|0,0
;   overrideFirmwareConfiguration,1
;   firmwareTypeOverride,RepRap (Marlin/Repetier/Sprinter)
;   GPXconfigOverride,r2
;   baudRateOverride,250000
;   overridePrinterModels,0
;   printerModelsOverride
;   startingGcode,G28 ; home all axes
;   layerChangeGcode,
;   retractionGcode,
;   toolChangeGcode,
;   endingGcode,M104 S0 ; turn off extruder,M140 S0 ; turn off bed,G91 ; set to relative ,G1 Z5 ; move up ,G90 ;  set to absolute,M84 ; disable motors
;   exportFileFormat,gcode
;   celebration,0
;   celebrationSong,Take On Me
;   postProcessing,
;   defaultSpeed,3600
;   outlineUnderspeed,0.5
;   solidInfillUnderspeed,0.8
;   supportUnderspeed,0.8
;   rapidXYspeed,4800
;   rapidZspeed,1000
;   minBridgingArea,50
;   bridgingExtraInflation,0
;   bridgingExtrusionMultiplier,1
;   bridgingSpeedMultiplier,1
;   useFixedBridgingAngle,0
;   fixedBridgingAngle,0
;   applyBridgingToPerimeters,0
;   filamentDiameters,1.72|1.72|1.72|1.72|1.72|1.72
;   filamentPricesPerKg,46|46|46|46|46|46
;   filamentDensities,1.25|1.25|1.25|1.25|1.25|1.25
;   useMinPrintHeight,0
;   minPrintHeight,0
;   useMaxPrintHeight,0
;   maxPrintHeight,0
;   useDiaphragm,0
;   diaphragmLayerInterval,20
;   robustSlicing,1
;   mergeAllIntoSolid,0
;   onlyRetractWhenCrossingOutline,1
;   retractBetweenLayers,1
;   useRetractionMinTravel,0
;   retractionMinTravel,3
;   retractWhileWiping,0
;   onlyWipeOutlines,1
;   avoidCrossingOutline,0
;   maxMovementDetourFactor,3
;   toolChangeRetractionDistance,12
;   toolChangeExtraRestartDistance,-0.5
;   toolChangeRetractionSpeed,600
;   externalThinWallType,0
;   internalThinWallType,2
;   thinWallAllowedOverlapPercentage,10
;   singleExtrusionMinLength,1
;   singleExtrusionMinPrintingWidthPercentage,50
;   singleExtrusionMaxPrintingWidthPercentage,200
;   singleExtrusionEndpointExtension,0.2
;   horizontalSizeCompensation,0
G90
M82
M106 S0
M140 S60
M190 S60
M104 S220 T0
M109 S220 T0
G28 ; home all axes
; process Fusematic
; layer 1, Z = 0.300
T0
G92 E0.0000
G1 E-1.0000 F1800
; feature skirt
; tool H0.300 W0.400
G1 Z0.300 F1000
G1 X21.595 Y23.400 F4800
G1 E0.0000 F1800
G92 E0.0000
G1 X130.384 Y23.400 E5.0567 F1800
G1 X131.330 Y23.601 E5.1016
G1 X143.341 Y28.949 E5.7127
G1 X143.759 Y29.190 E5.7352
G1 X158.102 Y39.611 E6.5592
G1 X158.460 Y39.934 E6.5816
G1 X170.324 Y53.109 E7.4057
G1 X170.607 Y53.499 E7.4281
G1 X179.471 Y68.853 E8.2522
G1 X179.667 Y69.293 E8.2746
G1 X180.987 Y73.353 E8.4730
G1 X181.100 Y74.068 E8.5067
G1 X181.100 Y134.932 E11.3357
G1 X180.987 Y135.648 E11.3694
G1 X179.667 Y139.707 E11.5678
G1 X179.471 Y140.147 E11.5902
G1 X170.607 Y155.501 E12.4142
G1 X170.324 Y155.891 E12.4366
G1 X158.460 Y169.067 E13.2607
G1 X158.102 Y169.389 E13.2831
G1 X143.759 Y179.810 E14.1072
G1 X143.341 Y180.051 E14.1296
G1 X131.330 Y185.399 E14.7407
G1 X130.384 Y185.600 E14.7857
G1 X69.600 Y185.600 E17.6110
G1 X69.600 Y198.905 E18.2295
G1 X66.905 Y201.600 E18.4066
G1 X37.095 Y201.600 E19.7922
G1 X34.400 Y198.905 E19.9694
G1 X34.400 Y185.600 E20.5878
G1 X21.595 Y185.600 E21.1830
G1 X18.900 Y182.905 E21.3602
G1 X18.900 Y26.095 E28.6489
G1 X21.595 Y23.400 E28.8260
G92 E0.0000
G1 E-1.0000 F1800
G1 X21.760 Y23.800 F4800
G1 E0.0000 F1800
G92 E0.0000
G1 X130.342 Y23.800 E5.0470 F1800
G1 X131.206 Y23.984 E5.0881
G1 X143.159 Y29.306 E5.6963
G1 X143.541 Y29.526 E5.7167
G1 X157.850 Y39.923 E6.5388
G1 X158.177 Y40.217 E6.5593
G1 X170.012 Y53.361 E7.3814
G1 X170.271 Y53.717 E7.4019
G1 X179.114 Y69.035 E8.2240
G1 X179.293 Y69.437 E8.2445
G1 X180.597 Y73.446 E8.4404
G1 X180.700 Y74.099 E8.4712
G1 X180.700 Y134.901 E11.2973
G1 X180.596 Y135.554 E11.3280
G1 X179.293 Y139.563 E11.5240
G1 X179.114 Y139.965 E11.5444
G1 X170.271 Y155.283 E12.3665
G1 X170.012 Y155.639 E12.3870
G1 X158.177 Y168.783 E13.2091
G1 X157.850 Y169.078 E13.2296
G1 X143.541 Y179.474 E14.0517
G1 X143.159 Y179.694 E14.0722
G1 X131.206 Y185.016 E14.6804
G1 X130.342 Y185.200 E14.7214
G1 X69.200 Y185.200 E17.5634
G1 X69.200 Y198.740 E18.1927
G1 X66.740 Y201.200 E18.3545
G1 X37.260 Y201.200 E19.7247
G1 X34.800 Y198.740 E19.8864
G1 X34.800 Y185.200 E20.5158
G1 X21.760 Y185.200 E21.1219
G1 X19.300 Y182.740 E21.2836
G1 X19.300 Y26.260 E28.5569
G1 X21.760 Y23.800 E28.7187
G92 E0.0000
G1 E-1.0000 F1800
; feature inner perimeter
G1 X24.100 Y28.600 F4800
G1 E0.0000 F1800
G92 E0.0000
G1 X129.773 Y28.600 E4.9118 F1350
G1 X140.948 Y33.575 E5.4804
G1 X154.799 Y43.639 E6.2762
G1 X166.256 Y56.363 E7.0720
G1 X174.816 Y71.189 E7.8678
G1 X175.900 Y74.525 E8.0308
G1 X175.900 Y134.475 E10.8174
G1 X174.816 Y137.810 E10.9804
G1 X166.256 Y152.638 E11.7762
G1 X154.799 Y165.361 E12.5720
G1 X140.948 Y175.425 E13.3678
G1 X129.773 Y180.400 E13.9364
G1 X64.400 Y180.400 E16.9750
G1 X64.400 Y196.400 E17.7187
G1 X39.600 Y196.400 E18.8714
G1 X39.600 Y180.400 E19.6151
G1 X24.100 Y180.400 E20.3356
G1 X24.100 Y28.600 E27.3914
; feature outer perimeter
G1 X23.700 Y28.200 F4800
G92 E0.0000
G1 X129.858 Y28.200 E4.9344 F900
G1 X141.149 Y33.227 E5.5089
G1 X155.068 Y43.340 E6.3086
G1 X166.581 Y56.126 E7.1083
G1 X175.183 Y71.026 E7.9080
G1 X176.300 Y74.462 E8.0759
G1 X176.300 Y134.539 E10.8683
G1 X175.183 Y137.974 E11.0363
G1 X166.581 Y152.874 E11.8360
G1 X155.068 Y165.660 E12.6357
G1 X141.149 Y175.773 E13.4354
G1 X129.858 Y180.800 E14.0099
G1 X64.800 Y180.800 E17.0339
G1 X64.800 Y196.800 E17.7776
G1 X39.200 Y196.800 E18.9675
G1 X39.200 Y180.800 E19.7112
G1 X23.700 Y180.800 E20.4316
G1 X23.700 Y28.200 E27.5247
; feature inner perimeter
G1 X61.121 Y61.321 F4800
G92 E0.0000
G1 X52.993 Y70.347 E0.5646 F1350
G1 X46.920 Y80.867 E1.1292
G1 X43.166 Y92.420 E1.6938
G1 X41.897 Y104.500 E2.2584
G1 X43.166 Y116.580 E2.8230
G1 X46.920 Y128.133 E3.3876
G1 X52.993 Y138.652 E3.9522
G1 X61.121 Y147.679 E4.5168
G1 X70.948 Y154.819 E5.0814
G1 X82.045 Y159.759 E5.6460
G1 X93.927 Y162.285 E6.2106
G1 X106.073 Y162.285 E6.7752
G1 X117.955 Y159.759 E7.3398
G1 X129.052 Y154.819 E7.9044
G1 X138.879 Y147.679 E8.4690
G1 X147.006 Y138.652 E9.0336
G1 X153.080 Y128.133 E9.5982
G1 X156.833 Y116.580 E10.1628
G1 X158.103 Y104.500 E10.7274
G1 X156.833 Y92.420 E11.2920
G1 X153.080 Y80.867 E11.8566
G1 X147.006 Y70.347 E12.4213
G1 X138.879 Y61.321 E12.9858
G1 X129.052 Y54.181 E13.5504
G1 X117.955 Y49.240 E14.1150
G1 X106.073 Y46.715 E14.6796
G1 X93.927 Y46.715 E15.2443
G1 X82.045 Y49.240 E15.8089
G1 X70.948 Y54.181 E16.3735
G1 X61.121 Y61.321 E16.9380
; feature outer perimeter
G1 X61.390 Y61.620 F4800
G92 E0.0000
G1 X53.319 Y70.584 E0.5607 F900
G1 X47.287 Y81.031 E1.1214
G1 X43.560 Y92.503 E1.6821
G1 X42.299 Y104.500 E2.2428
G1 X43.560 Y116.497 E2.8035
G1 X47.287 Y127.969 E3.3642
G1 X53.319 Y138.416 E3.9249
G1 X61.390 Y147.380 E4.4856
G1 X71.149 Y154.471 E5.0463
G1 X82.169 Y159.377 E5.6069
G1 X93.969 Y161.885 E6.1676
G1 X106.031 Y161.885 E6.7283
G1 X117.831 Y159.377 E7.2890
G1 X128.851 Y154.471 E7.8497
G1 X138.610 Y147.380 E8.4104
G1 X146.681 Y138.416 E8.9711
G1 X152.713 Y127.969 E9.5318
G1 X156.440 Y116.497 E10.0925
G1 X157.701 Y104.500 E10.6532
G1 X156.440 Y92.503 E11.2139
G1 X152.713 Y81.031 E11.7746
G1 X146.681 Y70.584 E12.3353
G1 X138.610 Y61.620 E12.8960
G1 X128.851 Y54.530 E13.4566
G1 X117.831 Y49.623 E14.0173
G1 X106.031 Y47.115 E14.5780
G1 X93.969 Y47.115 E15.1387
G1 X82.169 Y49.623 E15.6994
G1 X71.149 Y54.530 E16.2601
G1 X61.390 Y61.620 E16.8208
G92 E0.0000
G1 E-1.0000 F1800
; feature solid layer
G1 X144.501 Y67.057 F4800
G1 E0.0000 F1800
G92 E0.0000
G1 X175.560 Y98.116 E2.0416 F1440
G1 X175.560 Y98.682 E2.0679
G1 X147.635 Y70.757 E3.9035
G1 X148.408 Y72.095 E3.9754
G1 X175.560 Y99.247 E5.7602
G1 X175.560 Y99.813 E5.7865
G1 X149.181 Y73.434 E7.5205
G1 X149.954 Y74.772 E7.5924
G1 X175.560 Y100.379 E9.2756
G1 X175.560 Y100.944 E9.3019
G1 X150.727 Y76.111 E10.9343
G1 X151.499 Y77.450 E11.0061
G1 X175.560 Y101.510 E12.5877
G1 X175.560 Y102.076 E12.6140
G1 X152.272 Y78.788 E14.1448
G1 X153.045 Y80.127 E14.2167
G1 X175.560 Y102.641 E15.6967
G1 X175.560 Y103.207 E15.7230
G1 X153.542 Y81.190 E17.1703
G1 X153.815 Y82.027 E17.2112
G1 X175.560 Y103.773 E18.6406
G1 X175.560 Y104.339 E18.6669
G1 X154.087 Y82.865 E20.0785
G1 X154.359 Y83.703 E20.1194
G1 X175.560 Y104.904 E21.5131
G1 X175.560 Y105.470 E21.5394
G1 X154.631 Y84.541 E22.9151
G1 X154.903 Y85.379 E22.9560
G1 X175.560 Y106.036 E24.3139
G1 X175.560 Y106.601 E24.3402
G1 X155.176 Y86.217 E25.6801
G1 X155.448 Y87.055 E25.7211
G1 X175.560 Y107.167 E27.0432
G1 X175.560 Y107.733 E27.0695
G1 X155.720 Y87.893 E28.3736
G1 X155.992 Y88.730 E28.4146
G1 X175.560 Y108.298 E29.7009
G1 X175.560 Y108.864 E29.7272
G1 X156.264 Y89.568 E30.9955
G1 X156.537 Y90.406 E31.0365
G1 X175.560 Y109.430 E32.2870
G1 X175.560 Y109.995 E32.3133
G1 X156.809 Y91.244 E33.5459
G1 X157.081 Y92.082 E33.5868
G1 X175.560 Y110.561 E34.8015
G1 X175.560 Y111.127 E34.8278
G1 X157.213 Y92.780 E36.0339
G1 X157.279 Y93.412 E36.0634
G1 X175.560 Y111.692 E37.2651
G1 X175.560 Y112.258 E37.2914
G1 X157.346 Y94.044 E38.4887
G1 X157.412 Y94.676 E38.5182
G1 X175.560 Y112.824 E39.7112
G1 X175.560 Y113.390 E39.7375
G1 X157.479 Y95.308 E40.9260
G1 X157.545 Y95.940 E40.9556
G1 X175.560 Y113.955 E42.1398
G1 X175.560 Y114.521 E42.1660
G1 X157.612 Y96.573 E43.3459
G1 X157.678 Y97.205 E43.3754
G1 X175.560 Y115.087 E44.5509
G1 X175.560 Y115.652 E44.5772
G1 X157.745 Y97.837 E45.7482
G1 X157.811 Y98.469 E45.7778
G1 X175.560 Y116.218 E46.9445
G1 X175.560 Y116.784 E46.9708
G1 X157.878 Y99.101 E48.1331
G1 X157.944 Y99.733 E48.1627
G1 X175.560 Y117.349 E49.3207
G1 X175.560 Y117.915 E49.3470
G1 X158.010 Y100.365 E50.5006
G1 X158.077 Y100.998 E50.5301
G1 X175.560 Y118.481 E51.6794
G1 X175.560 Y119.046 E51.7056
G1 X158.143 Y101.630 E52.8505
G1 X158.210 Y102.262 E52.8801
G1 X175.560 Y119.612 E54.0206
G1 X175.560 Y120.178 E54.0469
G1 X158.276 Y102.894 E55.1830
G1 X158.343 Y103.526 E55.2125
G1 X175.560 Y120.743 E56.3443
G1 X175.560 Y121.309 E56.3706
G1 X158.409 Y104.158 E57.4980
G1 X158.445 Y104.500 E57.5139
G1 X158.420 Y104.735 E57.5249
G1 X175.560 Y121.875 E58.6516
G1 X175.560 Y122.440 E58.6779
G1 X158.367 Y105.247 E59.8081
G1 X158.313 Y105.759 E59.8320
G1 X175.560 Y123.006 E60.9657
G1 X175.560 Y123.572 E60.9920
G1 X158.259 Y106.271 E62.1293
G1 X158.205 Y106.783 E62.1532
G1 X175.560 Y124.138 E63.2940
G1 X175.560 Y124.703 E63.3203
G1 X158.151 Y107.295 E64.4647
G1 X158.098 Y107.806 E64.4886
G1 X175.560 Y125.269 E65.6365
G1 X175.560 Y125.835 E65.6628
G1 X158.044 Y108.318 E66.8142
G1 X157.990 Y108.830 E66.8381
G1 X175.560 Y126.400 E67.9931
G1 X175.560 Y126.966 E68.0194
G1 X157.936 Y109.342 E69.1779
G1 X157.882 Y109.854 E69.2018
G1 X175.560 Y127.532 E70.3638
G1 X175.560 Y128.097 E70.3901
G1 X157.828 Y110.366 E71.5557
G1 X157.775 Y110.878 E71.5796
G1 X175.560 Y128.663 E72.7487
G1 X175.560 Y129.229 E72.7750
G1 X157.721 Y111.389 E73.9477
G1 X157.667 Y111.901 E73.9716
G1 X175.560 Y129.794 E75.1478
G1 X175.560 Y130.360 E75.1741
G1 X157.613 Y112.413 E76.3538
G1 X157.559 Y112.925 E76.3777
G1 X175.560 Y130.926 E77.5610
G1 X175.560 Y131.491 E77.5873
G1 X157.505 Y113.437 E78.7741
G1 X157.452 Y113.949 E78.7980
G1 X175.560 Y132.057 E79.9883
G1 X175.560 Y132.623 E80.0146
G1 X157.398 Y114.461 E81.2085
G1 X157.344 Y114.973 E81.2324
G1 X175.560 Y133.189 E82.4298
G1 X175.560 Y133.754 E82.4561
G1 X157.290 Y115.484 E83.6571
G1 X157.236 Y115.996 E83.6810
G1 X175.560 Y134.320 E84.8855
G1 X175.560 Y134.421 E84.8902
G1 X175.446 Y134.772 E84.9073
G1 X157.183 Y116.508 E86.1079
G1 X157.168 Y116.651 E86.1146
G1 X157.068 Y116.959 E86.1296
G1 X175.307 Y135.199 E87.3286
G1 X175.169 Y135.626 E87.3494
G1 X156.929 Y117.386 E88.5484
G1 X156.790 Y117.813 E88.5693
G1 X175.030 Y136.052 E89.7682
G1 X174.891 Y136.479 E89.7891
G1 X156.652 Y118.240 E90.9881
G1 X156.513 Y118.667 E91.0089
G1 X174.752 Y136.906 E92.2079
G1 X174.613 Y137.333 E92.2288
G1 X156.374 Y119.094 E93.4277
G1 X156.235 Y119.521 E93.4486
G1 X174.461 Y137.746 E94.6466
G1 X174.253 Y138.105 E94.6659
G1 X156.097 Y119.948 E95.8594
G1 X155.958 Y120.375 E95.8802
G1 X174.046 Y138.463 E97.0693
G1 X173.839 Y138.822 E97.0885
G1 X155.819 Y120.802 E98.2731
G1 X155.681 Y121.229 E98.2939
G1 X173.632 Y139.180 E99.4740
G1 X173.425 Y139.539 E99.4932
G1 X155.542 Y121.656 E100.6688
G1 X155.403 Y122.083 E100.6897
G1 X173.218 Y139.898 E101.8607
G1 X173.011 Y140.256 E101.8800
G1 X155.264 Y122.510 E103.0465
G1 X155.126 Y122.937 E103.0674
G1 X172.804 Y140.615 E104.2295
G1 X172.597 Y140.974 E104.2487
G1 X154.987 Y123.364 E105.4063
G1 X154.848 Y123.790 E105.4272
G1 X172.390 Y141.332 E106.5803
G1 X172.183 Y141.691 E106.5995
